; generated by Slic3r 0.8.4-dev on 2012-08-09 at 22:42:49

; layer_height = 0.4
; perimeters = 3
; solid_layers = 3
; fill_density = 0.4
; nozzle_diameter = 0.5
; filament_diameter = 3
; extrusion_multiplier = 1
; perimeter_speed = 30
; infill_speed = 60
; travel_speed = 130
; scale = 1
; single wall width = 0.53mm

M104 S200 ; set temperature
G28 ; home all axes
M109 S200 ; wait for temperature to be reached
G90 ; use absolute coordinates
G21 ; set units to millimeters
G92 E0 ; reset extrusion distance
M82 ; use absolute distances for extrusion
G1 Z0.400 F7800.000
G1 X79.420 Y79.580
G1 F1800.000 E1.00000
G1 X79.930 Y79.100 F540.000 E1.02059
G1 X83.410 Y76.240 E1.15305
G1 X83.990 Y75.820 E1.17411
G1 X88.800 Y73.260 E1.33433
G1 X89.010 Y73.170 E1.34105
G1 X89.230 Y73.090 E1.34793
G1 X93.990 Y71.640 E1.49425
G1 X94.450 Y71.540 E1.50809
G1 X99.640 Y71.020 E1.66147
G1 X99.870 Y71.010 E1.66824
G1 X100.340 Y71.020 E1.68207
G1 X105.530 Y71.540 E1.83544
G1 X106.000 Y71.640 E1.84957
G1 X110.760 Y73.090 E1.99589
G1 X110.980 Y73.170 E2.00278
G1 X111.610 Y73.460 E2.02317
G1 X116.000 Y75.820 E2.16973
G1 X116.580 Y76.240 E2.19079
G1 X120.240 Y79.260 E2.33032
G1 X120.730 Y79.750 E2.35070
G1 X123.750 Y83.410 E2.49023
G1 X124.170 Y83.990 E2.51128
G1 X126.730 Y88.800 E2.67151
G1 X126.820 Y89.010 E2.67823
G1 X126.900 Y89.230 E2.68511
G1 X128.350 Y93.990 E2.83143
G1 X128.450 Y94.460 E2.84556
G1 X128.970 Y99.650 E2.99894
G1 X128.980 Y100.120 E3.01276
G1 X128.450 Y105.540 E3.17290
G1 X128.350 Y106.000 E3.18674
G1 X126.900 Y110.760 E3.33306
G1 X126.820 Y110.980 E3.33994
G1 X126.530 Y111.610 E3.36034
G1 X124.170 Y116.000 E3.50690
G1 X123.750 Y116.580 E3.52795
G1 X120.730 Y120.240 E3.66749
G1 X120.240 Y120.730 E3.68786
G1 X116.580 Y123.750 E3.82739
G1 X116.000 Y124.170 E3.84845
G1 X111.190 Y126.730 E4.00868
G1 X110.980 Y126.820 E4.01539
G1 X110.760 Y126.900 E4.02228
G1 X106.020 Y128.340 E4.16795
G1 X105.390 Y128.470 E4.18686
G1 X100.350 Y128.970 E4.33580
G1 X100.120 Y128.980 E4.34256
G1 X99.650 Y128.970 E4.35639
G1 X94.460 Y128.450 E4.50977
G1 X93.990 Y128.350 E4.52390
G1 X89.230 Y126.900 E4.67022
G1 X89.010 Y126.820 E4.67710
G1 X88.380 Y126.530 E4.69749
G1 X83.990 Y124.170 E4.84405
G1 X83.410 Y123.750 E4.86511
G1 X79.750 Y120.730 E5.00464
G1 X79.260 Y120.240 E5.02502
G1 X76.240 Y116.580 E5.16455
G1 X75.820 Y116.000 E5.18561
G1 X73.260 Y111.190 E5.34583
G1 X73.170 Y110.980 E5.35255
G1 X73.090 Y110.760 E5.35943
G1 X71.640 Y106.000 E5.50575
G1 X71.540 Y105.540 E5.51960
G1 X71.020 Y100.350 E5.67297
G1 X71.010 Y99.880 E5.68680
G1 X71.540 Y94.460 E5.84693
G1 X71.640 Y93.990 E5.86106
G1 X73.090 Y89.230 E6.00738
G1 X73.170 Y89.010 E6.01427
G1 X73.460 Y88.380 E6.03466
G1 X75.820 Y83.990 E6.18122
G1 X76.240 Y83.410 E6.20228
G1 X79.260 Y79.750 E6.34181
G1 X79.366 Y79.637 E6.34636
G1 F1800.000 E5.34636
G92 E0
G1 X83.058 Y94.591 F7800.000
G1 F1800.000 E1.00000
G1 X86.975 Y94.591 F540.000 E1.11519
G1 X87.241 Y94.341 E1.12591
G1 X87.767 Y94.001 E1.14433
G1 X88.348 Y93.756 E1.16287
G1 X88.961 Y93.617 E1.18135
G1 X89.448 Y93.588 E1.19570
G1 X89.918 Y93.619 E1.20955
G1 X90.374 Y93.708 E1.22324
G1 X90.650 Y93.800 E1.23177
G1 X98.982 Y93.800 E1.47678
G1 X98.981 Y94.245 E1.48985
G1 X99.527 Y93.951 E1.50807
G1 X100.075 Y93.750 E1.52522
G1 X100.665 Y93.625 E1.54296
G1 X101.337 Y93.591 E1.56275
G1 X101.715 Y93.615 E1.57389
G1 X102.291 Y93.730 E1.59118
G1 X102.493 Y93.799 E1.59743
G1 X106.057 Y93.799 E1.70223
G1 X106.057 Y94.357 E1.71863
G1 X106.848 Y93.954 E1.74474
G1 X107.413 Y93.754 E1.76239
G1 X108.017 Y93.629 E1.78052
G1 X108.763 Y93.586 E1.80248
G1 X109.389 Y93.655 E1.82102
G1 X110.087 Y93.830 E1.84216
G1 X110.991 Y94.219 E1.87111
G1 X110.991 Y93.812 E1.88308
G1 X118.853 Y93.812 E2.11426
G1 X119.434 Y95.016 E2.15358
G1 X116.847 Y98.267 E2.27575
G1 X119.131 Y101.381 E2.38930
G1 X118.544 Y102.538 E2.42744
G1 X115.050 Y102.538 E2.53020
G1 X115.050 Y102.541 E2.53029
G1 X110.991 Y102.541 E2.64963
G1 X110.991 Y102.095 E2.66275
G1 X110.395 Y102.398 E2.68243
G1 X109.765 Y102.611 E2.70198
G1 X109.117 Y102.730 E2.72136
G1 X108.604 Y102.754 E2.73646
G1 X108.000 Y102.713 E2.75425
G1 X107.407 Y102.592 E2.77208
G1 X106.843 Y102.395 E2.78962
G1 X106.057 Y102.000 E2.81551
G1 X106.057 Y102.541 E2.83142
G1 X102.547 Y102.541 E2.93462
G1 X102.301 Y102.629 E2.94230
G1 X101.853 Y102.716 E2.95571
G1 X101.382 Y102.754 E2.96962
G1 X100.738 Y102.714 E2.98859
G1 X100.157 Y102.594 E3.00603
G1 X99.607 Y102.399 E3.02320
G1 X98.980 Y102.076 E3.04393
G1 X98.980 Y104.586 E3.11775
G1 X97.005 Y104.586 E3.17585
G1 X97.005 Y106.562 E3.23395
G1 X95.029 Y106.562 E3.29205
G1 X95.029 Y108.538 E3.35015
G1 X93.053 Y108.538 E3.40825
G1 X93.053 Y110.514 E3.46635
G1 X87.009 Y110.514 E3.64406
G1 X87.009 Y108.538 E3.70216
G1 X85.034 Y108.538 E3.76026
G1 X85.034 Y106.562 E3.81836
G1 X83.058 Y106.562 E3.87646
G1 X83.058 Y104.586 E3.93456
G1 X81.082 Y104.586 E3.99266
G1 X81.082 Y100.518 E4.11227
G1 X83.058 Y100.518 E4.17037
G1 X83.058 Y94.670 E4.34236
G1 X83.573 Y95.106 F7800.000
G1 X86.610 Y95.106 F540.000 E4.43167
G1 X86.610 Y95.106 E4.43168
G1 X87.179 Y95.106 E4.44841
G1 X87.560 Y94.749 E4.46377
G1 X88.009 Y94.458 E4.47949
G1 X88.506 Y94.249 E4.49536
G1 X89.033 Y94.129 E4.51127
G1 X89.446 Y94.104 E4.52344
G1 X89.851 Y94.130 E4.53535
G1 X90.243 Y94.208 E4.54709
G1 X90.615 Y94.332 E4.55863
G1 X90.964 Y94.500 E4.57002
G1 X91.314 Y94.727 E4.58230
G1 X91.455 Y94.651 E4.58701
G1 X91.455 Y94.316 E4.59687
G1 X94.488 Y94.316 E4.68607
G1 X94.489 Y95.106 E4.70931
G1 X95.434 Y95.106 E4.73710
G1 X95.434 Y94.316 E4.76035
G1 X98.466 Y94.316 E4.84949
G1 X98.465 Y95.104 E4.87266
G1 X98.658 Y95.185 E4.87881
G1 X98.891 Y94.958 E4.88838
G1 X99.295 Y94.661 E4.90313
G1 X99.739 Y94.422 E4.91795
G1 X100.217 Y94.247 E4.93294
G1 X100.732 Y94.138 E4.94839
G1 X101.334 Y94.107 E4.96613
G1 X101.648 Y94.127 E4.97539
G1 X102.157 Y94.229 E4.99064
G1 X102.407 Y94.314 E4.99842
G1 X105.541 Y94.314 E5.09058
G1 X105.541 Y95.265 E5.11854
G1 X105.721 Y95.346 E5.12433
G1 X106.152 Y94.962 E5.14129
G1 X106.583 Y94.667 E5.15665
G1 X107.051 Y94.429 E5.17211
G1 X107.552 Y94.252 E5.18773
G1 X108.085 Y94.141 E5.20372
G1 X108.749 Y94.103 E5.22329
G1 X109.298 Y94.163 E5.23953
G1 X109.921 Y94.320 E5.25843
G1 X110.591 Y94.608 E5.27987
G1 X111.365 Y95.114 E5.30705
G1 X111.507 Y95.037 E5.31179
G1 X111.507 Y94.327 E5.33268
G1 X114.535 Y94.327 E5.42172
G1 X114.535 Y95.180 E5.44681
G1 X114.780 Y95.260 E5.45439
G1 X115.461 Y94.327 E5.48837
G1 X118.530 Y94.327 E5.57860
G1 X118.830 Y94.949 E5.59890
G1 X116.199 Y98.254 E5.72313
G1 X118.528 Y101.430 E5.83895
G1 X118.228 Y102.023 E5.85847
G1 X115.312 Y102.023 E5.94421
G1 X114.791 Y101.257 E5.97144
G1 X114.535 Y101.336 E5.97932
G1 X114.535 Y102.026 E5.99959
G1 X111.507 Y102.026 E6.08863
G1 X111.507 Y101.282 E6.11049
G1 X111.356 Y101.205 E6.11548
G1 X110.720 Y101.655 E6.13839
G1 X110.195 Y101.922 E6.15573
G1 X109.636 Y102.111 E6.17307
G1 X109.058 Y102.217 E6.19035
G1 X108.609 Y102.238 E6.20356
G1 X108.070 Y102.202 E6.21945
G1 X107.544 Y102.094 E6.23525
G1 X107.044 Y101.920 E6.25080
G1 X106.577 Y101.685 E6.26617
G1 X106.148 Y101.394 E6.28142
G1 X105.720 Y101.017 E6.29819
G1 X105.541 Y101.098 E6.30394
G1 X105.541 Y102.026 E6.33123
G1 X102.458 Y102.026 E6.42189
G1 X102.165 Y102.130 E6.43105
G1 X101.783 Y102.205 E6.44248
G1 X101.376 Y102.238 E6.45450
G1 X100.807 Y102.202 E6.47125
G1 X100.296 Y102.096 E6.48661
G1 X99.812 Y101.925 E6.50170
G1 X99.361 Y101.692 E6.51662
G1 X98.949 Y101.403 E6.53144
G1 X98.650 Y101.127 E6.54339
G1 X98.465 Y101.208 E6.54933
G1 X98.465 Y104.071 E6.63352
G1 X96.489 Y104.071 E6.69162
G1 X96.489 Y106.047 E6.74972
G1 X94.514 Y106.047 E6.80782
G1 X94.514 Y108.023 E6.86592
G1 X92.538 Y108.023 E6.92402
G1 X92.538 Y109.998 E6.98212
G1 X87.525 Y109.998 E7.12953
G1 X87.525 Y108.023 E7.18763
G1 X85.549 Y108.023 E7.24573
G1 X85.549 Y106.047 E7.30383
G1 X83.573 Y106.047 E7.36193
G1 X83.573 Y104.071 E7.42004
G1 X81.597 Y104.071 E7.47814
G1 X81.597 Y101.034 E7.56745
G1 X83.573 Y101.034 E7.62555
G1 X83.573 Y95.185 E7.79753
G1 X84.088 Y95.621 F7800.000
G1 X86.095 Y95.621 F540.000 E7.85655
G1 X86.095 Y95.622 E7.85656
G1 X87.441 Y95.622 E7.89614
G1 X87.559 Y95.457 E7.90210
G1 X87.878 Y95.156 E7.91501
G1 X88.250 Y94.915 E7.92803
G1 X88.664 Y94.741 E7.94123
G1 X89.106 Y94.641 E7.95457
G1 X89.445 Y94.620 E7.96455
G1 X89.784 Y94.642 E7.97454
G1 X90.111 Y94.707 E7.98432
G1 X90.420 Y94.810 E7.99393
G1 X90.711 Y94.950 E8.00340
G1 X90.978 Y95.124 E8.01278
G1 X91.220 Y95.328 E8.02208
G1 X91.433 Y95.560 E8.03135
G1 X91.715 Y95.958 E8.04570
G1 X91.970 Y95.877 E8.05357
G1 X91.970 Y94.831 E8.08434
G1 X93.973 Y94.831 E8.14326
G1 X93.974 Y95.621 E8.16650
G1 X95.949 Y95.621 E8.22457
G1 X95.949 Y94.831 E8.24781
G1 X97.950 Y94.831 E8.30665
G1 X97.949 Y96.615 E8.35910
G1 X98.233 Y96.693 E8.36776
G1 X98.646 Y95.996 E8.39158
G1 X98.916 Y95.653 E8.40440
G1 X99.225 Y95.352 E8.41709
G1 X99.571 Y95.098 E8.42973
G1 X99.951 Y94.893 E8.44241
G1 X100.360 Y94.743 E8.45524
G1 X100.798 Y94.650 E8.46840
G1 X101.331 Y94.623 E8.48409
G1 X101.581 Y94.639 E8.49146
G1 X102.022 Y94.727 E8.50468
G1 X102.457 Y94.876 E8.51820
G1 X103.146 Y95.211 E8.54072
G1 X103.146 Y94.830 E8.55195
G1 X105.026 Y94.830 E8.60724
G1 X105.026 Y96.798 E8.66512
G1 X105.338 Y96.872 E8.67454
G1 X105.576 Y96.395 E8.69020
G1 X105.830 Y96.015 E8.70366
G1 X106.130 Y95.671 E8.71706
G1 X106.470 Y95.369 E8.73045
G1 X106.846 Y95.111 E8.74386
G1 X107.255 Y94.903 E8.75734
G1 X107.691 Y94.749 E8.77094
G1 X108.152 Y94.653 E8.78479
G1 X108.735 Y94.619 E8.80197
G1 X109.206 Y94.671 E8.81590
G1 X109.756 Y94.810 E8.83256
G1 X110.347 Y95.063 E8.85147
G1 X110.833 Y95.382 E8.86857
G1 X111.170 Y95.678 E8.88176
G1 X111.447 Y96.012 E8.89452
G1 X111.748 Y96.488 E8.91109
G1 X112.022 Y96.409 E8.91946
G1 X112.022 Y94.842 E8.96553
G1 X114.019 Y94.842 E9.02427
G1 X114.019 Y96.751 E9.08040
G1 X114.269 Y96.832 E9.08813
G1 X115.723 Y94.842 E9.16060
G1 X118.206 Y94.842 E9.23363
G1 X118.225 Y94.881 E9.23490
G1 X115.551 Y98.241 E9.36119
G1 X117.925 Y101.480 E9.47928
G1 X117.911 Y101.508 E9.48019
G1 X115.585 Y101.508 E9.54861
G1 X114.281 Y99.593 E9.61672
G1 X114.019 Y99.674 E9.62476
G1 X114.019 Y101.511 E9.67876
G1 X112.022 Y101.511 E9.73750
G1 X112.022 Y99.951 E9.78336
G1 X111.777 Y99.869 E9.79095
G1 X111.301 Y100.503 E9.81425
G1 X110.876 Y100.913 E9.83163
G1 X110.453 Y101.213 E9.84686
G1 X109.994 Y101.446 E9.86200
G1 X109.507 Y101.611 E9.87714
G1 X108.999 Y101.704 E9.89230
G1 X108.614 Y101.722 E9.90364
G1 X108.139 Y101.690 E9.91763
G1 X107.681 Y101.596 E9.93139
G1 X107.246 Y101.444 E9.94494
G1 X106.838 Y101.240 E9.95834
G1 X106.463 Y100.986 E9.97166
G1 X106.125 Y100.688 E9.98493
G1 X105.827 Y100.349 E9.99820
G1 X105.573 Y99.974 E10.01151
G1 X105.337 Y99.504 E10.02697
G1 X105.026 Y99.578 E10.03636
G1 X105.026 Y101.511 E10.09318
G1 X103.146 Y101.511 E10.14846
G1 X103.146 Y101.140 E10.15934
G1 X102.552 Y101.446 E10.17898
G1 X102.028 Y101.632 E10.19532
G1 X101.713 Y101.694 E10.20477
G1 X101.369 Y101.721 E10.21490
G1 X100.877 Y101.690 E10.22942
G1 X100.434 Y101.599 E10.24270
G1 X100.017 Y101.451 E10.25572
G1 X99.628 Y101.251 E10.26857
G1 X99.273 Y101.001 E10.28135
G1 X98.954 Y100.706 E10.29412
G1 X98.675 Y100.370 E10.30696
G1 X98.440 Y99.997 E10.31994
G1 X98.164 Y99.400 E10.33928
G1 X97.909 Y99.428 E10.34683
G1 X97.815 Y99.855 E10.35970
G1 X97.701 Y100.182 E10.36987
G1 X97.548 Y100.467 E10.37939
G1 X97.332 Y100.765 E10.39023
G1 X96.734 Y101.344 E10.41469
G1 X96.817 Y101.549 E10.42119
G1 X97.950 Y101.549 E10.45452
G1 X97.950 Y103.556 E10.51353
G1 X95.974 Y103.556 E10.57163
G1 X95.974 Y105.532 E10.62973
G1 X93.998 Y105.532 E10.68783
G1 X93.998 Y107.507 E10.74593
G1 X92.023 Y107.507 E10.80403
G1 X92.023 Y109.483 E10.86214
G1 X88.040 Y109.483 E10.97925
G1 X88.040 Y107.507 E11.03735
G1 X86.064 Y107.507 E11.09545
G1 X86.064 Y105.532 E11.15355
G1 X84.088 Y105.532 E11.21165
G1 X84.088 Y103.556 E11.26975
G1 X82.112 Y103.556 E11.32785
G1 X82.112 Y101.549 E11.38687
G1 X84.088 Y101.549 E11.44497
G1 X84.088 Y95.700 E11.61695
G1 F1800.000 E10.61695
G92 E0
G1 X84.478 Y115.522 F7800.000
G1 F1800.000 E1.00000
G1 X81.749 Y112.195 F540.000 E1.12653
G1 X79.720 Y108.400 E1.25307
G1 X78.471 Y104.282 E1.37960
G1 X78.049 Y100.000 E1.50614
G1 X78.471 Y95.718 E1.63267
G1 X79.720 Y91.600 E1.75921
G1 X81.749 Y87.805 E1.88574
G1 X84.478 Y84.478 E2.01228
G1 X87.805 Y81.749 E2.13881
G1 X91.600 Y79.720 E2.26535
G1 X95.718 Y78.471 E2.39188
G1 X100.000 Y78.049 E2.51842
G1 X104.282 Y78.471 E2.64495
G1 X108.400 Y79.720 E2.77149
G1 X112.195 Y81.749 E2.89802
G1 X115.522 Y84.478 E3.02456
G1 X118.251 Y87.805 E3.15109
G1 X120.280 Y91.600 E3.27763
G1 X121.529 Y95.718 E3.40416
G1 X121.951 Y100.000 E3.53070
G1 X121.529 Y104.282 E3.65723
G1 X120.280 Y108.400 E3.78377
G1 X118.251 Y112.195 E3.91030
G1 X115.522 Y115.522 E4.03684
G1 X112.195 Y118.251 E4.16337
G1 X108.400 Y120.280 E4.28991
G1 X104.282 Y121.529 E4.41644
G1 X100.000 Y121.951 E4.54297
G1 X95.718 Y121.529 E4.66951
G1 X91.600 Y120.280 E4.79604
G1 X87.805 Y118.252 E4.92258
G1 X84.539 Y115.572 E5.04680
G1 X84.112 Y115.888 F7800.000
G1 X81.318 Y112.483 F540.000 E5.17632
G1 X79.242 Y108.598 E5.30584
G1 X77.963 Y104.383 E5.43535
G1 X77.531 Y100.000 E5.56487
G1 X77.963 Y95.617 E5.69439
G1 X79.242 Y91.402 E5.82391
G1 X81.318 Y87.517 E5.95343
G1 X84.112 Y84.112 E6.08295
G1 X87.517 Y81.318 E6.21247
G1 X91.402 Y79.242 E6.34199
G1 X95.617 Y77.963 E6.47151
G1 X100.000 Y77.531 E6.60102
G1 X104.383 Y77.963 E6.73054
G1 X108.598 Y79.242 E6.86006
G1 X112.483 Y81.318 E6.98958
G1 X115.888 Y84.112 E7.11910
G1 X118.682 Y87.517 E7.24862
G1 X120.758 Y91.402 E7.37814
G1 X122.037 Y95.617 E7.50766
G1 X122.469 Y100.000 E7.63718
G1 X122.037 Y104.383 E7.76669
G1 X120.758 Y108.598 E7.89621
G1 X118.682 Y112.483 E8.02573
G1 X115.888 Y115.888 E8.15525
G1 X112.483 Y118.682 E8.28477
G1 X108.598 Y120.758 E8.41429
G1 X104.383 Y122.037 E8.54381
G1 X100.000 Y122.469 E8.67333
G1 X95.617 Y122.037 E8.80284
G1 X91.402 Y120.758 E8.93236
G1 X87.517 Y118.682 E9.06188
G1 X84.173 Y115.938 E9.18909
G1 X83.746 Y116.254 F7800.000
G1 X80.888 Y112.770 F540.000 E9.32159
G1 X78.764 Y108.796 E9.45409
G1 X77.455 Y104.484 E9.58660
G1 X77.014 Y100.000 E9.71910
G1 X77.455 Y95.516 E9.85160
G1 X78.763 Y91.204 E9.98410
G1 X80.888 Y87.230 E10.11661
G1 X83.746 Y83.746 E10.24911
G1 X87.230 Y80.888 E10.38161
G1 X91.204 Y78.763 E10.51412
G1 X95.516 Y77.455 E10.64662
G1 X100.000 Y77.014 E10.77912
G1 X104.484 Y77.455 E10.91163
G1 X108.796 Y78.763 E11.04413
G1 X112.770 Y80.888 E11.17663
G1 X116.254 Y83.746 E11.30914
G1 X119.112 Y87.230 E11.44164
G1 X121.237 Y91.204 E11.57414
G1 X122.545 Y95.516 E11.70664
G1 X122.986 Y100.000 E11.83915
G1 X122.545 Y104.484 E11.97165
G1 X121.237 Y108.796 E12.10415
G1 X119.112 Y112.770 E12.23666
G1 X116.254 Y116.254 E12.36916
G1 X112.770 Y119.112 E12.50166
G1 X108.796 Y121.237 E12.63417
G1 X104.484 Y122.545 E12.76667
G1 X100.000 Y122.986 E12.89917
G1 X95.516 Y122.545 E13.03167
G1 X91.204 Y121.237 E13.16418
G1 X87.230 Y119.112 E13.29668
G1 X83.807 Y116.304 E13.42687
G1 F1800.000 E12.42687
G92 E0
G1 X101.234 Y98.672 F7800.000
G1 F1800.000 E1.00000
G1 X101.144 Y98.558 F540.000 E1.00427
G1 X101.079 Y98.413 E1.00894
G1 X101.041 Y98.197 E1.01539
G1 X101.053 Y97.992 E1.02142
G1 X101.099 Y97.846 E1.02592
G1 X101.182 Y97.716 E1.03045
G1 X101.279 Y97.626 E1.03436
G1 X101.404 Y97.561 E1.03849
G1 X101.505 Y97.537 E1.04156
G1 X101.563 Y97.533 E1.04328
G1 X101.645 Y97.539 E1.04567
G1 X101.702 Y97.550 E1.04739
G1 X101.774 Y97.577 E1.04966
G1 X101.882 Y97.653 E1.05353
G1 X101.963 Y97.753 E1.05731
G1 X102.034 Y97.909 E1.06236
G1 X102.073 Y98.121 E1.06870
G1 X102.055 Y98.378 E1.07627
G1 X102.014 Y98.514 E1.08045
G1 X101.936 Y98.641 E1.08483
G1 X101.852 Y98.719 E1.08820
G1 X101.737 Y98.778 E1.09199
G1 X101.637 Y98.801 E1.09504
G1 X101.545 Y98.806 E1.09773
G1 X101.449 Y98.794 E1.10057
G1 X101.330 Y98.746 E1.10435
G1 X101.296 Y98.720 E1.10559
G1 X101.073 Y99.198 F7800.000
G1 X100.869 Y99.042 F540.000 E1.11314
G1 X100.700 Y98.826 E1.12121
G1 X100.583 Y98.562 E1.12969
G1 X100.523 Y98.228 E1.13969
G1 X100.542 Y97.899 E1.14938
