; KISSlicer - FREE
; Windows
; version 1.0.9.7
; Built: Jun 13 2012, 22:16:39
;
; Saved: Wed Jun 20 20:59:59 2012
; 'shack_gerade.gcode'
;
; *** Printer Settings ***
;
; printer_name = Default
; extension = bfb
; cost_per_hour = 0
; g_code_prefix = NULL
; g_code_postfix = NULL
; g_code_ext_change = NULL
; post_process = NULL
; num_extruders = 1
; firmware_type = 0
; M104_M109 = 1
; add_comments = 1
; z_speed_mm_per_s = 3.5
; z_settle_mm = 0.25
; bed_size_x_mm = 270
; bed_size_y_mm = 205
; bed_size_z_mm = 180
; bed_offset_x_mm = 0
; bed_offset_y_mm = 0
; bed_offset_z_mm = 0
; bed_roughness_mm = 0
; travel_speed_mm_per_s = 500
; first_layer_speed_mm_per_s = 25
; lo_speed_perim_mm_per_s = 4
; lo_speed_solid_mm_per_s = 15
; lo_speed_sparse_mm_per_s = 30
; hi_speed_perim_mm_per_s = 15
; hi_speed_solid_mm_per_s = 60
; hi_speed_sparse_mm_per_s = 75
; ext_mm_per_rev_1 = 1.25
; ext_material_1 = 0
; ext_axis_1 = 0
; ext_mm_per_rev_2 = 1.25
; ext_material_2 = 0
; ext_axis_2 = 0
; ext_mm_per_rev_3 = 1.25
; ext_material_3 = 0
; ext_axis_3 = 0
; model_ext = 0
; support_ext = 0
; support_body_ext = 0
; raft_ext = 0
; solid_loop_overlap_fraction = 0.5
;
; *** Material Settings for Extruder 1 ***
;
; material_name = ABS
; fan_off_ISOs_all = 1
; temperature_C = 245
; keep_warm_C = 159
; first_layer_C = 250
; bed_C = 81
; sec_per_C_per_C = 0
; RPM_min = 3
; RPM_max = 75
; destring_suck = 1.25
; destring_prime = 1.25
; destring_min_mm = 0
; destring_speed_mm_per_s = 15
; min_layer_time_s = 10
; wipe_mm = 10
; cost_per_cm3 = 0
; flowrate_tweak = 1
; fiber_dia_mm = 3
; color = 0
;
; *** Style Settings ***
;
; style_name = Default
; layer_thickness_mm = 0.25
; extrusion_width_mm = 0.5
; num_loops = 3
; skin_thickness_mm = 0.8
; infill_extrusion_width = 0.5
; infill_density_denominator = 4
; stacked_layers = 2
; use_destring = 1
; loops_insideout = 0
; round_infill = 1
;
; *** Actual Slicing Settings As Used ***
;
; layer_thickness_mm = 0.25
; extrusion_width = 0.5
; num_ISOs = 3
; wall_thickness = 0.8
; infill_style = 5
; support_style = 2
; support_angle = 44.9
; destring_min_mm = 0
; stacked_infill_layers = 1
; ISO_wipe_mm = 10
; raft_style = 0
; extra_raft_depth = 0
; oversample_res_mm = 0.125
; crowning_threshold_mm = 1
; loops_insideout = 0
; sheathed_support = 0
; solid_loop_overlap_fraction = 0.5
; inflate_raft_mm = 0
; inflate_support_mm = 2
; model_support_gap_mm = 0.5
; round_infill = 1
; Speed vs Quality = 0.50
;
; *** Header ***
;
; fan off
M107
; [mm] mode
G21
; absolute mode
G90
; extruder(s) off
M103
; disable auto-destring
M228
; *** Main G-code ***
;
; enable auto-destring
M227 S3200 P3200
; BEGIN_LAYER_OBJECT z=0.25
;
; *** Warming Extruder 1 to 250 C ***
; set extruder N temperature
M104 S250
; begin wipe
M542
; prime extruder
M551 P32000 S900
; end wipe
M543
;
; extruder deciRPM
M108 S81
;
; 'Perimeter', 8.1 [RPM], 9.5 [mm/s]
G1 X126.66 Y94.65 Z0.5 F30000
G1 X126.66 Y94.65 Z0.25 F210
; extruder on
M101
G1 X126.78 Y94.97 Z0.25 F572.6
G1 X27.22 Y94.97 Z0.25 F572.6
G1 X27.18 Y94.82 Z0.25 F572.6
G1 X27.18 Y53.17 Z0.25 F572.6
G1 X27.22 Y53.03 Z0.25 F572.6
G1 X126.78 Y53.03 Z0.25 F572.6
G1 X126.82 Y53.18 Z0.25 F572.6
G1 X126.82 Y94.83 Z0.25 F572.6
G1 X126.78 Y94.97 Z0.25 F572.6
G1 X126.51 Y94.77 Z0.25 F572.6
; extruder(s) off
M103
; extruder deciRPM
M108 S212
;
; 'Loop', 21.2 [RPM], 25.0 [mm/s]
G1 X126.28 Y94.46 Z0.25 F30000
; extruder on
M101
G1 X27.72 Y94.46 Z0.25 F1498.5
G1 X27.69 Y94.32 Z0.25 F1498.5
G1 X27.69 Y53.68 Z0.25 F1498.5
G1 X27.72 Y53.54 Z0.25 F1498.5
G1 X126.28 Y53.54 Z0.25 F1498.5
G1 X126.31 Y53.68 Z0.25 F1498.5
G1 X126.31 Y94.32 Z0.25 F1498.5
G1 X126.28 Y94.46 Z0.25 F1498.5
; extruder(s) off
M103
;
; 'Loop', 21.2 [RPM], 25.0 [mm/s]
G1 X125.77 Y93.96 Z0.25 F30000
; extruder on
M101
G1 X28.22 Y93.96 Z0.25 F1498.5
G1 X28.19 Y93.82 Z0.25 F1498.5
G1 X28.19 Y54.18 Z0.25 F1498.5
G1 X28.23 Y54.04 Z0.25 F1498.5
G1 X125.78 Y54.04 Z0.25 F1498.5
G1 X125.81 Y54.18 Z0.25 F1498.5
G1 X125.81 Y93.82 Z0.25 F1498.5
G1 X125.77 Y93.96 Z0.25 F1498.5
; extruder(s) off
M103
;
; 'Solid', 21.2 [RPM], 25.0 [mm/s]
G1 X125.44 Y93.45 Z0.25 F30000
; extruder on
M101
G1 X124.68 Y93.49 Z0.25 F1498.5
G1 X125.36 Y92.81 Z0.25 F1498.5
G1 X125.36 Y92.11 Z0.25 F1498.5
G1 X123.96 Y93.51 Z0.25 F1498.5
G1 X123.25 Y93.51 Z0.25 F1498.5
G1 X125.36 Y91.4 Z0.25 F1498.5
G1 X125.36 Y90.69 Z0.25 F1498.5
G1 X122.54 Y93.51 Z0.25 F1498.5
G1 X121.84 Y93.51 Z0.25 F1498.5
G1 X125.36 Y89.99 Z0.25 F1498.5
G1 X125.36 Y89.28 Z0.25 F1498.5
G1 X121.13 Y93.51 Z0.25 F1498.5
G1 X120.42 Y93.51 Z0.25 F1498.5
G1 X125.36 Y88.57 Z0.25 F1498.5
G1 X125.36 Y87.86 Z0.25 F1498.5
G1 X119.72 Y93.51 Z0.25 F1498.5
G1 X119.01 Y93.51 Z0.25 F1498.5
G1 X125.36 Y87.16 Z0.25 F1498.5
G1 X125.36 Y86.45 Z0.25 F1498.5
G1 X118.3 Y93.51 Z0.25 F1498.5
G1 X117.59 Y93.51 Z0.25 F1498.5
G1 X125.36 Y85.74 Z0.25 F1498.5
G1 X125.36 Y85.04 Z0.25 F1498.5
G1 X116.89 Y93.51 Z0.25 F1498.5
G1 X116.18 Y93.51 Z0.25 F1498.5
G1 X125.36 Y84.33 Z0.25 F1498.5
G1 X125.36 Y83.62 Z0.25 F1498.5
G1 X115.47 Y93.51 Z0.25 F1498.5
G1 X114.77 Y93.51 Z0.25 F1498.5
G1 X125.36 Y82.91 Z0.25 F1498.5
G1 X125.36 Y82.21 Z0.25 F1498.5
G1 X114.06 Y93.51 Z0.25 F1498.5
G1 X113.35 Y93.51 Z0.25 F1498.5
G1 X125.36 Y81.5 Z0.25 F1498.5
G1 X125.36 Y80.79 Z0.25 F1498.5
G1 X112.64 Y93.51 Z0.25 F1498.5
G1 X111.94 Y93.51 Z0.25 F1498.5
G1 X125.36 Y80.09 Z0.25 F1498.5
G1 X125.36 Y79.38 Z0.25 F1498.5
G1 X111.23 Y93.51 Z0.25 F1498.5
G1 X110.52 Y93.51 Z0.25 F1498.5
G1 X125.36 Y78.67 Z0.25 F1498.5
G1 X125.36 Y77.96 Z0.25 F1498.5
G1 X109.82 Y93.51 Z0.25 F1498.5
G1 X109.11 Y93.51 Z0.25 F1498.5
G1 X125.36 Y77.26 Z0.25 F1498.5
G1 X125.36 Y76.55 Z0.25 F1498.5
G1 X108.4 Y93.51 Z0.25 F1498.5
G1 X107.69 Y93.51 Z0.25 F1498.5
G1 X125.36 Y75.84 Z0.25 F1498.5
G1 X125.36 Y75.14 Z0.25 F1498.5
G1 X106.99 Y93.51 Z0.25 F1498.5
G1 X106.28 Y93.51 Z0.25 F1498.5
G1 X125.36 Y74.43 Z0.25 F1498.5
G1 X125.36 Y73.72 Z0.25 F1498.5
G1 X105.57 Y93.51 Z0.25 F1498.5
G1 X104.87 Y93.51 Z0.25 F1498.5
G1 X125.36 Y73.02 Z0.25 F1498.5
G1 X125.36 Y72.31 Z0.25 F1498.5
G1 X104.16 Y93.51 Z0.25 F1498.5
G1 X103.45 Y93.51 Z0.25 F1498.5
G1 X125.36 Y71.6 Z0.25 F1498.5
G1 X125.36 Y70.89 Z0.25 F1498.5
G1 X102.74 Y93.51 Z0.25 F1498.5
G1 X102.04 Y93.51 Z0.25 F1498.5
G1 X125.36 Y70.19 Z0.25 F1498.5
G1 X125.36 Y69.48 Z0.25 F1498.5
G1 X101.33 Y93.51 Z0.25 F1498.5
G1 X100.62 Y93.51 Z0.25 F1498.5
G1 X125.36 Y68.77 Z0.25 F1498.5
G1 X125.36 Y68.07 Z0.25 F1498.5
G1 X99.92 Y93.51 Z0.25 F1498.5
G1 X99.21 Y93.51 Z0.25 F1498.5
G1 X125.36 Y67.36 Z0.25 F1498.5
G1 X125.36 Y66.65 Z0.25 F1498.5
G1 X98.5 Y93.51 Z0.25 F1498.5
G1 X97.79 Y93.51 Z0.25 F1498.5
G1 X125.36 Y65.94 Z0.25 F1498.5
G1 X125.36 Y65.24 Z0.25 F1498.5
G1 X97.09 Y93.51 Z0.25 F1498.5
G1 X96.38 Y93.51 Z0.25 F1498.5
G1 X125.36 Y64.53 Z0.25 F1498.5
G1 X125.36 Y63.82 Z0.25 F1498.5
G1 X95.67 Y93.51 Z0.25 F1498.5
G1 X94.97 Y93.51 Z0.25 F1498.5
G1 X125.36 Y63.12 Z0.25 F1498.5
G1 X125.36 Y62.41 Z0.25 F1498.5
G1 X94.26 Y93.51 Z0.25 F1498.5
G1 X93.55 Y93.51 Z0.25 F1498.5
G1 X125.36 Y61.7 Z0.25 F1498.5
G1 X125.36 Y60.99 Z0.25 F1498.5
G1 X92.84 Y93.51 Z0.25 F1498.5
G1 X92.14 Y93.51 Z0.25 F1498.5
G1 X125.36 Y60.29 Z0.25 F1498.5
G1 X125.36 Y59.58 Z0.25 F1498.5
G1 X91.43 Y93.51 Z0.25 F1498.5
G1 X90.72 Y93.51 Z0.25 F1498.5
G1 X125.36 Y58.87 Z0.25 F1498.5
G1 X125.36 Y58.17 Z0.25 F1498.5
G1 X90.02 Y93.51 Z0.25 F1498.5
G1 X89.31 Y93.51 Z0.25 F1498.5
G1 X125.36 Y57.46 Z0.25 F1498.5
G1 X125.36 Y56.75 Z0.25 F1498.5
G1 X88.6 Y93.51 Z0.25 F1498.5
G1 X87.89 Y93.51 Z0.25 F1498.5
G1 X125.36 Y56.05 Z0.25 F1498.5
G1 X125.36 Y55.34 Z0.25 F1498.5
G1 X87.19 Y93.51 Z0.25 F1498.5
G1 X86.48 Y93.51 Z0.25 F1498.5
G1 X125.37 Y54.62 Z0.25 F1498.5
G1 X124.81 Y54.48 Z0.25 F1498.5
G1 X85.77 Y93.51 Z0.25 F1498.5
G1 X85.07 Y93.51 Z0.25 F1498.5
G1 X124.09 Y54.49 Z0.25 F1498.5
G1 X123.38 Y54.49 Z0.25 F1498.5
G1 X84.36 Y93.51 Z0.25 F1498.5
G1 X83.65 Y93.51 Z0.25 F1498.5
G1 X122.67 Y54.49 Z0.25 F1498.5
G1 X121.97 Y54.49 Z0.25 F1498.5
G1 X82.94 Y93.51 Z0.25 F1498.5
G1 X82.24 Y93.51 Z0.25 F1498.5
G1 X121.26 Y54.49 Z0.25 F1498.5
G1 X120.55 Y54.49 Z0.25 F1498.5
G1 X81.53 Y93.51 Z0.25 F1498.5
G1 X80.82 Y93.51 Z0.25 F1498.5
G1 X119.85 Y54.49 Z0.25 F1498.5
G1 X119.14 Y54.49 Z0.25 F1498.5
G1 X80.12 Y93.51 Z0.25 F1498.5
G1 X79.41 Y93.51 Z0.25 F1498.5
G1 X118.43 Y54.49 Z0.25 F1498.5
G1 X117.72 Y54.49 Z0.25 F1498.5
G1 X78.7 Y93.51 Z0.25 F1498.5
G1 X78 Y93.51 Z0.25 F1498.5
G1 X117.02 Y54.49 Z0.25 F1498.5
G1 X116.31 Y54.49 Z0.25 F1498.5
G1 X77.29 Y93.51 Z0.25 F1498.5
G1 X76.58 Y93.51 Z0.25 F1498.5
G1 X115.6 Y54.49 Z0.25 F1498.5
G1 X114.9 Y54.49 Z0.25 F1498.5
G1 X75.87 Y93.51 Z0.25 F1498.5
G1 X75.17 Y93.51 Z0.25 F1498.5
G1 X114.19 Y54.49 Z0.25 F1498.5
G1 X113.48 Y54.49 Z0.25 F1498.5
G1 X74.46 Y93.51 Z0.25 F1498.5
G1 X73.75 Y93.51 Z0.25 F1498.5
G1 X112.78 Y54.49 Z0.25 F1498.5
G1 X112.07 Y54.49 Z0.25 F1498.5
G1 X73.05 Y93.51 Z0.25 F1498.5
G1 X72.34 Y93.51 Z0.25 F1498.5
G1 X111.36 Y54.49 Z0.25 F1498.5
G1 X110.65 Y54.49 Z0.25 F1498.5
G1 X71.63 Y93.51 Z0.25 F1498.5
G1 X70.92 Y93.51 Z0.25 F1498.5
G1 X109.95 Y54.49 Z0.25 F1498.5
G1 X109.24 Y54.49 Z0.25 F1498.5
G1 X70.22 Y93.51 Z0.25 F1498.5
G1 X69.51 Y93.51 Z0.25 F1498.5
G1 X108.53 Y54.49 Z0.25 F1498.5
G1 X107.83 Y54.49 Z0.25 F1498.5
G1 X68.8 Y93.51 Z0.25 F1498.5
G1 X68.1 Y93.51 Z0.25 F1498.5
G1 X107.12 Y54.49 Z0.25 F1498.5
G1 X106.41 Y54.49 Z0.25 F1498.5
G1 X67.39 Y93.51 Z0.25 F1498.5
G1 X66.68 Y93.51 Z0.25 F1498.5
G1 X105.7 Y54.49 Z0.25 F1498.5
G1 X105 Y54.49 Z0.25 F1498.5
G1 X65.97 Y93.51 Z0.25 F1498.5
G1 X65.27 Y93.51 Z0.25 F1498.5
G1 X104.29 Y54.49 Z0.25 F1498.5
G1 X103.58 Y54.49 Z0.25 F1498.5
G1 X64.56 Y93.51 Z0.25 F1498.5
G1 X63.85 Y93.51 Z0.25 F1498.5
G1 X102.88 Y54.49 Z0.25 F1498.5
G1 X102.17 Y54.49 Z0.25 F1498.5
G1 X63.15 Y93.51 Z0.25 F1498.5
G1 X62.44 Y93.51 Z0.25 F1498.5
G1 X101.46 Y54.49 Z0.25 F1498.5
G1 X100.75 Y54.49 Z0.25 F1498.5
G1 X61.73 Y93.51 Z0.25 F1498.5
G1 X61.02 Y93.51 Z0.25 F1498.5
G1 X100.05 Y54.49 Z0.25 F1498.5
G1 X99.34 Y54.49 Z0.25 F1498.5
G1 X60.32 Y93.51 Z0.25 F1498.5
G1 X59.61 Y93.51 Z0.25 F1498.5
G1 X98.63 Y54.49 Z0.25 F1498.5
G1 X97.93 Y54.49 Z0.25 F1498.5
G1 X58.9 Y93.51 Z0.25 F1498.5
G1 X58.2 Y93.51 Z0.25 F1498.5
G1 X97.22 Y54.49 Z0.25 F1498.5
G1 X96.51 Y54.49 Z0.25 F1498.5
G1 X57.49 Y93.51 Z0.25 F1498.5
G1 X56.78 Y93.51 Z0.25 F1498.5
G1 X95.8 Y54.49 Z0.25 F1498.5
G1 X95.1 Y54.49 Z0.25 F1498.5
G1 X56.07 Y93.51 Z0.25 F1498.5
G1 X55.37 Y93.51 Z0.25 F1498.5
G1 X94.39 Y54.49 Z0.25 F1498.5
G1 X93.68 Y54.49 Z0.25 F1498.5
G1 X54.66 Y93.51 Z0.25 F1498.5
G1 X53.95 Y93.51 Z0.25 F1498.5
G1 X92.98 Y54.49 Z0.25 F1498.5
G1 X92.27 Y54.49 Z0.25 F1498.5
G1 X53.25 Y93.51 Z0.25 F1498.5
G1 X52.54 Y93.51 Z0.25 F1498.5
G1 X91.56 Y54.49 Z0.25 F1498.5
G1 X90.85 Y54.49 Z0.25 F1498.5
G1 X51.83 Y93.51 Z0.25 F1498.5
G1 X51.12 Y93.51 Z0.25 F1498.5
G1 X90.15 Y54.49 Z0.25 F1498.5
G1 X89.44 Y54.49 Z0.25 F1498.5
G1 X50.42 Y93.51 Z0.25 F1498.5
G1 X49.71 Y93.51 Z0.25 F1498.5
G1 X88.73 Y54.49 Z0.25 F1498.5
G1 X88.03 Y54.49 Z0.25 F1498.5
G1 X49 Y93.51 Z0.25 F1498.5
G1 X48.3 Y93.51 Z0.25 F1498.5
G1 X87.32 Y54.49 Z0.25 F1498.5
G1 X86.61 Y54.49 Z0.25 F1498.5
G1 X47.59 Y93.51 Z0.25 F1498.5
G1 X46.88 Y93.51 Z0.25 F1498.5
G1 X85.9 Y54.49 Z0.25 F1498.5
G1 X85.2 Y54.49 Z0.25 F1498.5
G1 X46.17 Y93.51 Z0.25 F1498.5
G1 X45.47 Y93.51 Z0.25 F1498.5
G1 X84.49 Y54.49 Z0.25 F1498.5
G1 X83.78 Y54.49 Z0.25 F1498.5
G1 X44.76 Y93.51 Z0.25 F1498.5
G1 X44.05 Y93.51 Z0.25 F1498.5
G1 X83.08 Y54.49 Z0.25 F1498.5
G1 X82.37 Y54.49 Z0.25 F1498.5
G1 X43.35 Y93.51 Z0.25 F1498.5
G1 X42.64 Y93.51 Z0.25 F1498.5
G1 X81.66 Y54.49 Z0.25 F1498.5
G1 X80.95 Y54.49 Z0.25 F1498.5
G1 X41.93 Y93.51 Z0.25 F1498.5
G1 X41.22 Y93.51 Z0.25 F1498.5
G1 X80.25 Y54.49 Z0.25 F1498.5
G1 X79.54 Y54.49 Z0.25 F1498.5
G1 X40.52 Y93.51 Z0.25 F1498.5
G1 X39.81 Y93.51 Z0.25 F1498.5
G1 X78.83 Y54.49 Z0.25 F1498.5
G1 X78.13 Y54.49 Z0.25 F1498.5
G1 X39.1 Y93.51 Z0.25 F1498.5
G1 X38.4 Y93.51 Z0.25 F1498.5
G1 X77.42 Y54.49 Z0.25 F1498.5
G1 X76.71 Y54.49 Z0.25 F1498.5
G1 X37.69 Y93.51 Z0.25 F1498.5
G1 X36.98 Y93.51 Z0.25 F1498.5
G1 X76 Y54.49 Z0.25 F1498.5
G1 X75.3 Y54.49 Z0.25 F1498.5
G1 X36.28 Y93.51 Z0.25 F1498.5
G1 X35.57 Y93.51 Z0.25 F1498.5
G1 X74.59 Y54.49 Z0.25 F1498.5
G1 X73.88 Y54.49 Z0.25 F1498.5
G1 X34.86 Y93.51 Z0.25 F1498.5
G1 X34.15 Y93.51 Z0.25 F1498.5
G1 X73.18 Y54.49 Z0.25 F1498.5
G1 X72.47 Y54.49 Z0.25 F1498.5
G1 X33.45 Y93.51 Z0.25 F1498.5
G1 X32.74 Y93.51 Z0.25 F1498.5
G1 X71.76 Y54.49 Z0.25 F1498.5
G1 X71.06 Y54.49 Z0.25 F1498.5
G1 X32.03 Y93.51 Z0.25 F1498.5
G1 X31.33 Y93.51 Z0.25 F1498.5
G1 X70.35 Y54.49 Z0.25 F1498.5
G1 X69.64 Y54.49 Z0.25 F1498.5
G1 X30.62 Y93.51 Z0.25 F1498.5
G1 X29.91 Y93.51 Z0.25 F1498.5
G1 X68.93 Y54.49 Z0.25 F1498.5
G1 X68.23 Y54.49 Z0.25 F1498.5
G1 X29.19 Y93.52 Z0.25 F1498.5
G1 X28.63 Y93.38 Z0.25 F1498.5
G1 X67.52 Y54.49 Z0.25 F1498.5
G1 X66.81 Y54.49 Z0.25 F1498.5
G1 X28.64 Y92.66 Z0.25 F1498.5
G1 X28.64 Y91.95 Z0.25 F1498.5
G1 X66.11 Y54.49 Z0.25 F1498.5
G1 X65.4 Y54.49 Z0.25 F1498.5
G1 X28.64 Y91.25 Z0.25 F1498.5
G1 X28.64 Y90.54 Z0.25 F1498.5
G1 X64.69 Y54.49 Z0.25 F1498.5
G1 X63.98 Y54.49 Z0.25 F1498.5
G1 X28.64 Y89.83 Z0.25 F1498.5
G1 X28.64 Y89.13 Z0.25 F1498.5
G1 X63.28 Y54.49 Z0.25 F1498.5
G1 X62.57 Y54.49 Z0.25 F1498.5
G1 X28.64 Y88.42 Z0.25 F1498.5
G1 X28.64 Y87.71 Z0.25 F1498.5
G1 X61.86 Y54.49 Z0.25 F1498.5
G1 X61.16 Y54.49 Z0.25 F1498.5
G1 X28.64 Y87.01 Z0.25 F1498.5
G1 X28.64 Y86.3 Z0.25 F1498.5
G1 X60.45 Y54.49 Z0.25 F1498.5
G1 X59.74 Y54.49 Z0.25 F1498.5
G1 X28.64 Y85.59 Z0.25 F1498.5
G1 X28.64 Y84.88 Z0.25 F1498.5
G1 X59.03 Y54.49 Z0.25 F1498.5
G1 X58.33 Y54.49 Z0.25 F1498.5
G1 X28.64 Y84.18 Z0.25 F1498.5
G1 X28.64 Y83.47 Z0.25 F1498.5
G1 X57.62 Y54.49 Z0.25 F1498.5
G1 X56.91 Y54.49 Z0.25 F1498.5
G1 X28.64 Y82.76 Z0.25 F1498.5
G1 X28.64 Y82.06 Z0.25 F1498.5
G1 X56.21 Y54.49 Z0.25 F1498.5
G1 X55.5 Y54.49 Z0.25 F1498.5
G1 X28.64 Y81.35 Z0.25 F1498.5
G1 X28.64 Y80.64 Z0.25 F1498.5
G1 X54.79 Y54.49 Z0.25 F1498.5
G1 X54.08 Y54.49 Z0.25 F1498.5
G1 X28.64 Y79.93 Z0.25 F1498.5
G1 X28.64 Y79.23 Z0.25 F1498.5
G1 X53.38 Y54.49 Z0.25 F1498.5
G1 X52.67 Y54.49 Z0.25 F1498.5
G1 X28.64 Y78.52 Z0.25 F1498.5
G1 X28.64 Y77.81 Z0.25 F1498.5
G1 X51.96 Y54.49 Z0.25 F1498.5
G1 X51.26 Y54.49 Z0.25 F1498.5
G1 X28.64 Y77.11 Z0.25 F1498.5
G1 X28.64 Y76.4 Z0.25 F1498.5
G1 X50.55 Y54.49 Z0.25 F1498.5
G1 X49.84 Y54.49 Z0.25 F1498.5
G1 X28.64 Y75.69 Z0.25 F1498.5
G1 X28.64 Y74.98 Z0.25 F1498.5
G1 X49.13 Y54.49 Z0.25 F1498.5
G1 X48.43 Y54.49 Z0.25 F1498.5
G1 X28.64 Y74.28 Z0.25 F1498.5
G1 X28.64 Y73.57 Z0.25 F1498.5
G1 X47.72 Y54.49 Z0.25 F1498.5
G1 X47.01 Y54.49 Z0.25 F1498.5
G1 X28.64 Y72.86 Z0.25 F1498.5
G1 X28.64 Y72.16 Z0.25 F1498.5
G1 X46.31 Y54.49 Z0.25 F1498.5
G1 X45.6 Y54.49 Z0.25 F1498.5
G1 X28.64 Y71.45 Z0.25 F1498.5
G1 X28.64 Y70.74 Z0.25 F1498.5
G1 X44.89 Y54.49 Z0.25 F1498.5
G1 X44.18 Y54.49 Z0.25 F1498.5
G1 X28.64 Y70.04 Z0.25 F1498.5
G1 X28.64 Y69.33 Z0.25 F1498.5
G1 X43.48 Y54.49 Z0.25 F1498.5
G1 X42.77 Y54.49 Z0.25 F1498.5
G1 X28.64 Y68.62 Z0.25 F1498.5
G1 X28.64 Y67.91 Z0.25 F1498.5
G1 X42.06 Y54.49 Z0.25 F1498.5
G1 X41.36 Y54.49 Z0.25 F1498.5
G1 X28.64 Y67.21 Z0.25 F1498.5
G1 X28.64 Y66.5 Z0.25 F1498.5
G1 X40.65 Y54.49 Z0.25 F1498.5
G1 X39.94 Y54.49 Z0.25 F1498.5
G1 X28.64 Y65.79 Z0.25 F1498.5
G1 X28.64 Y65.09 Z0.25 F1498.5
G1 X39.23 Y54.49 Z0.25 F1498.5
G1 X38.53 Y54.49 Z0.25 F1498.5
G1 X28.64 Y64.38 Z0.25 F1498.5
G1 X28.64 Y63.67 Z0.25 F1498.5
G1 X37.82 Y54.49 Z0.25 F1498.5
G1 X37.11 Y54.49 Z0.25 F1498.5
G1 X28.64 Y62.96 Z0.25 F1498.5
G1 X28.64 Y62.26 Z0.25 F1498.5
G1 X36.41 Y54.49 Z0.25 F1498.5
G1 X35.7 Y54.49 Z0.25 F1498.5
G1 X28.64 Y61.55 Z0.25 F1498.5
G1 X28.64 Y60.84 Z0.25 F1498.5
G1 X34.99 Y54.49 Z0.25 F1498.5
G1 X34.28 Y54.49 Z0.25 F1498.5
G1 X28.64 Y60.14 Z0.25 F1498.5
G1 X28.64 Y59.43 Z0.25 F1498.5
G1 X33.58 Y54.49 Z0.25 F1498.5
G1 X32.87 Y54.49 Z0.25 F1498.5
G1 X28.64 Y58.72 Z0.25 F1498.5
G1 X28.64 Y58.01 Z0.25 F1498.5
G1 X32.16 Y54.49 Z0.25 F1498.5
G1 X31.46 Y54.49 Z0.25 F1498.5
G1 X28.64 Y57.31 Z0.25 F1498.5
G1 X28.64 Y56.6 Z0.25 F1498.5
G1 X30.75 Y54.49 Z0.25 F1498.5
G1 X30.04 Y54.49 Z0.25 F1498.5
G1 X28.64 Y55.89 Z0.25 F1498.5
G1 X28.64 Y55.19 Z0.25 F1498.5
G1 X29.32 Y54.51 Z0.25 F1498.5
G1 X28.56 Y54.55 Z0.25 F1498.5
; extruder(s) off
M103
;
; 'Wipe', 0.0 [RPM], 25.0 [mm/s]
G1 X29.32 Y54.51 Z0.25 F1500
G1 X28.64 Y55.19 Z0.25 F1500
G1 X28.64 Y55.89 Z0.25 F1500
G1 X30.04 Y54.49 Z0.25 F1500
G1 X30.75 Y54.49 Z0.25 F1500
G1 X28.64 Y56.6 Z0.25 F1500
G1 X28.64 Y57.31 Z0.25 F1500
G1 X31.46 Y54.49 Z0.25 F1500
G1 X31.46 Y54.49 Z0.75 F210
; END_LAYER_OBJECT z=0.25
; BEGIN_LAYER_OBJECT z=0.50
;
; *** Warming Extruder 1 to 245 C ***
; set extruder N temperature
M104 S245
; begin wipe
M542
; prime extruder
M551 P32000 S900
; end wipe
M543
;
; fan on
M106
; extruder deciRPM
M108 S81
;
; 'Perimeter', 8.1 [RPM], 9.5 [mm/s]
G1 X126.66 Y94.65 Z0.75 F30000
G1 X126.66 Y94.65 Z0.5 F210
; extruder on
M101
G1 X126.78 Y94.97 Z0.5 F572.6
G1 X27.22 Y94.97 Z0.5 F572.6
G1 X27.18 Y94.82 Z0.5 F572.6
G1 X27.18 Y53.17 Z0.5 F572.6
G1 X27.22 Y53.03 Z0.5 F572.6
G1 X126.78 Y53.03 Z0.5 F572.6
G1 X126.82 Y53.18 Z0.5 F572.6
G1 X126.82 Y94.83 Z0.5 F572.6
G1 X126.78 Y94.97 Z0.5 F572.6
G1 X126.51 Y94.77 Z0.5 F572.6
; extruder(s) off
M103
; extruder deciRPM
M108 S218
;
; 'Loop', 21.8 [RPM], 25.7 [mm/s]
G1 X126.28 Y94.46 Z0.5 F30000
; extruder on
M101
G1 X27.72 Y94.46 Z0.5 F1541
G1 X27.69 Y94.32 Z0.5 F1541
G1 X27.69 Y53.68 Z0.5 F1541
G1 X27.72 Y53.54 Z0.5 F1541
G1 X126.28 Y53.54 Z0.5 F1541
G1 X126.31 Y53.68 Z0.5 F1541
G1 X126.31 Y94.32 Z0.5 F1541
G1 X126.28 Y94.46 Z0.5 F1541
; extruder(s) off
M103
; extruder deciRPM
M108 S275
;
; 'Loop', 27.5 [RPM], 32.4 [mm/s]
G1 X125.77 Y93.96 Z0.5 F30000
; extruder on
M101
G1 X28.22 Y93.96 Z0.5 F1943.9
G1 X28.19 Y93.82 Z0.5 F1943.9
G1 X28.19 Y54.18 Z0.5 F1943.9
G1 X28.23 Y54.04 Z0.5 F1943.9
G1 X125.78 Y54.04 Z0.5 F1943.9
G1 X125.81 Y54.18 Z0.5 F1943.9
G1 X125.81 Y93.82 Z0.5 F1943.9
G1 X125.77 Y93.96 Z0.5 F1943.9
; extruder(s) off
M103
; fan off
M107
; extruder deciRPM
M108 S318
;
; 'Solid', 31.8 [RPM], 37.5 [mm/s]
G1 X124.59 Y54.41 Z0.5 F30000
; extruder on
M101
G1 X125.36 Y55.19 Z0.5 F2247.8
G1 X125.36 Y55.89 Z0.5 F2247.8
G1 X123.96 Y54.49 Z0.5 F2247.8
G1 X123.25 Y54.49 Z0.5 F2247.8
G1 X125.36 Y56.6 Z0.5 F2247.8
G1 X125.36 Y57.31 Z0.5 F2247.8
G1 X122.54 Y54.49 Z0.5 F2247.8
G1 X121.84 Y54.49 Z0.5 F2247.8
G1 X125.36 Y58.02 Z0.5 F2247.8
G1 X125.36 Y58.72 Z0.5 F2247.8
G1 X121.13 Y54.49 Z0.5 F2247.8
G1 X120.42 Y54.49 Z0.5 F2247.8
G1 X125.36 Y59.43 Z0.5 F2247.8
G1 X125.36 Y60.14 Z0.5 F2247.8
G1 X119.71 Y54.49 Z0.5 F2247.8
G1 X119.01 Y54.49 Z0.5 F2247.8
G1 X125.36 Y60.84 Z0.5 F2247.8
G1 X125.36 Y61.55 Z0.5 F2247.8
G1 X118.3 Y54.49 Z0.5 F2247.8
G1 X117.59 Y54.49 Z0.5 F2247.8
G1 X125.36 Y62.26 Z0.5 F2247.8
G1 X125.36 Y62.97 Z0.5 F2247.8
G1 X116.89 Y54.49 Z0.5 F2247.8
G1 X116.18 Y54.49 Z0.5 F2247.8
G1 X125.36 Y63.67 Z0.5 F2247.8
G1 X125.36 Y64.38 Z0.5 F2247.8
G1 X115.47 Y54.49 Z0.5 F2247.8
G1 X114.76 Y54.49 Z0.5 F2247.8
G1 X125.36 Y65.09 Z0.5 F2247.8
G1 X125.36 Y65.79 Z0.5 F2247.8
G1 X114.06 Y54.49 Z0.5 F2247.8
G1 X113.35 Y54.49 Z0.5 F2247.8
G1 X125.36 Y66.5 Z0.5 F2247.8
G1 X125.36 Y67.21 Z0.5 F2247.8
G1 X112.64 Y54.49 Z0.5 F2247.8
G1 X111.94 Y54.49 Z0.5 F2247.8
G1 X125.36 Y67.92 Z0.5 F2247.8
G1 X125.36 Y68.62 Z0.5 F2247.8
G1 X111.23 Y54.49 Z0.5 F2247.8
G1 X110.52 Y54.49 Z0.5 F2247.8
G1 X125.36 Y69.33 Z0.5 F2247.8
G1 X125.36 Y70.04 Z0.5 F2247.8
G1 X109.81 Y54.49 Z0.5 F2247.8
G1 X109.11 Y54.49 Z0.5 F2247.8
G1 X125.36 Y70.74 Z0.5 F2247.8
G1 X125.36 Y71.45 Z0.5 F2247.8
G1 X108.4 Y54.49 Z0.5 F2247.8
G1 X107.69 Y54.49 Z0.5 F2247.8
G1 X125.36 Y72.16 Z0.5 F2247.8
G1 X125.36 Y72.86 Z0.5 F2247.8
G1 X106.99 Y54.49 Z0.5 F2247.8
G1 X106.28 Y54.49 Z0.5 F2247.8
G1 X125.36 Y73.57 Z0.5 F2247.8
G1 X125.36 Y74.28 Z0.5 F2247.8
G1 X105.57 Y54.49 Z0.5 F2247.8
G1 X104.87 Y54.49 Z0.5 F2247.8
G1 X125.36 Y74.99 Z0.5 F2247.8
G1 X125.36 Y75.69 Z0.5 F2247.8
G1 X104.16 Y54.49 Z0.5 F2247.8
G1 X103.45 Y54.49 Z0.5 F2247.8
G1 X125.36 Y76.4 Z0.5 F2247.8
G1 X125.36 Y77.11 Z0.5 F2247.8
G1 X102.74 Y54.49 Z0.5 F2247.8
G1 X102.04 Y54.49 Z0.5 F2247.8
G1 X125.36 Y77.81 Z0.5 F2247.8
G1 X125.36 Y78.52 Z0.5 F2247.8
G1 X101.33 Y54.49 Z0.5 F2247.8
G1 X100.62 Y54.49 Z0.5 F2247.8
G1 X125.36 Y79.23 Z0.5 F2247.8
G1 X125.36 Y79.94 Z0.5 F2247.8
G1 X99.92 Y54.49 Z0.5 F2247.8
G1 X99.21 Y54.49 Z0.5 F2247.8
G1 X125.36 Y80.64 Z0.5 F2247.8
G1 X125.36 Y81.35 Z0.5 F2247.8
G1 X98.5 Y54.49 Z0.5 F2247.8
G1 X97.79 Y54.49 Z0.5 F2247.8
G1 X125.36 Y82.06 Z0.5 F2247.8
G1 X125.36 Y82.76 Z0.5 F2247.8
G1 X97.09 Y54.49 Z0.5 F2247.8
G1 X96.38 Y54.49 Z0.5 F2247.8
G1 X125.36 Y83.47 Z0.5 F2247.8
G1 X125.36 Y84.18 Z0.5 F2247.8
G1 X95.67 Y54.49 Z0.5 F2247.8
G1 X94.97 Y54.49 Z0.5 F2247.8
G1 X125.36 Y84.89 Z0.5 F2247.8
G1 X125.36 Y85.59 Z0.5 F2247.8
G1 X94.26 Y54.49 Z0.5 F2247.8
G1 X93.55 Y54.49 Z0.5 F2247.8
G1 X125.36 Y86.3 Z0.5 F2247.8
G1 X125.36 Y87.01 Z0.5 F2247.8
G1 X92.84 Y54.49 Z0.5 F2247.8
G1 X92.14 Y54.49 Z0.5 F2247.8
G1 X125.36 Y87.71 Z0.5 F2247.8
G1 X125.36 Y88.42 Z0.5 F2247.8
G1 X91.43 Y54.49 Z0.5 F2247.8
G1 X90.72 Y54.49 Z0.5 F2247.8
G1 X125.36 Y89.13 Z0.5 F2247.8
G1 X125.36 Y89.84 Z0.5 F2247.8
G1 X90.02 Y54.49 Z0.5 F2247.8
G1 X89.31 Y54.49 Z0.5 F2247.8
G1 X125.36 Y90.54 Z0.5 F2247.8
G1 X125.36 Y91.25 Z0.5 F2247.8
G1 X88.6 Y54.49 Z0.5 F2247.8
G1 X87.89 Y54.49 Z0.5 F2247.8
G1 X125.36 Y91.96 Z0.5 F2247.8
G1 X125.36 Y92.66 Z0.5 F2247.8
G1 X87.19 Y54.49 Z0.5 F2247.8
G1 X86.48 Y54.49 Z0.5 F2247.8
G1 X125.37 Y93.38 Z0.5 F2247.8
G1 X124.81 Y93.52 Z0.5 F2247.8
G1 X85.77 Y54.49 Z0.5 F2247.8
G1 X85.07 Y54.49 Z0.5 F2247.8
G1 X124.09 Y93.51 Z0.5 F2247.8
G1 X123.38 Y93.51 Z0.5 F2247.8
G1 X84.36 Y54.49 Z0.5 F2247.8
G1 X83.65 Y54.49 Z0.5 F2247.8
G1 X122.67 Y93.51 Z0.5 F2247.8
G1 X121.97 Y93.51 Z0.5 F2247.8
G1 X82.95 Y54.49 Z0.5 F2247.8
G1 X82.24 Y54.49 Z0.5 F2247.8
G1 X121.26 Y93.51 Z0.5 F2247.8
G1 X120.55 Y93.51 Z0.5 F2247.8
G1 X81.53 Y54.49 Z0.5 F2247.8
G1 X80.82 Y54.49 Z0.5 F2247.8
G1 X119.84 Y93.51 Z0.5 F2247.8
G1 X119.14 Y93.51 Z0.5 F2247.8
G1 X80.12 Y54.49 Z0.5 F2247.8
G1 X79.41 Y54.49 Z0.5 F2247.8
G1 X118.43 Y93.51 Z0.5 F2247.8
G1 X117.72 Y93.51 Z0.5 F2247.8
G1 X78.7 Y54.49 Z0.5 F2247.8
G1 X78 Y54.49 Z0.5 F2247.8
G1 X117.02 Y93.51 Z0.5 F2247.8
G1 X116.31 Y93.51 Z0.5 F2247.8
G1 X77.29 Y54.49 Z0.5 F2247.8
G1 X76.58 Y54.49 Z0.5 F2247.8
G1 X115.6 Y93.51 Z0.5 F2247.8
G1 X114.89 Y93.51 Z0.5 F2247.8
G1 X75.87 Y54.49 Z0.5 F2247.8
G1 X75.17 Y54.49 Z0.5 F2247.8
G1 X114.19 Y93.51 Z0.5 F2247.8
G1 X113.48 Y93.51 Z0.5 F2247.8
G1 X74.46 Y54.49 Z0.5 F2247.8
G1 X73.75 Y54.49 Z0.5 F2247.8
G1 X112.77 Y93.51 Z0.5 F2247.8
G1 X112.07 Y93.51 Z0.5 F2247.8
G1 X73.05 Y54.49 Z0.5 F2247.8
G1 X72.34 Y54.49 Z0.5 F2247.8
G1 X111.36 Y93.51 Z0.5 F2247.8
G1 X110.65 Y93.51 Z0.5 F2247.8
G1 X71.63 Y54.49 Z0.5 F2247.8
G1 X70.92 Y54.49 Z0.5 F2247.8
G1 X109.94 Y93.51 Z0.5 F2247.8
G1 X109.24 Y93.51 Z0.5 F2247.8
G1 X70.22 Y54.49 Z0.5 F2247.8
G1 X69.51 Y54.49 Z0.5 F2247.8
G1 X108.53 Y93.51 Z0.5 F2247.8
G1 X107.82 Y93.51 Z0.5 F2247.8
G1 X68.8 Y54.49 Z0.5 F2247.8
G1 X68.1 Y54.49 Z0.5 F2247.8
G1 X107.12 Y93.51 Z0.5 F2247.8
G1 X106.41 Y93.51 Z0.5 F2247.8
G1 X67.39 Y54.49 Z0.5 F2247.8
G1 X66.68 Y54.49 Z0.5 F2247.8
G1 X105.7 Y93.51 Z0.5 F2247.8
G1 X105 Y93.51 Z0.5 F2247.8
G1 X65.98 Y54.49 Z0.5 F2247.8
G1 X65.27 Y54.49 Z0.5 F2247.8
G1 X104.29 Y93.51 Z0.5 F2247.8
G1 X103.58 Y93.51 Z0.5 F2247.8
G1 X64.56 Y54.49 Z0.5 F2247.8
G1 X63.85 Y54.49 Z0.5 F2247.8
G1 X102.87 Y93.51 Z0.5 F2247.8
G1 X102.17 Y93.51 Z0.5 F2247.8
G1 X63.15 Y54.49 Z0.5 F2247.8
G1 X62.44 Y54.49 Z0.5 F2247.8
G1 X101.46 Y93.51 Z0.5 F2247.8
G1 X100.75 Y93.51 Z0.5 F2247.8
G1 X61.73 Y54.49 Z0.5 F2247.8
G1 X61.03 Y54.49 Z0.5 F2247.8
G1 X100.05 Y93.51 Z0.5 F2247.8
G1 X99.34 Y93.51 Z0.5 F2247.8
G1 X60.32 Y54.49 Z0.5 F2247.8
G1 X59.61 Y54.49 Z0.5 F2247.8
G1 X98.63 Y93.51 Z0.5 F2247.8
G1 X97.92 Y93.51 Z0.5 F2247.8
G1 X58.9 Y54.49 Z0.5 F2247.8
G1 X58.2 Y54.49 Z0.5 F2247.8
G1 X97.22 Y93.51 Z0.5 F2247.8
G1 X96.51 Y93.51 Z0.5 F2247.8
G1 X57.49 Y54.49 Z0.5 F2247.8
G1 X56.78 Y54.49 Z0.5 F2247.8
G1 X95.8 Y93.51 Z0.5 F2247.8
G1 X95.1 Y93.51 Z0.5 F2247.8
G1 X56.08 Y54.49 Z0.5 F2247.8
G1 X55.37 Y54.49 Z0.5 F2247.8
G1 X94.39 Y93.51 Z0.5 F2247.8
G1 X93.68 Y93.51 Z0.5 F2247.8
G1 X54.66 Y54.49 Z0.5 F2247.8
G1 X53.95 Y54.49 Z0.5 F2247.8
G1 X92.97 Y93.51 Z0.5 F2247.8
G1 X92.27 Y93.51 Z0.5 F2247.8
G1 X53.25 Y54.49 Z0.5 F2247.8
G1 X52.54 Y54.49 Z0.5 F2247.8
G1 X91.56 Y93.51 Z0.5 F2247.8
G1 X90.85 Y93.51 Z0.5 F2247.8
G1 X51.83 Y54.49 Z0.5 F2247.8
G1 X51.13 Y54.49 Z0.5 F2247.8
G1 X90.15 Y93.51 Z0.5 F2247.8
G1 X89.44 Y93.51 Z0.5 F2247.8
G1 X50.42 Y54.49 Z0.5 F2247.8
G1 X49.71 Y54.49 Z0.5 F2247.8
G1 X88.73 Y93.51 Z0.5 F2247.8
G1 X88.02 Y93.51 Z0.5 F2247.8
G1 X49 Y54.49 Z0.5 F2247.8
G1 X48.3 Y54.49 Z0.5 F2247.8
G1 X87.32 Y93.51 Z0.5 F2247.8
G1 X86.61 Y93.51 Z0.5 F2247.8
G1 X47.59 Y54.49 Z0.5 F2247.8
G1 X46.88 Y54.49 Z0.5 F2247.8
G1 X85.9 Y93.51 Z0.5 F2247.8
G1 X85.2 Y93.51 Z0.5 F2247.8
G1 X46.18 Y54.49 Z0.5 F2247.8
G1 X45.47 Y54.49 Z0.5 F2247.8
G1 X84.49 Y93.51 Z0.5 F2247.8
G1 X83.78 Y93.51 Z0.5 F2247.8
G1 X44.76 Y54.49 Z0.5 F2247.8
G1 X44.06 Y54.49 Z0.5 F2247.8
G1 X83.08 Y93.51 Z0.5 F2247.8
G1 X82.37 Y93.51 Z0.5 F2247.8
G1 X43.35 Y54.49 Z0.5 F2247.8
G1 X42.64 Y54.49 Z0.5 F2247.8
G1 X81.66 Y93.51 Z0.5 F2247.8
G1 X80.95 Y93.51 Z0.5 F2247.8
G1 X41.93 Y54.49 Z0.5 F2247.8
G1 X41.23 Y54.49 Z0.5 F2247.8
G1 X80.25 Y93.51 Z0.5 F2247.8
G1 X79.54 Y93.51 Z0.5 F2247.8
G1 X40.52 Y54.49 Z0.5 F2247.8
G1 X39.81 Y54.49 Z0.5 F2247.8
G1 X78.83 Y93.51 Z0.5 F2247.8
G1 X78.13 Y93.51 Z0.5 F2247.8
G1 X39.11 Y54.49 Z0.5 F2247.8
G1 X38.4 Y54.49 Z0.5 F2247.8
G1 X77.42 Y93.51 Z0.5 F2247.8
G1 X76.71 Y93.51 Z0.5 F2247.8
G1 X37.69 Y54.49 Z0.5 F2247.8
G1 X36.98 Y54.49 Z0.5 F2247.8
G1 X76 Y93.51 Z0.5 F2247.8
G1 X75.3 Y93.51 Z0.5 F2247.8
G1 X36.28 Y54.49 Z0.5 F2247.8
G1 X35.57 Y54.49 Z0.5 F2247.8
G1 X74.59 Y93.51 Z0.5 F2247.8
G1 X73.88 Y93.51 Z0.5 F2247.8
G1 X34.86 Y54.49 Z0.5 F2247.8
G1 X34.16 Y54.49 Z0.5 F2247.8
G1 X73.18 Y93.51 Z0.5 F2247.8
G1 X72.47 Y93.51 Z0.5 F2247.8
G1 X33.45 Y54.49 Z0.5 F2247.8
G1 X32.74 Y54.49 Z0.5 F2247.8
G1 X71.76 Y93.51 Z0.5 F2247.8
G1 X71.05 Y93.51 Z0.5 F2247.8
G1 X32.03 Y54.49 Z0.5 F2247.8
G1 X31.33 Y54.49 Z0.5 F2247.8
G1 X70.35 Y93.51 Z0.5 F2247.8
G1 X69.64 Y93.51 Z0.5 F2247.8
G1 X30.62 Y54.49 Z0.5 F2247.8
G1 X29.91 Y54.49 Z0.5 F2247.8
G1 X68.93 Y93.51 Z0.5 F2247.8
G1 X68.23 Y93.51 Z0.5 F2247.8
G1 X29.19 Y54.48 Z0.5 F2247.8
G1 X28.63 Y54.62 Z0.5 F2247.8
G1 X67.52 Y93.51 Z0.5 F2247.8
G1 X66.81 Y93.51 Z0.5 F2247.8
G1 X28.64 Y55.34 Z0.5 F2247.8
G1 X28.64 Y56.04 Z0.5 F2247.8
G1 X66.11 Y93.51 Z0.5 F2247.8
G1 X65.4 Y93.51 Z0.5 F2247.8
G1 X28.64 Y56.75 Z0.5 F2247.8
G1 X28.64 Y57.46 Z0.5 F2247.8
G1 X64.69 Y93.51 Z0.5 F2247.8
G1 X63.98 Y93.51 Z0.5 F2247.8
G1 X28.64 Y58.16 Z0.5 F2247.8
G1 X28.64 Y58.87 Z0.5 F2247.8
G1 X63.28 Y93.51 Z0.5 F2247.8
G1 X62.57 Y93.51 Z0.5 F2247.8
G1 X28.64 Y59.58 Z0.5 F2247.8
G1 X28.64 Y60.29 Z0.5 F2247.8
G1 X61.86 Y93.51 Z0.5 F2247.8
G1 X61.16 Y93.51 Z0.5 F2247.8
G1 X28.64 Y60.99 Z0.5 F2247.8
G1 X28.64 Y61.7 Z0.5 F2247.8
G1 X60.45 Y93.51 Z0.5 F2247.8
G1 X59.74 Y93.51 Z0.5 F2247.8
G1 X28.64 Y62.41 Z0.5 F2247.8
G1 X28.64 Y63.11 Z0.5 F2247.8
G1 X59.03 Y93.51 Z0.5 F2247.8
G1 X58.33 Y93.51 Z0.5 F2247.8
G1 X28.64 Y63.82 Z0.5 F2247.8
G1 X28.64 Y64.53 Z0.5 F2247.8
G1 X57.62 Y93.51 Z0.5 F2247.8
G1 X56.91 Y93.51 Z0.5 F2247.8
G1 X28.64 Y65.24 Z0.5 F2247.8
G1 X28.64 Y65.94 Z0.5 F2247.8
G1 X56.21 Y93.51 Z0.5 F2247.8
G1 X55.5 Y93.51 Z0.5 F2247.8
G1 X28.64 Y66.65 Z0.5 F2247.8
G1 X28.64 Y67.36 Z0.5 F2247.8
G1 X54.79 Y93.51 Z0.5 F2247.8
G1 X54.08 Y93.51 Z0.5 F2247.8
G1 X28.64 Y68.06 Z0.5 F2247.8
G1 X28.64 Y68.77 Z0.5 F2247.8
G1 X53.38 Y93.51 Z0.5 F2247.8
G1 X52.67 Y93.51 Z0.5 F2247.8
G1 X28.64 Y69.48 Z0.5 F2247.8
G1 X28.64 Y70.19 Z0.5 F2247.8
G1 X51.96 Y93.51 Z0.5 F2247.8
G1 X51.26 Y93.51 Z0.5 F2247.8
G1 X28.64 Y70.89 Z0.5 F2247.8
G1 X28.64 Y71.6 Z0.5 F2247.8
G1 X50.55 Y93.51 Z0.5 F2247.8
G1 X49.84 Y93.51 Z0.5 F2247.8
G1 X28.64 Y72.31 Z0.5 F2247.8
G1 X28.64 Y73.01 Z0.5 F2247.8
G1 X49.13 Y93.51 Z0.5 F2247.8
G1 X48.43 Y93.51 Z0.5 F2247.8
G1 X28.64 Y73.72 Z0.5 F2247.8
G1 X28.64 Y74.43 Z0.5 F2247.8
G1 X47.72 Y93.51 Z0.5 F2247.8
G1 X47.01 Y93.51 Z0.5 F2247.8
G1 X28.64 Y75.14 Z0.5 F2247.8
G1 X28.64 Y75.84 Z0.5 F2247.8
G1 X46.31 Y93.51 Z0.5 F2247.8
G1 X45.6 Y93.51 Z0.5 F2247.8
G1 X28.64 Y76.55 Z0.5 F2247.8
G1 X28.64 Y77.26 Z0.5 F2247.8
G1 X44.89 Y93.51 Z0.5 F2247.8
G1 X44.19 Y93.51 Z0.5 F2247.8
G1 X28.64 Y77.96 Z0.5 F2247.8
G1 X28.64 Y78.67 Z0.5 F2247.8
G1 X43.48 Y93.51 Z0.5 F2247.8
G1 X42.77 Y93.51 Z0.5 F2247.8
G1 X28.64 Y79.38 Z0.5 F2247.8
G1 X28.64 Y80.08 Z0.5 F2247.8
G1 X42.06 Y93.51 Z0.5 F2247.8
G1 X41.36 Y93.51 Z0.5 F2247.8
G1 X28.64 Y80.79 Z0.5 F2247.8
G1 X28.64 Y81.5 Z0.5 F2247.8
G1 X40.65 Y93.51 Z0.5 F2247.8
G1 X39.94 Y93.51 Z0.5 F2247.8
G1 X28.64 Y82.21 Z0.5 F2247.8
G1 X28.64 Y82.91 Z0.5 F2247.8
G1 X39.24 Y93.51 Z0.5 F2247.8
G1 X38.53 Y93.51 Z0.5 F2247.8
G1 X28.64 Y83.62 Z0.5 F2247.8
G1 X28.64 Y84.33 Z0.5 F2247.8
G1 X37.82 Y93.51 Z0.5 F2247.8
G1 X37.11 Y93.51 Z0.5 F2247.8
G1 X28.64 Y85.03 Z0.5 F2247.8
G1 X28.64 Y85.74 Z0.5 F2247.8
G1 X36.41 Y93.51 Z0.5 F2247.8
G1 X35.7 Y93.51 Z0.5 F2247.8
G1 X28.64 Y86.45 Z0.5 F2247.8
G1 X28.64 Y87.16 Z0.5 F2247.8
G1 X34.99 Y93.51 Z0.5 F2247.8
G1 X34.29 Y93.51 Z0.5 F2247.8
G1 X28.64 Y87.86 Z0.5 F2247.8
G1 X28.64 Y88.57 Z0.5 F2247.8
G1 X33.58 Y93.51 Z0.5 F2247.8
G1 X32.87 Y93.51 Z0.5 F2247.8
G1 X28.64 Y89.28 Z0.5 F2247.8
G1 X28.64 Y89.98 Z0.5 F2247.8
G1 X32.16 Y93.51 Z0.5 F2247.8
G1 X31.46 Y93.51 Z0.5 F2247.8
G1 X28.64 Y90.69 Z0.5 F2247.8
G1 X28.64 Y91.4 Z0.5 F2247.8
G1 X30.75 Y93.51 Z0.5 F2247.8
G1 X30.04 Y93.51 Z0.5 F2247.8
G1 X28.64 Y92.11 Z0.5 F2247.8
G1 X28.64 Y92.81 Z0.5 F2247.8
G1 X29.36 Y93.53 Z0.5 F2247.8
; extruder(s) off
M103
;
; 'Wipe', 0.0 [RPM], 37.5 [mm/s]
G1 X28.64 Y92.81 Z0.5 F2250
G1 X28.64 Y92.11 Z0.5 F2250
G1 X30.04 Y93.51 Z0.5 F2250
G1 X30.75 Y93.51 Z0.5 F2250
G1 X28.64 Y91.4 Z0.5 F2250
G1 X28.64 Y90.69 Z0.5 F2250
G1 X31.46 Y93.51 Z0.5 F2250
G1 X31.46 Y93.51 Z1 F210
; END_LAYER_OBJECT z=0.50
; BEGIN_LAYER_OBJECT z=0.75
; fan on
M106
; extruder deciRPM
M108 S81
;
; 'Perimeter', 8.1 [RPM], 9.5 [mm/s]
G1 X126.66 Y94.65 Z1 F30000
G1 X126.66 Y94.65 Z0.75 F210
; extruder on
M101
G1 X126.78 Y94.97 Z0.75 F572.6
G1 X27.22 Y94.97 Z0.75 F572.6
G1 X27.18 Y94.82 Z0.75 F572.6
G1 X27.18 Y53.17 Z0.75 F572.6
G1 X27.22 Y53.03 Z0.75 F572.6
G1 X126.78 Y53.03 Z0.75 F572.6
G1 X126.82 Y53.18 Z0.75 F572.6
G1 X126.82 Y94.83 Z0.75 F572.6
G1 X126.78 Y94.97 Z0.75 F572.6
G1 X126.51 Y94.77 Z0.75 F572.6
; extruder(s) off
M103
; extruder deciRPM
M108 S218
;
; 'Loop', 21.8 [RPM], 25.7 [mm/s]
G1 X126.28 Y94.46 Z0.75 F30000
; extruder on
M101
G1 X27.72 Y94.46 Z0.75 F1541
G1 X27.69 Y94.32 Z0.75 F1541
G1 X27.69 Y53.68 Z0.75 F1541
G1 X27.72 Y53.54 Z0.75 F1541
G1 X126.28 Y53.54 Z0.75 F1541
G1 X126.31 Y53.68 Z0.75 F1541
G1 X126.31 Y94.32 Z0.75 F1541
G1 X126.28 Y94.46 Z0.75 F1541
; extruder(s) off
M103
; extruder deciRPM
M108 S275
;
; 'Loop', 27.5 [RPM], 32.4 [mm/s]
G1 X125.77 Y93.96 Z0.75 F30000
; extruder on
M101
G1 X28.22 Y93.96 Z0.75 F1943.9
G1 X28.19 Y93.82 Z0.75 F1943.9
G1 X28.19 Y54.18 Z0.75 F1943.9
G1 X28.23 Y54.04 Z0.75 F1943.9
G1 X125.78 Y54.04 Z0.75 F1943.9
G1 X125.81 Y54.18 Z0.75 F1943.9
G1 X125.81 Y93.82 Z0.75 F1943.9
G1 X125.77 Y93.96 Z0.75 F1943.9
; extruder(s) off
M103
; fan off
M107
; extruder deciRPM
M108 S318
;
; 'Solid', 31.8 [RPM], 37.5 [mm/s]
G1 X125.44 Y93.45 Z0.75 F30000
; extruder on
M101
G1 X124.68 Y93.49 Z0.75 F2247.8
G1 X125.36 Y92.81 Z0.75 F2247.8
G1 X125.36 Y92.11 Z0.75 F2247.8
G1 X123.96 Y93.51 Z0.75 F2247.8
G1 X123.25 Y93.51 Z0.75 F2247.8
G1 X125.36 Y91.4 Z0.75 F2247.8
G1 X125.36 Y90.69 Z0.75 F2247.8
G1 X122.54 Y93.51 Z0.75 F2247.8
G1 X121.84 Y93.51 Z0.75 F2247.8
G1 X125.36 Y89.99 Z0.75 F2247.8
G1 X125.36 Y89.28 Z0.75 F2247.8
G1 X121.13 Y93.51 Z0.75 F2247.8
G1 X120.42 Y93.51 Z0.75 F2247.8
G1 X125.36 Y88.57 Z0.75 F2247.8
G1 X125.36 Y87.86 Z0.75 F2247.8
G1 X119.72 Y93.51 Z0.75 F2247.8
G1 X119.01 Y93.51 Z0.75 F2247.8
G1 X125.36 Y87.16 Z0.75 F2247.8
G1 X125.36 Y86.45 Z0.75 F2247.8
G1 X118.3 Y93.51 Z0.75 F2247.8
G1 X117.59 Y93.51 Z0.75 F2247.8
G1 X125.36 Y85.74 Z0.75 F2247.8
G1 X125.36 Y85.04 Z0.75 F2247.8
G1 X116.89 Y93.51 Z0.75 F2247.8
G1 X116.18 Y93.51 Z0.75 F2247.8
G1 X125.36 Y84.33 Z0.75 F2247.8
G1 X125.36 Y83.62 Z0.75 F2247.8
G1 X115.47 Y93.51 Z0.75 F2247.8
G1 X114.77 Y93.51 Z0.75 F2247.8
G1 X125.36 Y82.91 Z0.75 F2247.8
G1 X125.36 Y82.21 Z0.75 F2247.8
G1 X114.06 Y93.51 Z0.75 F2247.8
G1 X113.35 Y93.51 Z0.75 F2247.8
G1 X125.36 Y81.5 Z0.75 F2247.8
G1 X125.36 Y80.79 Z0.75 F2247.8
G1 X112.64 Y93.51 Z0.75 F2247.8
G1 X111.94 Y93.51 Z0.75 F2247.8
G1 X125.36 Y80.09 Z0.75 F2247.8
G1 X125.36 Y79.38 Z0.75 F2247.8
G1 X111.23 Y93.51 Z0.75 F2247.8
G1 X110.52 Y93.51 Z0.75 F2247.8
G1 X125.36 Y78.67 Z0.75 F2247.8
G1 X125.36 Y77.96 Z0.75 F2247.8
G1 X109.82 Y93.51 Z0.75 F2247.8
G1 X109.11 Y93.51 Z0.75 F2247.8
G1 X125.36 Y77.26 Z0.75 F2247.8
G1 X125.36 Y76.55 Z0.75 F2247.8
G1 X108.4 Y93.51 Z0.75 F2247.8
G1 X107.69 Y93.51 Z0.75 F2247.8
G1 X125.36 Y75.84 Z0.75 F2247.8
G1 X125.36 Y75.14 Z0.75 F2247.8
G1 X106.99 Y93.51 Z0.75 F2247.8
G1 X106.28 Y93.51 Z0.75 F2247.8
G1 X125.36 Y74.43 Z0.75 F2247.8
G1 X125.36 Y73.72 Z0.75 F2247.8
G1 X105.57 Y93.51 Z0.75 F2247.8
G1 X104.87 Y93.51 Z0.75 F2247.8
G1 X125.36 Y73.02 Z0.75 F2247.8
G1 X125.36 Y72.31 Z0.75 F2247.8
G1 X104.16 Y93.51 Z0.75 F2247.8
G1 X103.45 Y93.51 Z0.75 F2247.8
G1 X125.36 Y71.6 Z0.75 F2247.8
G1 X125.36 Y70.89 Z0.75 F2247.8
G1 X102.74 Y93.51 Z0.75 F2247.8
G1 X102.04 Y93.51 Z0.75 F2247.8
G1 X125.36 Y70.19 Z0.75 F2247.8
G1 X125.36 Y69.48 Z0.75 F2247.8
G1 X101.33 Y93.51 Z0.75 F2247.8
G1 X100.62 Y93.51 Z0.75 F2247.8
G1 X125.36 Y68.77 Z0.75 F2247.8
G1 X125.36 Y68.07 Z0.75 F2247.8
G1 X99.92 Y93.51 Z0.75 F2247.8
G1 X99.21 Y93.51 Z0.75 F2247.8
G1 X125.36 Y67.36 Z0.75 F2247.8
G1 X125.36 Y66.65 Z0.75 F2247.8
G1 X98.5 Y93.51 Z0.75 F2247.8
G1 X97.79 Y93.51 Z0.75 F2247.8
G1 X125.36 Y65.94 Z0.75 F2247.8
G1 X125.36 Y65.24 Z0.75 F2247.8
G1 X97.09 Y93.51 Z0.75 F2247.8
G1 X96.38 Y93.51 Z0.75 F2247.8
G1 X125.36 Y64.53 Z0.75 F2247.8
G1 X125.36 Y63.82 Z0.75 F2247.8
G1 X95.67 Y93.51 Z0.75 F2247.8
G1 X94.97 Y93.51 Z0.75 F2247.8
G1 X125.36 Y63.12 Z0.75 F2247.8
G1 X125.36 Y62.41 Z0.75 F2247.8
G1 X94.26 Y93.51 Z0.75 F2247.8
G1 X93.55 Y93.51 Z0.75 F2247.8
G1 X125.36 Y61.7 Z0.75 F2247.8
G1 X125.36 Y60.99 Z0.75 F2247.8
G1 X92.84 Y93.51 Z0.75 F2247.8
G1 X92.14 Y93.51 Z0.75 F2247.8
G1 X125.36 Y60.29 Z0.75 F2247.8
G1 X125.36 Y59.58 Z0.75 F2247.8
G1 X91.43 Y93.51 Z0.75 F2247.8
G1 X90.72 Y93.51 Z0.75 F2247.8
G1 X125.36 Y58.87 Z0.75 F2247.8
G1 X125.36 Y58.17 Z0.75 F2247.8
G1 X90.02 Y93.51 Z0.75 F2247.8
G1 X89.31 Y93.51 Z0.75 F2247.8
G1 X125.36 Y57.46 Z0.75 F2247.8
G1 X125.36 Y56.75 Z0.75 F2247.8
G1 X88.6 Y93.51 Z0.75 F2247.8
G1 X87.89 Y93.51 Z0.75 F2247.8
G1 X125.36 Y56.05 Z0.75 F2247.8
G1 X125.36 Y55.34 Z0.75 F2247.8
G1 X87.19 Y93.51 Z0.75 F2247.8
G1 X86.48 Y93.51 Z0.75 F2247.8
G1 X125.37 Y54.62 Z0.75 F2247.8
G1 X124.81 Y54.48 Z0.75 F2247.8
G1 X85.77 Y93.51 Z0.75 F2247.8
G1 X85.07 Y93.51 Z0.75 F2247.8
G1 X124.09 Y54.49 Z0.75 F2247.8
G1 X123.38 Y54.49 Z0.75 F2247.8
G1 X84.36 Y93.51 Z0.75 F2247.8
G1 X83.65 Y93.51 Z0.75 F2247.8
G1 X122.67 Y54.49 Z0.75 F2247.8
G1 X121.97 Y54.49 Z0.75 F2247.8
G1 X82.94 Y93.51 Z0.75 F2247.8
G1 X82.24 Y93.51 Z0.75 F2247.8
G1 X121.26 Y54.49 Z0.75 F2247.8
G1 X120.55 Y54.49 Z0.75 F2247.8
G1 X81.53 Y93.51 Z0.75 F2247.8
G1 X80.82 Y93.51 Z0.75 F2247.8
G1 X119.85 Y54.49 Z0.75 F2247.8
G1 X119.14 Y54.49 Z0.75 F2247.8
G1 X80.12 Y93.51 Z0.75 F2247.8
G1 X79.41 Y93.51 Z0.75 F2247.8
G1 X118.43 Y54.49 Z0.75 F2247.8
G1 X117.72 Y54.49 Z0.75 F2247.8
G1 X78.7 Y93.51 Z0.75 F2247.8
G1 X78 Y93.51 Z0.75 F2247.8
G1 X117.02 Y54.49 Z0.75 F2247.8
G1 X116.31 Y54.49 Z0.75 F2247.8
G1 X77.29 Y93.51 Z0.75 F2247.8
G1 X76.58 Y93.51 Z0.75 F2247.8
G1 X115.6 Y54.49 Z0.75 F2247.8
G1 X114.9 Y54.49 Z0.75 F2247.8
G1 X75.87 Y93.51 Z0.75 F2247.8
G1 X75.17 Y93.51 Z0.75 F2247.8
G1 X114.19 Y54.49 Z0.75 F2247.8
G1 X113.48 Y54.49 Z0.75 F2247.8
G1 X74.46 Y93.51 Z0.75 F2247.8
G1 X73.75 Y93.51 Z0.75 F2247.8
G1 X112.78 Y54.49 Z0.75 F2247.8
G1 X112.07 Y54.49 Z0.75 F2247.8
G1 X73.05 Y93.51 Z0.75 F2247.8
G1 X72.34 Y93.51 Z0.75 F2247.8
G1 X111.36 Y54.49 Z0.75 F2247.8
G1 X110.65 Y54.49 Z0.75 F2247.8
G1 X71.63 Y93.51 Z0.75 F2247.8
G1 X70.92 Y93.51 Z0.75 F2247.8
G1 X109.95 Y54.49 Z0.75 F2247.8
G1 X109.24 Y54.49 Z0.75 F2247.8
G1 X70.22 Y93.51 Z0.75 F2247.8
G1 X69.51 Y93.51 Z0.75 F2247.8
G1 X108.53 Y54.49 Z0.75 F2247.8
G1 X107.83 Y54.49 Z0.75 F2247.8
G1 X68.8 Y93.51 Z0.75 F2247.8
G1 X68.1 Y93.51 Z0.75 F2247.8
G1 X107.12 Y54.49 Z0.75 F2247.8
G1 X106.41 Y54.49 Z0.75 F2247.8
G1 X67.39 Y93.51 Z0.75 F2247.8
G1 X66.68 Y93.51 Z0.75 F2247.8
G1 X105.7 Y54.49 Z0.75 F2247.8
G1 X105 Y54.49 Z0.75 F2247.8
G1 X65.97 Y93.51 Z0.75 F2247.8
G1 X65.27 Y93.51 Z0.75 F2247.8
G1 X104.29 Y54.49 Z0.75 F2247.8
G1 X103.58 Y54.49 Z0.75 F2247.8
G1 X64.56 Y93.51 Z0.75 F2247.8
G1 X63.85 Y93.51 Z0.75 F2247.8
G1 X102.88 Y54.49 Z0.75 F2247.8
G1 X102.17 Y54.49 Z0.75 F2247.8
G1 X63.15 Y93.51 Z0.75 F2247.8
G1 X62.44 Y93.51 Z0.75 F2247.8
G1 X101.46 Y54.49 Z0.75 F2247.8
G1 X100.75 Y54.49 Z0.75 F2247.8
G1 X61.73 Y93.51 Z0.75 F2247.8
G1 X61.02 Y93.51 Z0.75 F2247.8
G1 X100.05 Y54.49 Z0.75 F2247.8
G1 X99.34 Y54.49 Z0.75 F2247.8
G1 X60.32 Y93.51 Z0.75 F2247.8
G1 X59.61 Y93.51 Z0.75 F2247.8
G1 X98.63 Y54.49 Z0.75 F2247.8
G1 X97.93 Y54.49 Z0.75 F2247.8
G1 X58.9 Y93.51 Z0.75 F2247.8
G1 X58.2 Y93.51 Z0.75 F2247.8
G1 X97.22 Y54.49 Z0.75 F2247.8
G1 X96.51 Y54.49 Z0.75 F2247.8
G1 X57.49 Y93.51 Z0.75 F2247.8
G1 X56.78 Y93.51 Z0.75 F2247.8
G1 X95.8 Y54.49 Z0.75 F2247.8
G1 X95.1 Y54.49 Z0.75 F2247.8
G1 X56.07 Y93.51 Z0.75 F2247.8
G1 X55.37 Y93.51 Z0.75 F2247.8
G1 X94.39 Y54.49 Z0.75 F2247.8
G1 X93.68 Y54.49 Z0.75 F2247.8
G1 X54.66 Y93.51 Z0.75 F2247.8
G1 X53.95 Y93.51 Z0.75 F2247.8
G1 X92.98 Y54.49 Z0.75 F2247.8
G1 X92.27 Y54.49 Z0.75 F2247.8
G1 X53.25 Y93.51 Z0.75 F2247.8
G1 X52.54 Y93.51 Z0.75 F2247.8
G1 X91.56 Y54.49 Z0.75 F2247.8
G1 X90.85 Y54.49 Z0.75 F2247.8
G1 X51.83 Y93.51 Z0.75 F2247.8
G1 X51.12 Y93.51 Z0.75 F2247.8
G1 X90.15 Y54.49 Z0.75 F2247.8
G1 X89.44 Y54.49 Z0.75 F2247.8
G1 X50.42 Y93.51 Z0.75 F2247.8
G1 X49.71 Y93.51 Z0.75 F2247.8
G1 X88.73 Y54.49 Z0.75 F2247.8
G1 X88.03 Y54.49 Z0.75 F2247.8
G1 X49 Y93.51 Z0.75 F2247.8
G1 X48.3 Y93.51 Z0.75 F2247.8
G1 X87.32 Y54.49 Z0.75 F2247.8
G1 X86.61 Y54.49 Z0.75 F2247.8
G1 X47.59 Y93.51 Z0.75 F2247.8
G1 X46.88 Y93.51 Z0.75 F2247.8
G1 X85.9 Y54.49 Z0.75 F2247.8
G1 X85.2 Y54.49 Z0.75 F2247.8
G1 X46.17 Y93.51 Z0.75 F2247.8
G1 X45.47 Y93.51 Z0.75 F2247.8
G1 X84.49 Y54.49 Z0.75 F2247.8
G1 X83.78 Y54.49 Z0.75 F2247.8
G1 X44.76 Y93.51 Z0.75 F2247.8
G1 X44.05 Y93.51 Z0.75 F2247.8
G1 X83.08 Y54.49 Z0.75 F2247.8
G1 X82.37 Y54.49 Z0.75 F2247.8
G1 X43.35 Y93.51 Z0.75 F2247.8
G1 X42.64 Y93.51 Z0.75 F2247.8
G1 X81.66 Y54.49 Z0.75 F2247.8
G1 X80.95 Y54.49 Z0.75 F2247.8
G1 X41.93 Y93.51 Z0.75 F2247.8
G1 X41.22 Y93.51 Z0.75 F2247.8
G1 X80.25 Y54.49 Z0.75 F2247.8
G1 X79.54 Y54.49 Z0.75 F2247.8
G1 X40.52 Y93.51 Z0.75 F2247.8
G1 X39.81 Y93.51 Z0.75 F2247.8
G1 X78.83 Y54.49 Z0.75 F2247.8
G1 X78.13 Y54.49 Z0.75 F2247.8
G1 X39.1 Y93.51 Z0.75 F2247.8
G1 X38.4 Y93.51 Z0.75 F2247.8
G1 X77.42 Y54.49 Z0.75 F2247.8
G1 X76.71 Y54.49 Z0.75 F2247.8
G1 X37.69 Y93.51 Z0.75 F2247.8
G1 X36.98 Y93.51 Z0.75 F2247.8
G1 X76 Y54.49 Z0.75 F2247.8
G1 X75.3 Y54.49 Z0.75 F2247.8
G1 X36.28 Y93.51 Z0.75 F2247.8
G1 X35.57 Y93.51 Z0.75 F2247.8
G1 X74.59 Y54.49 Z0.75 F2247.8
G1 X73.88 Y54.49 Z0.75 F2247.8
G1 X34.86 Y93.51 Z0.75 F2247.8
G1 X34.15 Y93.51 Z0.75 F2247.8
G1 X73.18 Y54.49 Z0.75 F2247.8
G1 X72.47 Y54.49 Z0.75 F2247.8
G1 X33.45 Y93.51 Z0.75 F2247.8
G1 X32.74 Y93.51 Z0.75 F2247.8
G1 X71.76 Y54.49 Z0.75 F2247.8
G1 X71.06 Y54.49 Z0.75 F2247.8
G1 X32.03 Y93.51 Z0.75 F2247.8
G1 X31.33 Y93.51 Z0.75 F2247.8
G1 X70.35 Y54.49 Z0.75 F2247.8
G1 X69.64 Y54.49 Z0.75 F2247.8
G1 X30.62 Y93.51 Z0.75 F2247.8
G1 X29.91 Y93.51 Z0.75 F2247.8
G1 X68.93 Y54.49 Z0.75 F2247.8
G1 X68.23 Y54.49 Z0.75 F2247.8
G1 X29.19 Y93.52 Z0.75 F2247.8
G1 X28.63 Y93.38 Z0.75 F2247.8
G1 X67.52 Y54.49 Z0.75 F2247.8
G1 X66.81 Y54.49 Z0.75 F2247.8
G1 X28.64 Y92.66 Z0.75 F2247.8
G1 X28.64 Y91.95 Z0.75 F2247.8
G1 X66.11 Y54.49 Z0.75 F2247.8
G1 X65.4 Y54.49 Z0.75 F2247.8
G1 X28.64 Y91.25 Z0.75 F2247.8
G1 X28.64 Y90.54 Z0.75 F2247.8
G1 X64.69 Y54.49 Z0.75 F2247.8
G1 X63.98 Y54.49 Z0.75 F2247.8
G1 X28.64 Y89.83 Z0.75 F2247.8
G1 X28.64 Y89.13 Z0.75 F2247.8
G1 X63.28 Y54.49 Z0.75 F2247.8
G1 X62.57 Y54.49 Z0.75 F2247.8
G1 X28.64 Y88.42 Z0.75 F2247.8
G1 X28.64 Y87.71 Z0.75 F2247.8
G1 X61.86 Y54.49 Z0.75 F2247.8
G1 X61.16 Y54.49 Z0.75 F2247.8
G1 X28.64 Y87.01 Z0.75 F2247.8
G1 X28.64 Y86.3 Z0.75 F2247.8
G1 X60.45 Y54.49 Z0.75 F2247.8
G1 X59.74 Y54.49 Z0.75 F2247.8
G1 X28.64 Y85.59 Z0.75 F2247.8
G1 X28.64 Y84.88 Z0.75 F2247.8
G1 X59.03 Y54.49 Z0.75 F2247.8
G1 X58.33 Y54.49 Z0.75 F2247.8
G1 X28.64 Y84.18 Z0.75 F2247.8
G1 X28.64 Y83.47 Z0.75 F2247.8
G1 X57.62 Y54.49 Z0.75 F2247.8
G1 X56.91 Y54.49 Z0.75 F2247.8
G1 X28.64 Y82.76 Z0.75 F2247.8
G1 X28.64 Y82.06 Z0.75 F2247.8
G1 X56.21 Y54.49 Z0.75 F2247.8
G1 X55.5 Y54.49 Z0.75 F2247.8
G1 X28.64 Y81.35 Z0.75 F2247.8
G1 X28.64 Y80.64 Z0.75 F2247.8
G1 X54.79 Y54.49 Z0.75 F2247.8
G1 X54.08 Y54.49 Z0.75 F2247.8
G1 X28.64 Y79.93 Z0.75 F2247.8
G1 X28.64 Y79.23 Z0.75 F2247.8
G1 X53.38 Y54.49 Z0.75 F2247.8
G1 X52.67 Y54.49 Z0.75 F2247.8
G1 X28.64 Y78.52 Z0.75 F2247.8
G1 X28.64 Y77.81 Z0.75 F2247.8
G1 X51.96 Y54.49 Z0.75 F2247.8
G1 X51.26 Y54.49 Z0.75 F2247.8
G1 X28.64 Y77.11 Z0.75 F2247.8
G1 X28.64 Y76.4 Z0.75 F2247.8
G1 X50.55 Y54.49 Z0.75 F2247.8
G1 X49.84 Y54.49 Z0.75 F2247.8
G1 X28.64 Y75.69 Z0.75 F2247.8
G1 X28.64 Y74.98 Z0.75 F2247.8
G1 X49.13 Y54.49 Z0.75 F2247.8
G1 X48.43 Y54.49 Z0.75 F2247.8
G1 X28.64 Y74.28 Z0.75 F2247.8
G1 X28.64 Y73.57 Z0.75 F2247.8
G1 X47.72 Y54.49 Z0.75 F2247.8
G1 X47.01 Y54.49 Z0.75 F2247.8
G1 X28.64 Y72.86 Z0.75 F2247.8
G1 X28.64 Y72.16 Z0.75 F2247.8
G1 X46.31 Y54.49 Z0.75 F2247.8
G1 X45.6 Y54.49 Z0.75 F2247.8
G1 X28.64 Y71.45 Z0.75 F2247.8
G1 X28.64 Y70.74 Z0.75 F2247.8
G1 X44.89 Y54.49 Z0.75 F2247.8
G1 X44.18 Y54.49 Z0.75 F2247.8
G1 X28.64 Y70.04 Z0.75 F2247.8
G1 X28.64 Y69.33 Z0.75 F2247.8
G1 X43.48 Y54.49 Z0.75 F2247.8
G1 X42.77 Y54.49 Z0.75 F2247.8
G1 X28.64 Y68.62 Z0.75 F2247.8
G1 X28.64 Y67.91 Z0.75 F2247.8
G1 X42.06 Y54.49 Z0.75 F2247.8
G1 X41.36 Y54.49 Z0.75 F2247.8
G1 X28.64 Y67.21 Z0.75 F2247.8
G1 X28.64 Y66.5 Z0.75 F2247.8
G1 X40.65 Y54.49 Z0.75 F2247.8
G1 X39.94 Y54.49 Z0.75 F2247.8
G1 X28.64 Y65.79 Z0.75 F2247.8
G1 X28.64 Y65.09 Z0.75 F2247.8
G1 X39.23 Y54.49 Z0.75 F2247.8
G1 X38.53 Y54.49 Z0.75 F2247.8
G1 X28.64 Y64.38 Z0.75 F2247.8
G1 X28.64 Y63.67 Z0.75 F2247.8
G1 X37.82 Y54.49 Z0.75 F2247.8
G1 X37.11 Y54.49 Z0.75 F2247.8
G1 X28.64 Y62.96 Z0.75 F2247.8
G1 X28.64 Y62.26 Z0.75 F2247.8
G1 X36.41 Y54.49 Z0.75 F2247.8
G1 X35.7 Y54.49 Z0.75 F2247.8
G1 X28.64 Y61.55 Z0.75 F2247.8
G1 X28.64 Y60.84 Z0.75 F2247.8
G1 X34.99 Y54.49 Z0.75 F2247.8
G1 X34.28 Y54.49 Z0.75 F2247.8
G1 X28.64 Y60.14 Z0.75 F2247.8
G1 X28.64 Y59.43 Z0.75 F2247.8
G1 X33.58 Y54.49 Z0.75 F2247.8
G1 X32.87 Y54.49 Z0.75 F2247.8
G1 X28.64 Y58.72 Z0.75 F2247.8
G1 X28.64 Y58.01 Z0.75 F2247.8
G1 X32.16 Y54.49 Z0.75 F2247.8
G1 X31.46 Y54.49 Z0.75 F2247.8
G1 X28.64 Y57.31 Z0.75 F2247.8
G1 X28.64 Y56.6 Z0.75 F2247.8
G1 X30.75 Y54.49 Z0.75 F2247.8
G1 X30.04 Y54.49 Z0.75 F2247.8
G1 X28.64 Y55.89 Z0.75 F2247.8
G1 X28.64 Y55.19 Z0.75 F2247.8
G1 X29.32 Y54.51 Z0.75 F2247.8
G1 X28.56 Y54.55 Z0.75 F2247.8
; extruder(s) off
M103
;
; 'Wipe', 0.0 [RPM], 37.5 [mm/s]
G1 X29.32 Y54.51 Z0.75 F2250
G1 X28.64 Y55.19 Z0.75 F2250
G1 X28.64 Y55.89 Z0.75 F2250
G1 X30.04 Y54.49 Z0.75 F2250
G1 X30.75 Y54.49 Z0.75 F2250
G1 X28.64 Y56.6 Z0.75 F2250
G1 X28.64 Y57.31 Z0.75 F2250
G1 X31.46 Y54.49 Z0.75 F2250
G1 X31.46 Y54.49 Z1.25 F210
; END_LAYER_OBJECT z=0.75
; BEGIN_LAYER_OBJECT z=1.00
; fan on
M106
; extruder deciRPM
M108 S81
;
; 'Perimeter', 8.1 [RPM], 9.5 [mm/s]
G1 X126.66 Y94.65 Z1.25 F30000
G1 X126.66 Y94.65 Z1 F210
; extruder on
M101
G1 X126.78 Y94.97 Z1 F572.6
G1 X27.22 Y94.97 Z1 F572.6
G1 X27.18 Y94.82 Z1 F572.6
G1 X27.18 Y53.17 Z1 F572.6
G1 X27.22 Y53.03 Z1 F572.6
G1 X126.78 Y53.03 Z1 F572.6
G1 X126.82 Y53.18 Z1 F572.6
G1 X126.82 Y94.83 Z1 F572.6
G1 X126.78 Y94.97 Z1 F572.6
G1 X126.51 Y94.77 Z1 F572.6
; extruder(s) off
M103
; extruder deciRPM
M108 S218
;
; 'Loop', 21.8 [RPM], 25.7 [mm/s]
G1 X126.28 Y94.46 Z1 F30000
; extruder on
M101
G1 X27.72 Y94.46 Z1 F1541
G1 X27.69 Y94.32 Z1 F1541
G1 X27.69 Y53.68 Z1 F1541
G1 X27.72 Y53.54 Z1 F1541
G1 X126.28 Y53.54 Z1 F1541
G1 X126.31 Y53.68 Z1 F1541
G1 X126.31 Y94.32 Z1 F1541
G1 X126.28 Y94.46 Z1 F1541
; extruder(s) off
M103
; extruder deciRPM
M108 S275
;
; 'Loop', 27.5 [RPM], 32.4 [mm/s]
G1 X125.77 Y93.96 Z1 F30000
; extruder on
M101
G1 X28.22 Y93.96 Z1 F1943.9
G1 X28.19 Y93.82 Z1 F1943.9
G1 X28.19 Y54.18 Z1 F1943.9
G1 X28.23 Y54.04 Z1 F1943.9
G1 X125.78 Y54.04 Z1 F1943.9
G1 X125.81 Y54.18 Z1 F1943.9
G1 X125.81 Y93.82 Z1 F1943.9
G1 X125.77 Y93.96 Z1 F1943.9
; extruder(s) off
M103
; fan off
M107
; extruder deciRPM
M108 S446
;
; 'Sparse Infill', 44.6 [RPM], 52.5 [mm/s]
G1 X104.93 Y70.11 Z1 F30000
; extruder on
M101
G1 X105.16 Y69.87 Z1 F3152.6
G1 X105.64 Y69.41 Z1 F3152.6
G1 X105.28 Y69.05 Z1 F3152.6
; extruder(s) off
M103
;
; 'Sparse Infill', 44.6 [RPM], 52.5 [mm/s]
G1 X100.34 Y72.59 Z1 F30000
; extruder on
M101
G1 X100.33 Y72.58 Z1 F3152.6
G1 X99.98 Y72.78 Z1 F3152.6
G1 X99.63 Y72.74 Z1 F3152.6
G1 X99.28 Y72.94 Z1 F3152.6
G1 X99.27 Y72.94 Z1 F3152.6
; extruder(s) off
M103
;
; 'Sparse Infill', 44.6 [RPM], 52.5 [mm/s]
G1 X91.15 Y67.64 Z1 F30000
; extruder on
M101
G1 X90.43 Y66.93 Z1 F3152.6
G1 X90.63 Y66.57 Z1 F3152.6
G1 X90.59 Y66.22 Z1 F3152.6
G1 X90.79 Y65.87 Z1 F3152.6
G1 X90.79 Y65.86 Z1 F3152.6
; extruder(s) off
M103
;
; 'Sparse Infill', 44.6 [RPM], 52.5 [mm/s]
G1 X91.85 Y59.86 Z1 F30000
; extruder on
M101
G1 X91.85 Y59.85 Z1 F3152.6
G1 X92.55 Y59.15 Z1 F3152.6
G1 X92.56 Y59.15 Z1 F3152.6
; extruder(s) off
M103
;
; 'Sparse Infill', 44.6 [RPM], 52.5 [mm/s]
G1 X52.96 Y69.05 Z1 F30000
; extruder on
M101
G1 X52.95 Y69.05 Z1 F3152.6
G1 X52.76 Y69.4 Z1 F3152.6
G1 X52.8 Y69.75 Z1 F3152.6
G1 X52.6 Y70.11 Z1 F3152.6
G1 X52.38 Y70.35 Z1 F3152.6
G1 X51.89 Y70.81 Z1 F3152.6
G1 X52.25 Y71.17 Z1 F3152.6
; extruder(s) off
M103
;
; 'Sparse Infill', 44.6 [RPM], 52.5 [mm/s]
G1 X51.19 Y71.52 Z1 F30000
; extruder on
M101
G1 X51.55 Y71.88 Z1 F3152.6
G1 X50.84 Y72.59 Z1 F3152.6
G1 X50.83 Y72.58 Z1 F3152.6
; extruder(s) off
M103
;
; 'Sparse Infill', 44.6 [RPM], 52.5 [mm/s]
G1 X52.96 Y60.56 Z1 F30000
; extruder on
M101
G1 X53.67 Y61.28 Z1 F3152.6
; extruder(s) off
M103
;
; 'Sparse Infill', 44.6 [RPM], 52.5 [mm/s]
G1 X54.02 Y63.04 Z1 F30000
; extruder on
M101
G1 X55.79 Y64.81 Z1 F3152.6
G1 X55.64 Y65.28 Z1 F3152.6
G1 X55.64 Y65.75 Z1 F3152.6
G1 X55.79 Y66.22 Z1 F3152.6
G1 X53.31 Y63.74 Z1 F3152.6
G1 X52.6 Y64.45 Z1 F3152.6
G1 X55.79 Y67.64 Z1 F3152.6
G1 X55.64 Y68.11 Z1 F3152.6
G1 X55.64 Y68.58 Z1 F3152.6
G1 X55.79 Y69.05 Z1 F3152.6
G1 X51.89 Y65.16 Z1 F3152.6
G1 X51.66 Y65.39 Z1 F3152.6
G1 X51.19 Y65.67 Z1 F3152.6
G1 X50.83 Y65.51 Z1 F3152.6
G1 X55.79 Y70.47 Z1 F3152.6
G1 X55.64 Y70.94 Z1 F3152.6
G1 X55.64 Y71.41 Z1 F3152.6
G1 X55.79 Y71.88 Z1 F3152.6
G1 X53.31 Y69.4 Z1 F3152.6
G1 X53.31 Y69.4 Z1 F3152.6
G1 X49.77 Y65.86 Z1 F3152.6
G1 X49.54 Y66.1 Z1 F3152.6
G1 X49.07 Y66.38 Z1 F3152.6
G1 X48.71 Y66.22 Z1 F3152.6
G1 X51.19 Y68.7 Z1 F3152.6
G1 X50.72 Y68.55 Z1 F3152.6
G1 X50.25 Y68.55 Z1 F3152.6
G1 X49.78 Y68.7 Z1 F3152.6
G1 X47.65 Y66.57 Z1 F3152.6
G1 X46.94 Y67.28 Z1 F3152.6
G1 X49.43 Y69.76 Z1 F3152.6
G1 X49.07 Y69.6 Z1 F3152.6
G1 X48.6 Y69.88 Z1 F3152.6
G1 X48.37 Y70.11 Z1 F3152.6
G1 X46.24 Y67.99 Z1 F3152.6
; extruder(s) off
M103
;
; 'Sparse Infill', 44.6 [RPM], 52.5 [mm/s]
G1 X43.42 Y66.58 Z1 F30000
; extruder on
M101
G1 X42.35 Y65.51 Z1 F3152.6
G1 X41.64 Y66.22 Z1 F3152.6
G1 X43.06 Y67.64 Z1 F3152.6
G1 X42.91 Y68.11 Z1 F3152.6
G1 X42.91 Y68.58 Z1 F3152.6
G1 X43.06 Y69.05 Z1 F3152.6
G1 X41.29 Y67.28 Z1 F3152.6
; extruder(s) off
M103
;
; 'Sparse Infill', 44.6 [RPM], 52.5 [mm/s]
G1 X40.23 Y66.22 Z1 F30000
; extruder on
M101
G1 X35.98 Y61.98 Z1 F3152.6
; extruder(s) off
M103
;
; 'Sparse Infill', 44.6 [RPM], 52.5 [mm/s]
G1 X34.93 Y60.92 Z1 F30000
; extruder on
M101
G1 X28.56 Y54.55 Z1 F3152.6
G1 X28.64 Y55.02 Z1 F3152.6
G1 X28.64 Y55.49 Z1 F3152.6
G1 X28.56 Y55.96 Z1 F3152.6
G1 X36.7 Y64.1 Z1 F3152.6
G1 X36.23 Y63.95 Z1 F3152.6
G1 X35.76 Y63.95 Z1 F3152.6
G1 X35.28 Y64.1 Z1 F3152.6
G1 X28.56 Y57.37 Z1 F3152.6
G1 X28.64 Y57.85 Z1 F3152.6
G1 X28.64 Y58.32 Z1 F3152.6
G1 X28.56 Y58.79 Z1 F3152.6
G1 X34.93 Y65.16 Z1 F3152.6
G1 X34.78 Y65.64 Z1 F3152.6
G1 X34.78 Y66.11 Z1 F3152.6
G1 X34.93 Y66.58 Z1 F3152.6
G1 X28.56 Y60.2 Z1 F3152.6
G1 X28.64 Y60.67 Z1 F3152.6
G1 X28.64 Y61.15 Z1 F3152.6
G1 X28.56 Y61.62 Z1 F3152.6
G1 X36.34 Y69.41 Z1 F3152.6
G1 X35.87 Y69.25 Z1 F3152.6
G1 X35.4 Y69.26 Z1 F3152.6
G1 X34.93 Y69.41 Z1 F3152.6
G1 X28.56 Y63.03 Z1 F3152.6
G1 X28.64 Y63.5 Z1 F3152.6
G1 X28.64 Y63.97 Z1 F3152.6
G1 X28.56 Y64.45 Z1 F3152.6
G1 X34.93 Y70.82 Z1 F3152.6
; extruder(s) off
M103
;
; 'Sparse Infill', 44.6 [RPM], 52.5 [mm/s]
G1 X36.69 Y72.58 Z1 F30000
; extruder on
M101
G1 X40.23 Y76.12 Z1 F3152.6
G1 X40.08 Y75.65 Z1 F3152.6
G1 X40.08 Y75.18 Z1 F3152.6
G1 X40.23 Y74.71 Z1 F3152.6
G1 X38.11 Y72.58 Z1 F3152.6
G1 X38.26 Y72.11 Z1 F3152.6
G1 X38.26 Y71.64 Z1 F3152.6
G1 X38.11 Y71.17 Z1 F3152.6
G1 X41.65 Y74.71 Z1 F3152.6
G1 X42.35 Y72.58 Z1 F3152.6
G1 X45.18 Y75.42 Z1 F3152.6
G1 X45.04 Y75.18 Z1 F3152.6
G1 X45.66 Y74.56 Z1 F3152.6
G1 X45.89 Y74.71 Z1 F3152.6
G1 X41.99 Y70.81 Z1 F3152.6
; extruder(s) off
M103
;
; 'Sparse Infill', 44.6 [RPM], 52.5 [mm/s]
G1 X40.23 Y70.47 Z1 F30000
; extruder on
M101
G1 X37.05 Y67.28 Z1 F3152.6
G1 X36.57 Y67.43 Z1 F3152.6
G1 X36.1 Y67.43 Z1 F3152.6
G1 X35.63 Y67.28 Z1 F3152.6
G1 X40.23 Y71.88 Z1 F3152.6
G1 X40.58 Y72.77 Z1 F3152.6
G1 X40.93 Y72.58 Z1 F3152.6
G1 X45.18 Y76.83 Z1 F3152.6
; extruder(s) off
M103
;
; 'Sparse Infill', 44.6 [RPM], 52.5 [mm/s]
G1 X46.24 Y77.89 Z1 F30000
; extruder on
M101
G1 X50.49 Y82.13 Z1 F3152.6
; extruder(s) off
M103
;
; 'Sparse Infill', 44.6 [RPM], 52.5 [mm/s]
G1 X51.54 Y83.19 Z1 F30000
; extruder on
M101
G1 X55.79 Y87.44 Z1 F3152.6
G1 X56.14 Y88.33 Z1 F3152.6
G1 X56.49 Y88.14 Z1 F3152.6
G1 X61.82 Y93.46 Z1 F3152.6
G1 X61.34 Y93.43 Z1 F3152.6
G1 X60.4 Y93.46 Z1 F3152.6
G1 X53.66 Y86.72 Z1 F3152.6
G1 X53.82 Y87.2 Z1 F3152.6
G1 X53.81 Y87.67 Z1 F3152.6
G1 X53.66 Y88.14 Z1 F3152.6
G1 X58.99 Y93.46 Z1 F3152.6
G1 X58.52 Y93.43 Z1 F3152.6
G1 X57.57 Y93.46 Z1 F3152.6
G1 X52.25 Y88.14 Z1 F3152.6
G1 X51.55 Y90.27 Z1 F3152.6
G1 X48.36 Y87.08 Z1 F3152.6
G1 X48.52 Y87.43 Z1 F3152.6
G1 X48.24 Y87.9 Z1 F3152.6
G1 X48 Y88.14 Z1 F3152.6
G1 X50.49 Y90.62 Z1 F3152.6
G1 X50.34 Y91.09 Z1 F3152.6
G1 X50.33 Y91.56 Z1 F3152.6
G1 X50.49 Y92.03 Z1 F3152.6
G1 X46.59 Y88.14 Z1 F3152.6
; extruder(s) off
M103
;
; 'Sparse Infill', 44.6 [RPM], 52.5 [mm/s]
G1 X45.18 Y86.73 Z1 F30000
; extruder on
M101
G1 X41.64 Y83.19 Z1 F3152.6
G1 X42 Y84.96 Z1 F3152.6
G1 X38.11 Y81.07 Z1 F3152.6
G1 X38.26 Y81.54 Z1 F3152.6
G1 X38.26 Y82.01 Z1 F3152.6
G1 X38.11 Y82.48 Z1 F3152.6
G1 X40.59 Y84.96 Z1 F3152.6
G1 X40.35 Y85.2 Z1 F3152.6
G1 X40.07 Y85.67 Z1 F3152.6
G1 X40.23 Y86.02 Z1 F3152.6
G1 X37.4 Y83.19 Z1 F3152.6
G1 X36.93 Y83.34 Z1 F3152.6
G1 X36.46 Y83.34 Z1 F3152.6
G1 X35.98 Y83.19 Z1 F3152.6
G1 X40.23 Y87.44 Z1 F3152.6
G1 X40.58 Y88.33 Z1 F3152.6
G1 X40.93 Y88.14 Z1 F3152.6
G1 X45.18 Y92.39 Z1 F3152.6
G1 X44.98 Y92.75 Z1 F3152.6
G1 X44.96 Y93.11 Z1 F3152.6
G1 X44.85 Y93.46 Z1 F3152.6
G1 X28.56 Y77.17 Z1 F3152.6
G1 X28.64 Y77.65 Z1 F3152.6
G1 X28.64 Y78.12 Z1 F3152.6
G1 X28.56 Y78.59 Z1 F3152.6
G1 X43.43 Y93.46 Z1 F3152.6
G1 X42.96 Y93.43 Z1 F3152.6
G1 X42.02 Y93.46 Z1 F3152.6
G1 X28.56 Y80 Z1 F3152.6
G1 X28.64 Y80.47 Z1 F3152.6
G1 X28.64 Y80.94 Z1 F3152.6
G1 X28.56 Y81.42 Z1 F3152.6
G1 X40.6 Y93.46 Z1 F3152.6
G1 X40.13 Y93.43 Z1 F3152.6
G1 X39.19 Y93.46 Z1 F3152.6
G1 X28.56 Y82.83 Z1 F3152.6
G1 X28.64 Y83.3 Z1 F3152.6
G1 X28.64 Y83.77 Z1 F3152.6
G1 X28.56 Y84.24 Z1 F3152.6
G1 X37.77 Y93.46 Z1 F3152.6
G1 X37.3 Y93.43 Z1 F3152.6
G1 X36.36 Y93.46 Z1 F3152.6
G1 X28.56 Y85.66 Z1 F3152.6
G1 X28.64 Y86.13 Z1 F3152.6
G1 X28.64 Y86.6 Z1 F3152.6
G1 X28.56 Y87.07 Z1 F3152.6
G1 X34.95 Y93.46 Z1 F3152.6
G1 X34.47 Y93.43 Z1 F3152.6
G1 X33.53 Y93.46 Z1 F3152.6
G1 X28.56 Y88.49 Z1 F3152.6
G1 X28.64 Y88.96 Z1 F3152.6
G1 X28.64 Y89.43 Z1 F3152.6
G1 X28.56 Y89.9 Z1 F3152.6
G1 X32.12 Y93.46 Z1 F3152.6
G1 X31.65 Y93.43 Z1 F3152.6
G1 X30.7 Y93.46 Z1 F3152.6
G1 X28.56 Y91.32 Z1 F3152.6
G1 X28.64 Y91.79 Z1 F3152.6
G1 X28.64 Y92.26 Z1 F3152.6
G1 X28.56 Y92.73 Z1 F3152.6
G1 X29.29 Y93.46 Z1 F3152.6
; extruder(s) off
M103
;
; 'Sparse Infill', 44.6 [RPM], 52.5 [mm/s]
G1 X34.93 Y82.13 Z1 F30000
; extruder on
M101
G1 X30.68 Y77.88 Z1 F3152.6
G1 X31.15 Y78.04 Z1 F3152.6
G1 X31.62 Y78.04 Z1 F3152.6
G1 X32.1 Y77.88 Z1 F3152.6
G1 X34.93 Y80.72 Z1 F3152.6
G1 X34.78 Y80.48 Z1 F3152.6
G1 X35.4 Y79.87 Z1 F3152.6
G1 X35.64 Y80.01 Z1 F3152.6
G1 X32.8 Y77.18 Z1 F3152.6
G1 X32.95 Y76.71 Z1 F3152.6
G1 X32.96 Y76.23 Z1 F3152.6
G1 X32.8 Y75.76 Z1 F3152.6
G1 X37.05 Y80.01 Z1 F3152.6
G1 X37.75 Y77.88 Z1 F3152.6
G1 X40.23 Y80.37 Z1 F3152.6
G1 X40.47 Y80.13 Z1 F3152.6
G1 X40.94 Y79.85 Z1 F3152.6
G1 X41.29 Y80.01 Z1 F3152.6
G1 X38.11 Y76.82 Z1 F3152.6
G1 X38.26 Y76.35 Z1 F3152.6
G1 X38.26 Y75.88 Z1 F3152.6
G1 X38.11 Y75.41 Z1 F3152.6
G1 X45.18 Y82.49 Z1 F3152.6
G1 X45.03 Y82.02 Z1 F3152.6
G1 X45.03 Y81.55 Z1 F3152.6
G1 X45.18 Y81.07 Z1 F3152.6
G1 X41.99 Y77.89 Z1 F3152.6
G1 X42.35 Y78.05 Z1 F3152.6
G1 X42.82 Y77.77 Z1 F3152.6
G1 X43.06 Y77.53 Z1 F3152.6
G1 X45.54 Y80.01 Z1 F3152.6
G1 X46.01 Y79.86 Z1 F3152.6
G1 X46.48 Y79.86 Z1 F3152.6
G1 X46.95 Y80.01 Z1 F3152.6
G1 X43.06 Y76.12 Z1 F3152.6
; extruder(s) off
M103
;
; 'Sparse Infill', 44.6 [RPM], 52.5 [mm/s]
G1 X47.31 Y74.71 Z1 F30000
; extruder on
M101
G1 X38.11 Y65.51 Z1 F3152.6
G1 X38.26 Y65.98 Z1 F3152.6
G1 X38.26 Y66.45 Z1 F3152.6
G1 X38.11 Y66.92 Z1 F3152.6
G1 X40.59 Y69.41 Z1 F3152.6
; extruder(s) off
M103
;
; 'Sparse Infill', 44.6 [RPM], 52.5 [mm/s]
G1 X37.41 Y74.71 Z1 F30000
; extruder on
M101
G1 X28.56 Y65.86 Z1 F3152.6
G1 X28.64 Y66.33 Z1 F3152.6
G1 X28.64 Y66.8 Z1 F3152.6
G1 X28.56 Y67.27 Z1 F3152.6
G1 X35.99 Y74.71 Z1 F3152.6
G1 X35.64 Y74.55 Z1 F3152.6
G1 X35.17 Y74.83 Z1 F3152.6
G1 X34.93 Y75.06 Z1 F3152.6
G1 X28.56 Y68.69 Z1 F3152.6
G1 X28.64 Y69.16 Z1 F3152.6
G1 X28.64 Y69.63 Z1 F3152.6
G1 X28.56 Y70.1 Z1 F3152.6
G1 X34.93 Y76.48 Z1 F3152.6
; extruder(s) off
M103
;
; 'Sparse Infill', 44.6 [RPM], 52.5 [mm/s]
G1 X36.34 Y77.88 Z1 F30000
; extruder on
M101
G1 X40.23 Y81.78 Z1 F3152.6
; extruder(s) off
M103
;
; 'Sparse Infill', 44.6 [RPM], 52.5 [mm/s]
G1 X43.06 Y81.77 Z1 F30000
; extruder on
M101
G1 X46.24 Y84.96 Z1 F3152.6
G1 X46.72 Y84.81 Z1 F3152.6
G1 X47.19 Y84.81 Z1 F3152.6
G1 X47.66 Y84.96 Z1 F3152.6
G1 X45.88 Y83.19 Z1 F3152.6
G1 X46.36 Y83.34 Z1 F3152.6
G1 X46.83 Y83.34 Z1 F3152.6
G1 X47.3 Y83.19 Z1 F3152.6
G1 X50.49 Y86.38 Z1 F3152.6
G1 X50.33 Y85.91 Z1 F3152.6
G1 X50.34 Y85.43 Z1 F3152.6
G1 X50.49 Y84.96 Z1 F3152.6
G1 X48.36 Y82.83 Z1 F3152.6
G1 X48.51 Y82.36 Z1 F3152.6
G1 X48.51 Y81.89 Z1 F3152.6
G1 X48.36 Y81.42 Z1 F3152.6
G1 X51.9 Y84.96 Z1 F3152.6
G1 X52.95 Y83.19 Z1 F3152.6
G1 X55.79 Y86.02 Z1 F3152.6
G1 X55.63 Y85.67 Z1 F3152.6
G1 X55.91 Y85.2 Z1 F3152.6
G1 X56.14 Y84.96 Z1 F3152.6
G1 X53.66 Y82.48 Z1 F3152.6
G1 X53.81 Y82.01 Z1 F3152.6
G1 X53.82 Y81.54 Z1 F3152.6
G1 X53.66 Y81.07 Z1 F3152.6
G1 X57.56 Y84.96 Z1 F3152.6
G1 X57.2 Y83.19 Z1 F3152.6
G1 X67.47 Y93.46 Z1 F3152.6
G1 X68.42 Y93.43 Z1 F3152.6
G1 X68.89 Y93.46 Z1 F3152.6
G1 X58.61 Y83.19 Z1 F3152.6
G1 X58.85 Y82.95 Z1 F3152.6
G1 X59.13 Y82.48 Z1 F3152.6
G1 X58.97 Y82.13 Z1 F3152.6
G1 X70.3 Y93.46 Z1 F3152.6
G1 X71.24 Y93.43 Z1 F3152.6
G1 X71.72 Y93.46 Z1 F3152.6
G1 X58.97 Y80.71 Z1 F3152.6
G1 X59.15 Y80.36 Z1 F3152.6
G1 X58.27 Y80.01 Z1 F3152.6
G1 X53.66 Y75.41 Z1 F3152.6
G1 X53.85 Y75.06 Z1 F3152.6
G1 X52.96 Y74.71 Z1 F3152.6
G1 X51.19 Y72.94 Z1 F3152.6
G1 X51.19 Y72.94 Z1 F3152.6
G1 X50.48 Y72.23 Z1 F3152.6
G1 X49.77 Y72.94 Z1 F3152.6
G1 X51.55 Y74.71 Z1 F3152.6
G1 X51.19 Y74.55 Z1 F3152.6
G1 X50.72 Y74.83 Z1 F3152.6
G1 X50.49 Y75.06 Z1 F3152.6
G1 X48.36 Y72.94 Z1 F3152.6
G1 X47.92 Y73.09 Z1 F3152.6
G1 X47.47 Y73.06 Z1 F3152.6
G1 X46.86 Y72.84 Z1 F3152.6
G1 X46.59 Y72.58 Z1 F3152.6
G1 X50.49 Y76.48 Z1 F3152.6
; extruder(s) off
M103
;
; 'Sparse Infill', 44.6 [RPM], 52.5 [mm/s]
G1 X51.89 Y77.89 Z1 F30000
; extruder on
M101
G1 X55.79 Y81.78 Z1 F3152.6
G1 X55.64 Y81.31 Z1 F3152.6
G1 X55.64 Y80.84 Z1 F3152.6
G1 X55.79 Y80.37 Z1 F3152.6
G1 X53.31 Y77.89 Z1 F3152.6
G1 X53.54 Y77.65 Z1 F3152.6
G1 X53.83 Y77.18 Z1 F3152.6
G1 X53.66 Y76.82 Z1 F3152.6
G1 X56.85 Y80.01 Z1 F3152.6
G1 X57.55 Y77.89 Z1 F3152.6
G1 X61.09 Y81.43 Z1 F3152.6
G1 X60.94 Y80.96 Z1 F3152.6
G1 X60.94 Y80.49 Z1 F3152.6
G1 X61.09 Y80.01 Z1 F3152.6
G1 X58.97 Y77.89 Z1 F3152.6
G1 X59.12 Y77.41 Z1 F3152.6
G1 X59.12 Y76.94 Z1 F3152.6
G1 X58.97 Y76.47 Z1 F3152.6
G1 X62.51 Y80.01 Z1 F3152.6
G1 X63.21 Y77.89 Z1 F3152.6
G1 X78.79 Y93.46 Z1 F3152.6
G1 X79.73 Y93.43 Z1 F3152.6
G1 X80.2 Y93.46 Z1 F3152.6
G1 X64.27 Y77.53 Z1 F3152.6
G1 X64.42 Y77.06 Z1 F3152.6
G1 X64.42 Y76.59 Z1 F3152.6
G1 X64.27 Y76.12 Z1 F3152.6
G1 X81.61 Y93.46 Z1 F3152.6
G1 X82.56 Y93.43 Z1 F3152.6
G1 X83.03 Y93.46 Z1 F3152.6
G1 X67.45 Y77.89 Z1 F3152.6
G1 X67.92 Y78.04 Z1 F3152.6
G1 X68.39 Y78.04 Z1 F3152.6
G1 X68.86 Y77.89 Z1 F3152.6
G1 X84.44 Y93.46 Z1 F3152.6
G1 X85.39 Y93.43 Z1 F3152.6
G1 X85.86 Y93.46 Z1 F3152.6
G1 X69.22 Y76.82 Z1 F3152.6
G1 X69.37 Y76.35 Z1 F3152.6
G1 X69.37 Y75.88 Z1 F3152.6
G1 X69.22 Y75.41 Z1 F3152.6
G1 X87.27 Y93.46 Z1 F3152.6
G1 X88.21 Y93.43 Z1 F3152.6
G1 X88.69 Y93.46 Z1 F3152.6
G1 X67.1 Y71.88 Z1 F3152.6
G1 X67.8 Y71.17 Z1 F3152.6
G1 X90.1 Y93.46 Z1 F3152.6
G1 X91.04 Y93.43 Z1 F3152.6
G1 X91.51 Y93.46 Z1 F3152.6
G1 X68.51 Y70.46 Z1 F3152.6
G1 X68.71 Y70.11 Z1 F3152.6
G1 X68.75 Y69.75 Z1 F3152.6
G1 X68.86 Y69.4 Z1 F3152.6
G1 X92.93 Y93.46 Z1 F3152.6
G1 X93.87 Y93.43 Z1 F3152.6
G1 X94.34 Y93.46 Z1 F3152.6
G1 X69.22 Y68.34 Z1 F3152.6
G1 X69.37 Y67.87 Z1 F3152.6
G1 X69.37 Y67.4 Z1 F3152.6
G1 X69.22 Y66.93 Z1 F3152.6
G1 X95.76 Y93.46 Z1 F3152.6
G1 X96.7 Y93.43 Z1 F3152.6
G1 X97.17 Y93.46 Z1 F3152.6
G1 X75.58 Y71.88 Z1 F3152.6
G1 X76.15 Y72.44 Z1 F3152.6
G1 X76.86 Y72.68 Z1 F3152.6
G1 X77.28 Y72.74 Z1 F3152.6
G1 X77.7 Y72.58 Z1 F3152.6
G1 X98.59 Y93.46 Z1 F3152.6
G1 X99.53 Y93.43 Z1 F3152.6
G1 X100 Y93.46 Z1 F3152.6
G1 X79.47 Y72.94 Z1 F3152.6
G1 X79.94 Y73.09 Z1 F3152.6
G1 X80.41 Y73.09 Z1 F3152.6
G1 X80.89 Y72.94 Z1 F3152.6
G1 X101.41 Y93.46 Z1 F3152.6
G1 X102.36 Y93.43 Z1 F3152.6
G1 X102.83 Y93.46 Z1 F3152.6
G1 X82.3 Y72.94 Z1 F3152.6
G1 X82.5 Y72.58 Z1 F3152.6
G1 X82.54 Y72.23 Z1 F3152.6
G1 X82.65 Y71.88 Z1 F3152.6
G1 X104.24 Y93.46 Z1 F3152.6
G1 X105.18 Y93.43 Z1 F3152.6
G1 X105.66 Y93.46 Z1 F3152.6
G1 X83.71 Y71.52 Z1 F3152.6
G1 X84.42 Y70.81 Z1 F3152.6
G1 X85.14 Y71.53 Z1 F3152.6
G1 X85.49 Y72.42 Z1 F3152.6
G1 X85.84 Y72.23 Z1 F3152.6
G1 X107.07 Y93.46 Z1 F3152.6
G1 X108.01 Y93.43 Z1 F3152.6
G1 X108.48 Y93.46 Z1 F3152.6
G1 X87.25 Y72.23 Z1 F3152.6
G1 X87.49 Y72.37 Z1 F3152.6
G1 X88.1 Y71.76 Z1 F3152.6
G1 X87.96 Y71.52 Z1 F3152.6
G1 X109.9 Y93.46 Z1 F3152.6
G1 X110.84 Y93.43 Z1 F3152.6
G1 X111.31 Y93.46 Z1 F3152.6
G1 X87.96 Y70.11 Z1 F3152.6
G1 X88.11 Y69.64 Z1 F3152.6
G1 X88.11 Y69.16 Z1 F3152.6
G1 X87.96 Y68.69 Z1 F3152.6
G1 X112.73 Y93.46 Z1 F3152.6
G1 X113.67 Y93.43 Z1 F3152.6
G1 X114.14 Y93.46 Z1 F3152.6
G1 X87.96 Y67.28 Z1 F3152.6
G1 X88.11 Y66.81 Z1 F3152.6
G1 X88.11 Y66.34 Z1 F3152.6
G1 X87.96 Y65.86 Z1 F3152.6
G1 X115.56 Y93.46 Z1 F3152.6
G1 X116.5 Y93.43 Z1 F3152.6
G1 X116.97 Y93.46 Z1 F3152.6
G1 X96.09 Y72.58 Z1 F3152.6
G1 X96.53 Y72.76 Z1 F3152.6
G1 X96.98 Y72.76 Z1 F3152.6
G1 X97.41 Y73.09 Z1 F3152.6
G1 X97.86 Y72.94 Z1 F3152.6
G1 X118.38 Y93.46 Z1 F3152.6
G1 X119.33 Y93.43 Z1 F3152.6
G1 X119.8 Y93.46 Z1 F3152.6
G1 X99.62 Y73.29 Z1 F3152.6
; extruder(s) off
M103
;
; 'Sparse Infill', 44.6 [RPM], 52.5 [mm/s]
G1 X101.04 Y71.88 Z1 F30000
; extruder on
M101
G1 X101.05 Y71.88 Z1 F3152.6
G1 X101.51 Y71.73 Z1 F3152.6
G1 X101.98 Y71.88 Z1 F3152.6
G1 X102.45 Y71.88 Z1 F3152.6
G1 X102.46 Y71.88 Z1 F3152.6
G1 X102.81 Y71.68 Z1 F3152.6
G1 X103.16 Y71.72 Z1 F3152.6
G1 X103.51 Y71.52 Z1 F3152.6
G1 X125.44 Y93.45 Z1 F3152.6
G1 X125.36 Y92.98 Z1 F3152.6
G1 X125.36 Y92.51 Z1 F3152.6
G1 X125.44 Y92.04 Z1 F3152.6
G1 X104.22 Y70.81 Z1 F3152.6
G1 X104.57 Y70.7 Z1 F3152.6
G1 X104.93 Y70.66 Z1 F3152.6
G1 X105.28 Y70.46 Z1 F3152.6
G1 X125.44 Y90.63 Z1 F3152.6
G1 X125.36 Y90.15 Z1 F3152.6
G1 X125.36 Y89.68 Z1 F3152.6
G1 X125.44 Y89.21 Z1 F3152.6
G1 X105.99 Y69.75 Z1 F3152.6
; extruder(s) off
M103
;
; 'Sparse Infill', 44.6 [RPM], 52.5 [mm/s]
G1 X102.11 Y68.7 Z1 F30000
; extruder on
M101
G1 X94.67 Y61.27 Z1 F3152.6
G1 X93.97 Y61.98 Z1 F3152.6
G1 X101.4 Y69.41 Z1 F3152.6
G1 X101.05 Y69.24 Z1 F3152.6
G1 X100.57 Y69.53 Z1 F3152.6
G1 X100.34 Y69.76 Z1 F3152.6
G1 X93.61 Y63.04 Z1 F3152.6
G1 X93.77 Y63.51 Z1 F3152.6
G1 X93.76 Y63.98 Z1 F3152.6
G1 X93.61 Y64.45 Z1 F3152.6
G1 X99.28 Y70.11 Z1 F3152.6
G1 X98.81 Y69.96 Z1 F3152.6
G1 X98.33 Y69.96 Z1 F3152.6
G1 X97.86 Y70.11 Z1 F3152.6
G1 X93.61 Y65.87 Z1 F3152.6
G1 X93.81 Y66.29 Z1 F3152.6
G1 X93.9 Y66.71 Z1 F3152.6
G1 X94.11 Y67.07 Z1 F3152.6
G1 X94.48 Y67.56 Z1 F3152.6
G1 X94.32 Y67.99 Z1 F3152.6
G1 X95.74 Y69.41 Z1 F3152.6
; extruder(s) off
M103
;
; 'Sparse Infill', 44.6 [RPM], 52.5 [mm/s]
G1 X90.09 Y66.58 Z1 F30000
; extruder on
M101
G1 X87.96 Y64.45 Z1 F3152.6
G1 X88.11 Y63.98 Z1 F3152.6
G1 X88.11 Y63.51 Z1 F3152.6
G1 X87.96 Y63.04 Z1 F3152.6
G1 X90.44 Y65.52 Z1 F3152.6
G1 X90.28 Y65.05 Z1 F3152.6
G1 X90.29 Y64.58 Z1 F3152.6
G1 X90.44 Y64.1 Z1 F3152.6
G1 X87.96 Y61.62 Z1 F3152.6
G1 X88.11 Y61.15 Z1 F3152.6
G1 X88.11 Y60.68 Z1 F3152.6
G1 X87.96 Y60.21 Z1 F3152.6
G1 X90.44 Y62.69 Z1 F3152.6
G1 X90.56 Y62.34 Z1 F3152.6
G1 X90.59 Y61.98 Z1 F3152.6
G1 X90.79 Y61.63 Z1 F3152.6
G1 X87.96 Y58.79 Z1 F3152.6
; extruder(s) off
M103
;
; 'Sparse Infill', 44.6 [RPM], 52.5 [mm/s]
G1 X91.5 Y59.51 Z1 F30000
; extruder on
M101
G1 X86.53 Y54.54 Z1 F3152.6
G1 X87 Y54.57 Z1 F3152.6
G1 X87.94 Y54.54 Z1 F3152.6
G1 X92.21 Y58.8 Z1 F3152.6
G1 X92.56 Y58.6 Z1 F3152.6
G1 X92.91 Y58.57 Z1 F3152.6
G1 X93.27 Y58.45 Z1 F3152.6
G1 X89.36 Y54.54 Z1 F3152.6
G1 X89.83 Y54.57 Z1 F3152.6
G1 X90.77 Y54.54 Z1 F3152.6
G1 X93.97 Y57.74 Z1 F3152.6
G1 X94.21 Y57.5 Z1 F3152.6
G1 X94.68 Y57.22 Z1 F3152.6
G1 X95.04 Y57.39 Z1 F3152.6
G1 X92.18 Y54.54 Z1 F3152.6
G1 X92.66 Y54.57 Z1 F3152.6
G1 X93.6 Y54.54 Z1 F3152.6
G1 X95.74 Y56.68 Z1 F3152.6
G1 X96.1 Y56.48 Z1 F3152.6
G1 X96.45 Y56.44 Z1 F3152.6
G1 X96.8 Y56.33 Z1 F3152.6
G1 X95.01 Y54.54 Z1 F3152.6
G1 X95.48 Y54.57 Z1 F3152.6
G1 X96.43 Y54.54 Z1 F3152.6
G1 X98.22 Y56.33 Z1 F3152.6
G1 X98.69 Y56.17 Z1 F3152.6
G1 X99.16 Y56.17 Z1 F3152.6
G1 X99.63 Y56.33 Z1 F3152.6
G1 X97.84 Y54.54 Z1 F3152.6
G1 X98.31 Y54.57 Z1 F3152.6
G1 X99.26 Y54.54 Z1 F3152.6
G1 X101.75 Y57.03 Z1 F3152.6
G1 X102.08 Y54.54 Z1 F3152.6
G1 X108.82 Y61.28 Z1 F3152.6
G1 X108.67 Y60.8 Z1 F3152.6
G1 X108.67 Y60.33 Z1 F3152.6
G1 X108.82 Y59.86 Z1 F3152.6
G1 X103.5 Y54.54 Z1 F3152.6
G1 X103.97 Y54.57 Z1 F3152.6
G1 X104.91 Y54.54 Z1 F3152.6
G1 X108.82 Y58.45 Z1 F3152.6
G1 X108.67 Y57.98 Z1 F3152.6
G1 X108.67 Y57.5 Z1 F3152.6
G1 X108.82 Y57.03 Z1 F3152.6
G1 X106.33 Y54.54 Z1 F3152.6
G1 X106.8 Y54.57 Z1 F3152.6
G1 X107.74 Y54.54 Z1 F3152.6
G1 X110.24 Y57.03 Z1 F3152.6
G1 X110.57 Y54.54 Z1 F3152.6
G1 X115.89 Y59.86 Z1 F3152.6
G1 X115.73 Y59.51 Z1 F3152.6
G1 X116.01 Y59.04 Z1 F3152.6
G1 X116.25 Y58.8 Z1 F3152.6
G1 X111.98 Y54.54 Z1 F3152.6
G1 X112.45 Y54.57 Z1 F3152.6
G1 X113.4 Y54.54 Z1 F3152.6
G1 X116.96 Y58.09 Z1 F3152.6
G1 X117.66 Y57.39 Z1 F3152.6
G1 X114.81 Y54.54 Z1 F3152.6
G1 X115.28 Y54.57 Z1 F3152.6
G1 X116.23 Y54.54 Z1 F3152.6
G1 X118.72 Y57.03 Z1 F3152.6
G1 X119.19 Y56.88 Z1 F3152.6
G1 X119.67 Y56.88 Z1 F3152.6
G1 X120.14 Y57.03 Z1 F3152.6
G1 X117.64 Y54.54 Z1 F3152.6
G1 X118.11 Y54.57 Z1 F3152.6
G1 X119.05 Y54.54 Z1 F3152.6
G1 X125.44 Y60.93 Z1 F3152.6
G1 X125.36 Y60.46 Z1 F3152.6
G1 X125.36 Y59.98 Z1 F3152.6
G1 X125.44 Y59.51 Z1 F3152.6
G1 X120.47 Y54.54 Z1 F3152.6
G1 X120.94 Y54.57 Z1 F3152.6
G1 X121.88 Y54.54 Z1 F3152.6
G1 X125.44 Y58.1 Z1 F3152.6
G1 X125.36 Y57.63 Z1 F3152.6
G1 X125.36 Y57.16 Z1 F3152.6
G1 X125.44 Y56.68 Z1 F3152.6
G1 X123.3 Y54.54 Z1 F3152.6
G1 X123.77 Y54.57 Z1 F3152.6
G1 X124.71 Y54.54 Z1 F3152.6
G1 X125.44 Y55.27 Z1 F3152.6
; extruder(s) off
M103
;
; 'Sparse Infill', 44.6 [RPM], 52.5 [mm/s]
G1 X121.19 Y58.09 Z1 F30000
; extruder on
M101
G1 X125.44 Y62.34 Z1 F3152.6
G1 X125.36 Y62.81 Z1 F3152.6
G1 X125.36 Y63.28 Z1 F3152.6
G1 X125.44 Y63.76 Z1 F3152.6
G1 X120.48 Y58.79 Z1 F3152.6
G1 X119.78 Y59.5 Z1 F3152.6
G1 X125.44 Y65.17 Z1 F3152.6
G1 X125.36 Y65.64 Z1 F3152.6
G1 X125.36 Y66.11 Z1 F3152.6
G1 X125.44 Y66.58 Z1 F3152.6
G1 X119.07 Y60.21 Z1 F3152.6
G1 X118.95 Y60.56 Z1 F3152.6
G1 X118.92 Y60.92 Z1 F3152.6
G1 X118.72 Y61.27 Z1 F3152.6
G1 X125.44 Y68 Z1 F3152.6
G1 X125.36 Y68.47 Z1 F3152.6
G1 X125.36 Y68.94 Z1 F3152.6
G1 X125.44 Y69.41 Z1 F3152.6
G1 X118.01 Y61.98 Z1 F3152.6
G1 X117.3 Y62.68 Z1 F3152.6
G1 X125.44 Y70.83 Z1 F3152.6
G1 X125.36 Y71.3 Z1 F3152.6
G1 X125.36 Y71.77 Z1 F3152.6
G1 X125.44 Y72.24 Z1 F3152.6
G1 X116.59 Y63.39 Z1 F3152.6
G1 X115.89 Y64.1 Z1 F3152.6
G1 X125.44 Y73.65 Z1 F3152.6
G1 X125.36 Y74.13 Z1 F3152.6
G1 X125.36 Y74.6 Z1 F3152.6
G1 X125.44 Y75.07 Z1 F3152.6
G1 X115.89 Y65.51 Z1 F3152.6
; extruder(s) off
M103
;
; 'Sparse Infill', 44.6 [RPM], 52.5 [mm/s]
G1 X113.07 Y65.52 Z1 F30000
; extruder on
M101
G1 X111.64 Y64.1 Z1 F3152.6
G1 X111.88 Y64.34 Z1 F3152.6
G1 X111.88 Y65.28 Z1 F3152.6
G1 X111.64 Y65.51 Z1 F3152.6
G1 X115.89 Y69.76 Z1 F3152.6
; extruder(s) off
M103
;
; 'Sparse Infill', 44.6 [RPM], 52.5 [mm/s]
G1 X118.36 Y72.23 Z1 F30000
; extruder on
M101
G1 X125.44 Y79.31 Z1 F3152.6
G1 X125.36 Y79.78 Z1 F3152.6
G1 X125.36 Y80.25 Z1 F3152.6
G1 X125.44 Y80.73 Z1 F3152.6
G1 X111.64 Y66.93 Z1 F3152.6
G1 X111.8 Y67.4 Z1 F3152.6
G1 X111.8 Y67.87 Z1 F3152.6
G1 X111.64 Y68.34 Z1 F3152.6
G1 X125.44 Y82.14 Z1 F3152.6
G1 X125.36 Y82.61 Z1 F3152.6
G1 X125.36 Y83.08 Z1 F3152.6
G1 X125.44 Y83.55 Z1 F3152.6
G1 X111.64 Y69.75 Z1 F3152.6
G1 X111.8 Y70.23 Z1 F3152.6
G1 X111.8 Y70.7 Z1 F3152.6
G1 X111.64 Y71.17 Z1 F3152.6
G1 X125.44 Y84.97 Z1 F3152.6
G1 X125.36 Y85.44 Z1 F3152.6
G1 X125.36 Y85.91 Z1 F3152.6
G1 X125.44 Y86.38 Z1 F3152.6
G1 X111.29 Y72.23 Z1 F3152.6
G1 X110.82 Y72.38 Z1 F3152.6
G1 X110.35 Y72.38 Z1 F3152.6
G1 X109.88 Y72.23 Z1 F3152.6
G1 X125.44 Y87.8 Z1 F3152.6
; extruder(s) off
M103
;
; 'Sparse Infill', 44.6 [RPM], 52.5 [mm/s]
G1 X124.04 Y93.47 Z1 F30000
; extruder on
M101
G1 X103.16 Y72.58 Z1 F3152.6
G1 X102.81 Y72.78 Z1 F3152.6
G1 X102.45 Y72.82 Z1 F3152.6
G1 X102.1 Y72.94 Z1 F3152.6
G1 X122.63 Y93.47 Z1 F3152.6
G1 X122.16 Y93.43 Z1 F3152.6
G1 X121.21 Y93.46 Z1 F3152.6
G1 X100.68 Y72.94 Z1 F3152.6
; extruder(s) off
M103
;
; 'Sparse Infill', 44.6 [RPM], 52.5 [mm/s]
G1 X102.46 Y67.64 Z1 F30000
; extruder on
M101
G1 X95.38 Y60.56 Z1 F3152.6
G1 X96.09 Y59.85 Z1 F3152.6
G1 X104.23 Y67.99 Z1 F3152.6
; extruder(s) off
M103
;
; 'Sparse Infill', 44.6 [RPM], 52.5 [mm/s]
G1 X108.82 Y68.35 Z1 F30000
; extruder on
M101
G1 X99.62 Y59.15 Z1 F3152.6
G1 X99.15 Y59.3 Z1 F3152.6
G1 X98.68 Y59.3 Z1 F3152.6
G1 X98.21 Y59.15 Z1 F3152.6
G1 X108.82 Y69.76 Z1 F3152.6
G1 X108.67 Y70.23 Z1 F3152.6
G1 X108.67 Y70.7 Z1 F3152.6
G1 X108.82 Y71.18 Z1 F3152.6
G1 X97.15 Y59.5 Z1 F3152.6
; extruder(s) off
M103
;
; 'Sparse Infill', 44.6 [RPM], 52.5 [mm/s]
G1 X92.91 Y59.51 Z1 F30000
; extruder on
M101
G1 X92.91 Y59.5 Z1 F3152.6
G1 X92.2 Y60.21 Z1 F3152.6
G1 X92.21 Y60.22 Z1 F3152.6
; extruder(s) off
M103
;
; 'Sparse Infill', 44.6 [RPM], 52.5 [mm/s]
G1 X91.15 Y60.57 Z1 F30000
; extruder on
M101
G1 X85.11 Y54.54 Z1 F3152.6
G1 X84.17 Y54.57 Z1 F3152.6
G1 X83.7 Y54.54 Z1 F3152.6
G1 X86.2 Y57.03 Z1 F3152.6
G1 X85.84 Y56.87 Z1 F3152.6
G1 X85.37 Y57.15 Z1 F3152.6
G1 X85.14 Y57.39 Z1 F3152.6
G1 X82.28 Y54.54 Z1 F3152.6
G1 X81.34 Y54.57 Z1 F3152.6
G1 X80.87 Y54.54 Z1 F3152.6
G1 X85.14 Y58.8 Z1 F3152.6
; extruder(s) off
M103
;
; 'Sparse Infill', 44.6 [RPM], 52.5 [mm/s]
G1 X81.95 Y57.03 Z1 F30000
; extruder on
M101
G1 X79.46 Y54.54 Z1 F3152.6
G1 X78.51 Y54.57 Z1 F3152.6
G1 X78.04 Y54.54 Z1 F3152.6
G1 X79.83 Y56.33 Z1 F3152.6
G1 X79.36 Y56.17 Z1 F3152.6
G1 X78.89 Y56.17 Z1 F3152.6
G1 X78.42 Y56.33 Z1 F3152.6
G1 X76.63 Y54.54 Z1 F3152.6
G1 X75.68 Y54.57 Z1 F3152.6
G1 X75.21 Y54.54 Z1 F3152.6
G1 X77.36 Y56.68 Z1 F3152.6
G1 X77 Y56.52 Z1 F3152.6
G1 X76.53 Y56.8 Z1 F3152.6
G1 X76.3 Y57.03 Z1 F3152.6
G1 X73.8 Y54.54 Z1 F3152.6
G1 X72.86 Y54.57 Z1 F3152.6
G1 X72.39 Y54.54 Z1 F3152.6
G1 X75.24 Y57.39 Z1 F3152.6
G1 X74.53 Y58.09 Z1 F3152.6
G1 X70.97 Y54.54 Z1 F3152.6
G1 X70.03 Y54.57 Z1 F3152.6
G1 X69.56 Y54.54 Z1 F3152.6
G1 X73.82 Y58.8 Z1 F3152.6
G1 X73.11 Y59.51 Z1 F3152.6
G1 X68.14 Y54.54 Z1 F3152.6
G1 X67.2 Y54.57 Z1 F3152.6
G1 X66.73 Y54.54 Z1 F3152.6
G1 X72.41 Y60.21 Z1 F3152.6
G1 X72.21 Y60.57 Z1 F3152.6
G1 X72.17 Y60.92 Z1 F3152.6
G1 X72.05 Y61.28 Z1 F3152.6
G1 X69.22 Y58.44 Z1 F3152.6
G1 X69.37 Y58.91 Z1 F3152.6
G1 X69.37 Y59.38 Z1 F3152.6
G1 X69.22 Y59.85 Z1 F3152.6
G1 X71.7 Y62.34 Z1 F3152.6
G1 X71.55 Y62.81 Z1 F3152.6
G1 X71.55 Y63.28 Z1 F3152.6
G1 X71.7 Y63.75 Z1 F3152.6
G1 X69.22 Y61.27 Z1 F3152.6
G1 X69.37 Y61.74 Z1 F3152.6
G1 X69.37 Y62.21 Z1 F3152.6
G1 X69.22 Y62.68 Z1 F3152.6
G1 X71.7 Y65.16 Z1 F3152.6
G1 X71.55 Y65.64 Z1 F3152.6
G1 X71.55 Y66.11 Z1 F3152.6
G1 X71.7 Y66.58 Z1 F3152.6
G1 X69.22 Y64.1 Z1 F3152.6
G1 X69.37 Y64.57 Z1 F3152.6
G1 X69.37 Y65.04 Z1 F3152.6
G1 X69.22 Y65.51 Z1 F3152.6
G1 X73.11 Y69.41 Z1 F3152.6
; extruder(s) off
M103
;
; 'Sparse Infill', 44.6 [RPM], 52.5 [mm/s]
G1 X75.23 Y67.28 Z1 F30000
; extruder on
M101
G1 X77.71 Y69.76 Z1 F3152.6
G1 X78.15 Y69.61 Z1 F3152.6
G1 X78.59 Y69.94 Z1 F3152.6
G1 X79.04 Y69.93 Z1 F3152.6
G1 X79.48 Y70.11 Z1 F3152.6
G1 X74.88 Y65.51 Z1 F3152.6
G1 X75.03 Y65.04 Z1 F3152.6
G1 X75.03 Y64.57 Z1 F3152.6
G1 X74.88 Y64.1 Z1 F3152.6
G1 X80.89 Y70.11 Z1 F3152.6
G1 X81.13 Y69.88 Z1 F3152.6
G1 X81.6 Y69.6 Z1 F3152.6
G1 X81.95 Y69.76 Z1 F3152.6
G1 X75.23 Y63.04 Z1 F3152.6
G1 X75.43 Y62.68 Z1 F3152.6
G1 X75.46 Y62.33 Z1 F3152.6
G1 X75.58 Y61.98 Z1 F3152.6
G1 X82.66 Y69.05 Z1 F3152.6
G1 X83.01 Y68.85 Z1 F3152.6
G1 X83.37 Y68.82 Z1 F3152.6
G1 X83.72 Y68.7 Z1 F3152.6
G1 X75.94 Y60.92 Z1 F3152.6
G1 X76.64 Y60.21 Z1 F3152.6
G1 X84.07 Y67.64 Z1 F3152.6
G1 X84.78 Y66.93 Z1 F3152.6
G1 X77.7 Y59.85 Z1 F3152.6
G1 X78.06 Y59.74 Z1 F3152.6
G1 X78.41 Y59.7 Z1 F3152.6
G1 X78.76 Y59.5 Z1 F3152.6
G1 X85.14 Y65.87 Z1 F3152.6
G1 X84.98 Y65.4 Z1 F3152.6
G1 X84.98 Y64.93 Z1 F3152.6
G1 X85.14 Y64.46 Z1 F3152.6
G1 X79.83 Y59.15 Z1 F3152.6
G1 X80.3 Y59.3 Z1 F3152.6
G1 X80.77 Y59.3 Z1 F3152.6
G1 X81.24 Y59.15 Z1 F3152.6
G1 X84.78 Y62.69 Z1 F3152.6
; extruder(s) off
M103
;
; 'Sparse Infill', 44.6 [RPM], 52.5 [mm/s]
G1 X68.52 Y74.71 Z1 F30000
; extruder on
M101
G1 X66.04 Y72.23 Z1 F3152.6
G1 X65.92 Y72.58 Z1 F3152.6
G1 X65.88 Y72.94 Z1 F3152.6
G1 X65.68 Y73.29 Z1 F3152.6
G1 X67.1 Y74.71 Z1 F3152.6
G1 X66.75 Y74.55 Z1 F3152.6
G1 X66.28 Y74.83 Z1 F3152.6
G1 X66.04 Y75.06 Z1 F3152.6
G1 X63.92 Y72.94 Z1 F3152.6
G1 X63.44 Y73.09 Z1 F3152.6
G1 X62.97 Y73.09 Z1 F3152.6
G1 X62.5 Y72.94 Z1 F3152.6
G1 X66.04 Y76.48 Z1 F3152.6
; extruder(s) off
M103
;
; 'Sparse Infill', 44.6 [RPM], 52.5 [mm/s]
G1 X62.86 Y74.71 Z1 F30000
; extruder on
M101
G1 X59.32 Y71.17 Z1 F3152.6
G1 X59.2 Y71.52 Z1 F3152.6
G1 X59.17 Y71.87 Z1 F3152.6
G1 X58.97 Y72.23 Z1 F3152.6
G1 X61.45 Y74.71 Z1 F3152.6
G1 X61.21 Y74.95 Z1 F3152.6
G1 X60.93 Y75.42 Z1 F3152.6
G1 X61.09 Y75.77 Z1 F3152.6
G1 X58.97 Y73.64 Z1 F3152.6
G1 X59.12 Y74.11 Z1 F3152.6
G1 X59.12 Y74.59 Z1 F3152.6
G1 X58.97 Y75.06 Z1 F3152.6
G1 X61.09 Y77.19 Z1 F3152.6
G1 X61.44 Y78.07 Z1 F3152.6
G1 X61.79 Y77.89 Z1 F3152.6
G1 X77.37 Y93.46 Z1 F3152.6
G1 X76.9 Y93.43 Z1 F3152.6
G1 X75.96 Y93.46 Z1 F3152.6
G1 X64.27 Y81.77 Z1 F3152.6
G1 X64.42 Y82.25 Z1 F3152.6
G1 X64.42 Y82.72 Z1 F3152.6
G1 X64.27 Y83.19 Z1 F3152.6
G1 X74.54 Y93.46 Z1 F3152.6
G1 X74.07 Y93.43 Z1 F3152.6
G1 X73.13 Y93.46 Z1 F3152.6
G1 X62.85 Y83.19 Z1 F3152.6
; extruder(s) off
M103
;
; 'Sparse Infill', 44.6 [RPM], 52.5 [mm/s]
G1 X58.97 Y86.37 Z1 F30000
; extruder on
M101
G1 X66.06 Y93.46 Z1 F3152.6
G1 X65.59 Y93.43 Z1 F3152.6
G1 X64.64 Y93.46 Z1 F3152.6
G1 X58.97 Y87.78 Z1 F3152.6
G1 X58.73 Y88.02 Z1 F3152.6
G1 X58.26 Y88.3 Z1 F3152.6
G1 X57.9 Y88.14 Z1 F3152.6
G1 X63.23 Y93.46 Z1 F3152.6
; extruder(s) off
M103
;
; 'Sparse Infill', 44.6 [RPM], 52.5 [mm/s]
G1 X56.16 Y93.46 Z1 F30000
; extruder on
M101
G1 X53.66 Y90.97 Z1 F3152.6
G1 X53.85 Y90.62 Z1 F3152.6
G1 X52.96 Y90.27 Z1 F3152.6
G1 X48.36 Y85.66 Z1 F3152.6
; extruder(s) off
M103
;
; 'Sparse Infill', 44.6 [RPM], 52.5 [mm/s]
G1 X45.18 Y85.32 Z1 F30000
; extruder on
M101
G1 X43.06 Y83.19 Z1 F3152.6
G1 X43.06 Y85.07 Z1 F3152.6
G1 X43.21 Y85.55 Z1 F3152.6
G1 X43.06 Y86.02 Z1 F3152.6
G1 X47.3 Y90.27 Z1 F3152.6
G1 X46.83 Y90.11 Z1 F3152.6
G1 X46.36 Y90.12 Z1 F3152.6
G1 X45.89 Y90.27 Z1 F3152.6
G1 X43.06 Y87.43 Z1 F3152.6
G1 X43.2 Y87.67 Z1 F3152.6
G1 X42.58 Y88.28 Z1 F3152.6
G1 X42.35 Y88.14 Z1 F3152.6
G1 X45.18 Y90.97 Z1 F3152.6
; extruder(s) off
M103
;
; 'Sparse Infill', 44.6 [RPM], 52.5 [mm/s]
G1 X46.24 Y93.44 Z1 F30000
; extruder on
M101
G1 X46.26 Y93.46 Z1 F3152.6
G1 X46.72 Y93.64 Z1 F3152.6
G1 X47.19 Y93.65 Z1 F3152.6
G1 X47.65 Y93.44 Z1 F3152.6
G1 X47.9 Y93.63 Z1 F3152.6
G1 X48.51 Y92.98 Z1 F3152.6
G1 X48.36 Y92.73 Z1 F3152.6
G1 X49.09 Y93.46 Z1 F3152.6
G1 X50.03 Y93.43 Z1 F3152.6
G1 X50.5 Y93.46 Z1 F3152.6
G1 X48.36 Y91.32 Z1 F3152.6
; extruder(s) off
M103
;
; 'Sparse Infill', 44.6 [RPM], 52.5 [mm/s]
G1 X51.89 Y93.44 Z1 F30000
; extruder on
M101
G1 X51.92 Y93.46 Z1 F3152.6
G1 X52.38 Y93.64 Z1 F3152.6
G1 X52.84 Y93.65 Z1 F3152.6
G1 X53.31 Y93.44 Z1 F3152.6
G1 X53.33 Y93.46 Z1 F3152.6
G1 X53.54 Y93.21 Z1 F3152.6
G1 X53.83 Y92.74 Z1 F3152.6
G1 X53.66 Y92.38 Z1 F3152.6
G1 X54.74 Y93.46 Z1 F3152.6
; extruder(s) off
M103
;
; 'Sparse Infill', 44.6 [RPM], 52.5 [mm/s]
G1 X50.49 Y80.72 Z1 F30000
; extruder on
M101
G1 X47.65 Y77.89 Z1 F3152.6
G1 X47.89 Y78.03 Z1 F3152.6
G1 X48.5 Y77.41 Z1 F3152.6
G1 X48.36 Y77.18 Z1 F3152.6
G1 X51.19 Y80.01 Z1 F3152.6
G1 X51.67 Y79.86 Z1 F3152.6
G1 X52.14 Y79.86 Z1 F3152.6
G1 X52.61 Y80.01 Z1 F3152.6
G1 X48.36 Y75.76 Z1 F3152.6
; extruder(s) off
M103
;
; 'Sparse Infill', 44.6 [RPM], 52.5 [mm/s]
G1 X51.89 Y72.23 Z1 F30000
; extruder on
M101
G1 X55.79 Y76.12 Z1 F3152.6
G1 X55.64 Y75.65 Z1 F3152.6
G1 X55.64 Y75.18 Z1 F3152.6
G1 X55.79 Y74.71 Z1 F3152.6
G1 X52.6 Y71.52 Z1 F3152.6
G1 X52.84 Y71.29 Z1 F3152.6
G1 X53.12 Y70.81 Z1 F3152.6
G1 X52.95 Y70.46 Z1 F3152.6
G1 X55.79 Y73.3 Z1 F3152.6
; extruder(s) off
M103
;
; 'Sparse Infill', 44.6 [RPM], 52.5 [mm/s]
G1 X60.74 Y69.76 Z1 F30000
; extruder on
M101
G1 X59.32 Y68.34 Z1 F3152.6
G1 X59.47 Y67.9 Z1 F3152.6
G1 X59.14 Y67.46 Z1 F3152.6
G1 X59.15 Y67.01 Z1 F3152.6
G1 X58.97 Y66.57 Z1 F3152.6
G1 X62.51 Y70.11 Z1 F3152.6
G1 X62.86 Y69.91 Z1 F3152.6
G1 X63.21 Y69.88 Z1 F3152.6
G1 X63.57 Y69.76 Z1 F3152.6
G1 X58.97 Y65.16 Z1 F3152.6
G1 X59.12 Y64.69 Z1 F3152.6
G1 X59.12 Y64.21 Z1 F3152.6
G1 X58.97 Y63.74 Z1 F3152.6
G1 X61.09 Y65.87 Z1 F3152.6
G1 X60.94 Y65.4 Z1 F3152.6
G1 X60.94 Y64.93 Z1 F3152.6
G1 X61.09 Y64.46 Z1 F3152.6
G1 X58.97 Y62.33 Z1 F3152.6
G1 X59.12 Y61.86 Z1 F3152.6
G1 X59.12 Y61.39 Z1 F3152.6
G1 X58.97 Y60.91 Z1 F3152.6
G1 X62.15 Y64.1 Z1 F3152.6
G1 X62.63 Y63.95 Z1 F3152.6
G1 X63.1 Y63.95 Z1 F3152.6
G1 X63.57 Y64.1 Z1 F3152.6
G1 X58.97 Y59.5 Z1 F3152.6
G1 X59.12 Y59.03 Z1 F3152.6
G1 X59.12 Y58.56 Z1 F3152.6
G1 X58.97 Y58.09 Z1 F3152.6
G1 X61.09 Y60.21 Z1 F3152.6
G1 X60.93 Y59.86 Z1 F3152.6
G1 X61.21 Y59.39 Z1 F3152.6
G1 X61.45 Y59.15 Z1 F3152.6
G1 X56.83 Y54.54 Z1 F3152.6
G1 X57.3 Y54.57 Z1 F3152.6
G1 X58.24 Y54.54 Z1 F3152.6
G1 X62.86 Y59.15 Z1 F3152.6
; extruder(s) off
M103
;
; 'Sparse Infill', 44.6 [RPM], 52.5 [mm/s]
G1 X64.27 Y60.56 Z1 F30000
; extruder on
M101
G1 X66.04 Y62.34 Z1 F3152.6
G1 X65.89 Y62.81 Z1 F3152.6
G1 X65.89 Y63.28 Z1 F3152.6
G1 X66.04 Y63.75 Z1 F3152.6
G1 X64.27 Y61.98 Z1 F3152.6
G1 X63.8 Y62.13 Z1 F3152.6
G1 X63.33 Y62.13 Z1 F3152.6
G1 X62.85 Y61.98 Z1 F3152.6
G1 X66.04 Y65.16 Z1 F3152.6
G1 X65.89 Y65.64 Z1 F3152.6
G1 X65.89 Y66.11 Z1 F3152.6
G1 X66.04 Y66.58 Z1 F3152.6
G1 X64.27 Y64.8 Z1 F3152.6
G1 X64.42 Y65.28 Z1 F3152.6
G1 X64.42 Y65.75 Z1 F3152.6
G1 X64.27 Y66.22 Z1 F3152.6
G1 X65.69 Y67.64 Z1 F3152.6
G1 X65.49 Y67.99 Z1 F3152.6
G1 X65.45 Y68.35 Z1 F3152.6
G1 X65.34 Y68.7 Z1 F3152.6
G1 X63.92 Y67.28 Z1 F3152.6
G1 X63.44 Y67.43 Z1 F3152.6
G1 X62.97 Y67.43 Z1 F3152.6
G1 X62.5 Y67.28 Z1 F3152.6
G1 X64.63 Y69.41 Z1 F3152.6
; extruder(s) off
M103
;
; 'Sparse Infill', 44.6 [RPM], 52.5 [mm/s]
G1 X55.79 Y63.4 Z1 F30000
; extruder on
M101
G1 X54.02 Y61.62 Z1 F3152.6
G1 X53.31 Y62.33 Z1 F3152.6
G1 X53.32 Y62.34 Z1 F3152.6
; extruder(s) off
M103
;
; 'Sparse Infill', 44.6 [RPM], 52.5 [mm/s]
G1 X50.49 Y60.92 Z1 F30000
; extruder on
M101
G1 X48.71 Y59.15 Z1 F3152.6
G1 X48.24 Y59.3 Z1 F3152.6
G1 X47.77 Y59.3 Z1 F3152.6
G1 X47.3 Y59.15 Z1 F3152.6
G1 X50.13 Y61.98 Z1 F3152.6
G1 X49.43 Y62.69 Z1 F3152.6
G1 X46.59 Y59.85 Z1 F3152.6
G1 X45.88 Y60.56 Z1 F3152.6
G1 X48.37 Y63.04 Z1 F3152.6
G1 X47.66 Y63.75 Z1 F3152.6
G1 X45.18 Y61.27 Z1 F3152.6
G1 X44.71 Y61.42 Z1 F3152.6
G1 X44.23 Y61.42 Z1 F3152.6
G1 X43.76 Y61.27 Z1 F3152.6
G1 X46.6 Y64.1 Z1 F3152.6
G1 X46.24 Y63.94 Z1 F3152.6
G1 X45.77 Y64.22 Z1 F3152.6
G1 X45.54 Y64.46 Z1 F3152.6
G1 X45.53 Y64.45 Z1 F3152.6
; extruder(s) off
M103
;
; 'Sparse Infill', 44.6 [RPM], 52.5 [mm/s]
G1 X44.48 Y64.81 Z1 F30000
; extruder on
M101
G1 X40.93 Y61.27 Z1 F3152.6
G1 X41.12 Y60.92 Z1 F3152.6
G1 X40.23 Y60.57 Z1 F3152.6
G1 X34.2 Y54.54 Z1 F3152.6
G1 X33.26 Y54.57 Z1 F3152.6
G1 X32.79 Y54.54 Z1 F3152.6
G1 X37.41 Y59.15 Z1 F3152.6
G1 X38.29 Y59.5 Z1 F3152.6
G1 X38.11 Y59.85 Z1 F3152.6
G1 X43.77 Y65.52 Z1 F3152.6
G1 X44.41 Y64.46 Z1 F3152.6
G1 X44.59 Y64.1 Z1 F3152.6
G1 X44.83 Y63.75 Z1 F3152.6
G1 X42.7 Y61.62 Z1 F3152.6
; extruder(s) off
M103
;
; 'Sparse Infill', 44.6 [RPM], 52.5 [mm/s]
G1 X42.71 Y60.21 Z1 F30000
; extruder on
M101
G1 X37.03 Y54.54 Z1 F3152.6
G1 X37.5 Y54.57 Z1 F3152.6
G1 X38.44 Y54.54 Z1 F3152.6
G1 X43.06 Y59.15 Z1 F3152.6
G1 X43.77 Y58.45 Z1 F3152.6
G1 X39.86 Y54.54 Z1 F3152.6
G1 X40.33 Y54.57 Z1 F3152.6
G1 X41.27 Y54.54 Z1 F3152.6
G1 X44.48 Y57.74 Z1 F3152.6
G1 X45.18 Y57.03 Z1 F3152.6
G1 X42.69 Y54.54 Z1 F3152.6
G1 X43.16 Y54.57 Z1 F3152.6
G1 X44.1 Y54.54 Z1 F3152.6
G1 X46.24 Y56.68 Z1 F3152.6
G1 X46.48 Y56.44 Z1 F3152.6
G1 X46.95 Y56.16 Z1 F3152.6
G1 X47.31 Y56.33 Z1 F3152.6
G1 X45.52 Y54.54 Z1 F3152.6
G1 X45.99 Y54.57 Z1 F3152.6
G1 X46.93 Y54.54 Z1 F3152.6
G1 X48.72 Y56.33 Z1 F3152.6
G1 X48.34 Y54.54 Z1 F3152.6
G1 X55.79 Y61.98 Z1 F3152.6
G1 X55.64 Y61.51 Z1 F3152.6
G1 X55.64 Y61.04 Z1 F3152.6
G1 X55.79 Y60.57 Z1 F3152.6
G1 X49.76 Y54.54 Z1 F3152.6
G1 X50.23 Y54.57 Z1 F3152.6
G1 X51.17 Y54.54 Z1 F3152.6
G1 X55.79 Y59.15 Z1 F3152.6
G1 X55.64 Y58.68 Z1 F3152.6
G1 X55.64 Y58.21 Z1 F3152.6
G1 X55.79 Y57.74 Z1 F3152.6
G1 X52.59 Y54.54 Z1 F3152.6
G1 X53.06 Y54.57 Z1 F3152.6
G1 X54 Y54.54 Z1 F3152.6
G1 X56.5 Y57.03 Z1 F3152.6
G1 X56.97 Y56.88 Z1 F3152.6
G1 X57.44 Y56.88 Z1 F3152.6
G1 X57.91 Y57.03 Z1 F3152.6
G1 X55.41 Y54.54 Z1 F3152.6
; extruder(s) off
M103
;
; 'Sparse Infill', 44.6 [RPM], 52.5 [mm/s]
G1 X59.66 Y54.54 Z1 F30000
; extruder on
M101
G1 X66.04 Y60.92 Z1 F3152.6
G1 X65.89 Y60.45 Z1 F3152.6
G1 X65.89 Y59.98 Z1 F3152.6
G1 X66.04 Y59.51 Z1 F3152.6
G1 X61.07 Y54.54 Z1 F3152.6
G1 X61.54 Y54.57 Z1 F3152.6
G1 X62.49 Y54.54 Z1 F3152.6
G1 X66.04 Y58.09 Z1 F3152.6
G1 X65.88 Y57.74 Z1 F3152.6
G1 X66.16 Y57.27 Z1 F3152.6
G1 X66.4 Y57.03 Z1 F3152.6
G1 X63.9 Y54.54 Z1 F3152.6
G1 X64.37 Y54.57 Z1 F3152.6
G1 X65.31 Y54.54 Z1 F3152.6
G1 X67.81 Y57.03 Z1 F3152.6
; extruder(s) off
M103
;
; 'Sparse Infill', 44.6 [RPM], 52.5 [mm/s]
G1 X100.67 Y54.54 Z1 F30000
; extruder on
M101
G1 X108.82 Y62.69 Z1 F3152.6
G1 X108.67 Y63.16 Z1 F3152.6
G1 X108.67 Y63.63 Z1 F3152.6
G1 X108.82 Y64.1 Z1 F3152.6
G1 X105.99 Y61.27 Z1 F3152.6
G1 X105.52 Y61.42 Z1 F3152.6
G1 X105.05 Y61.42 Z1 F3152.6
G1 X104.57 Y61.27 Z1 F3152.6
G1 X108.82 Y65.52 Z1 F3152.6
G1 X108.67 Y65.99 Z1 F3152.6
G1 X108.67 Y66.46 Z1 F3152.6
G1 X108.82 Y66.93 Z1 F3152.6
G1 X103.16 Y61.27 Z1 F3152.6
; extruder(s) off
M103
;
; 'Sparse Infill', 44.6 [RPM], 52.5 [mm/s]
G1 X111.64 Y61.27 Z1 F30000
; extruder on
M101
G1 X113.42 Y63.04 Z1 F3152.6
G1 X114.13 Y62.34 Z1 F3152.6
G1 X111.64 Y59.85 Z1 F3152.6
G1 X111.8 Y59.38 Z1 F3152.6
G1 X111.8 Y58.91 Z1 F3152.6
G1 X111.64 Y58.44 Z1 F3152.6
G1 X114.48 Y61.28 Z1 F3152.6
G1 X115.19 Y60.57 Z1 F3152.6
G1 X109.15 Y54.54 Z1 F3152.6
; extruder(s) off
M103
;
; 'Sparse Infill', 44.6 [RPM], 52.5 [mm/s]
G1 X111.64 Y62.68 Z1 F30000
; extruder on
M101
G1 X112.71 Y63.75 Z1 F3152.6
; extruder(s) off
M103
;
; 'Sparse Infill', 44.6 [RPM], 52.5 [mm/s]
G1 X119.78 Y70.82 Z1 F30000
; extruder on
M101
G1 X125.44 Y76.48 Z1 F3152.6
G1 X125.36 Y76.95 Z1 F3152.6
G1 X125.36 Y77.43 Z1 F3152.6
G1 X125.44 Y77.9 Z1 F3152.6
G1 X119.78 Y72.23 Z1 F3152.6
; extruder(s) off
M103
;
; 'Sparse Infill', 44.6 [RPM], 52.5 [mm/s]
G1 X40.94 Y64.1 Z1 F30000
; extruder on
M101
G1 X38.11 Y61.27 Z1 F3152.6
G1 X38.25 Y61.5 Z1 F3152.6
G1 X37.63 Y62.12 Z1 F3152.6
G1 X37.4 Y61.98 Z1 F3152.6
G1 X40.23 Y64.81 Z1 F3152.6
; extruder(s) off
M103
;
; 'Sparse Infill', 44.6 [RPM], 52.5 [mm/s]
G1 X42 Y60.92 Z1 F30000
; extruder on
M101
G1 X41.29 Y60.21 Z1 F3152.6
G1 X41.29 Y59.5 Z1 F3152.6
G1 X40.94 Y59.15 Z1 F3152.6
G1 X40.23 Y59.15 Z1 F3152.6
G1 X35.62 Y54.54 Z1 F3152.6
; extruder(s) off
M103
;
; 'Sparse Infill', 44.6 [RPM], 52.5 [mm/s]
G1 X31.37 Y54.53 Z1 F30000
; extruder on
M101
G1 X35.99 Y59.15 Z1 F3152.6
G1 X35.64 Y58.99 Z1 F3152.6
G1 X35.17 Y59.27 Z1 F3152.6
G1 X34.93 Y59.51 Z1 F3152.6
G1 X29.96 Y54.53 Z1 F3152.6
; extruder(s) off
M103
;
; 'Sparse Infill', 44.6 [RPM], 52.5 [mm/s]
G1 X28.56 Y71.52 Z1 F30000
; extruder on
M101
G1 X31.75 Y74.71 Z1 F3152.6
G1 X31.28 Y74.56 Z1 F3152.6
G1 X30.81 Y74.56 Z1 F3152.6
G1 X30.33 Y74.71 Z1 F3152.6
G1 X28.56 Y72.93 Z1 F3152.6
G1 X28.64 Y73.4 Z1 F3152.6
G1 X28.64 Y73.87 Z1 F3152.6
G1 X28.56 Y74.35 Z1 F3152.6
G1 X29.63 Y75.42 Z1 F3152.6
G1 X28.56 Y75.76 Z1 F3152.6
G1 X29.63 Y76.83 Z1 F3152.6
; extruder(s) off
M103
;
; 'Sparse Infill', 44.6 [RPM], 52.5 [mm/s]
G1 X29.97 Y77.18 Z1 F30000
; extruder on
M101
G1 X30.33 Y77.54 Z1 F3152.6
G1 X31.74 Y77.53 Z1 F3152.6
G1 X31.75 Y77.54 Z1 F3152.6
; extruder(s) off
M103
;
; 'Sparse Infill', 44.6 [RPM], 52.5 [mm/s]
G1 X32.46 Y76.83 Z1 F30000
; extruder on
M101
G1 X32.45 Y76.82 Z1 F3152.6
G1 X32.46 Y75.42 Z1 F3152.6
G1 X32.45 Y75.41 Z1 F3152.6
; extruder(s) off
M103
;
; 'Sparse Infill', 44.6 [RPM], 52.5 [mm/s]
G1 X35.63 Y82.83 Z1 F30000
; extruder on
M101
G1 X35.64 Y82.84 Z1 F3152.6
G1 X37.04 Y82.83 Z1 F3152.6
G1 X37.05 Y82.84 Z1 F3152.6
; extruder(s) off
M103
;
; 'Sparse Infill', 44.6 [RPM], 52.5 [mm/s]
G1 X37.76 Y82.13 Z1 F30000
; extruder on
M101
G1 X37.75 Y82.13 Z1 F3152.6
G1 X37.76 Y80.72 Z1 F3152.6
G1 X37.75 Y80.71 Z1 F3152.6
; extruder(s) off
M103
;
; 'Sparse Infill', 44.6 [RPM], 52.5 [mm/s]
G1 X37.76 Y76.48 Z1 F30000
; extruder on
M101
G1 X37.75 Y76.47 Z1 F3152.6
G1 X37.76 Y75.06 Z1 F3152.6
G1 X37.75 Y75.06 Z1 F3152.6
; extruder(s) off
M103
;
; 'Sparse Infill', 44.6 [RPM], 52.5 [mm/s]
G1 X37.76 Y72.24 Z1 F30000
; extruder on
M101
G1 X37.75 Y72.23 Z1 F3152.6
G1 X37.76 Y70.82 Z1 F3152.6
G1 X37.75 Y70.81 Z1 F3152.6
; extruder(s) off
M103
;
; 'Sparse Infill', 44.6 [RPM], 52.5 [mm/s]
G1 X36.69 Y69.75 Z1 F30000
; extruder on
M101
G1 X36.7 Y69.76 Z1 F3152.6
G1 X35.28 Y69.76 Z1 F3152.6
G1 X35.28 Y69.75 Z1 F3152.6
; extruder(s) off
M103
;
; 'Sparse Infill', 44.6 [RPM], 52.5 [mm/s]
G1 X41.29 Y82.83 Z1 F30000
; extruder on
M101
G1 X41.29 Y82.84 Z1 F3152.6
G1 X42.7 Y82.83 Z1 F3152.6
G1 X42.71 Y82.84 Z1 F3152.6
; extruder(s) off
M103
;
; 'Sparse Infill', 44.6 [RPM], 52.5 [mm/s]
G1 X45.53 Y82.83 Z1 F30000
; extruder on
M101
G1 X45.54 Y82.84 Z1 F3152.6
G1 X46.94 Y82.83 Z1 F3152.6
G1 X46.95 Y82.84 Z1 F3152.6
; extruder(s) off
M103
;
; 'Sparse Infill', 44.6 [RPM], 52.5 [mm/s]
G1 X45.54 Y85.67 Z1 F30000
; extruder on
M101
G1 X45.53 Y85.66 Z1 F3152.6
G1 X45.53 Y87.08 Z1 F3152.6
G1 X45.54 Y87.08 Z1 F3152.6
; extruder(s) off
M103
;
; 'Sparse Infill', 44.6 [RPM], 52.5 [mm/s]
G1 X45.53 Y91.32 Z1 F30000
; extruder on
M101
G1 X45.54 Y91.33 Z1 F3152.6
G1 X45.53 Y92.73 Z1 F3152.6
G1 X45.54 Y92.74 Z1 F3152.6
; extruder(s) off
M103
;
; 'Sparse Infill', 44.6 [RPM], 52.5 [mm/s]
G1 X51.89 Y90.61 Z1 F30000
; extruder on
M101
G1 X51.9 Y90.62 Z1 F3152.6
G1 X53.31 Y90.61 Z1 F3152.6
G1 X53.32 Y90.62 Z1 F3152.6
; extruder(s) off
M103
;
; 'Sparse Infill', 44.6 [RPM], 52.5 [mm/s]
G1 X50.84 Y86.73 Z1 F30000
; extruder on
M101
G1 X50.83 Y86.72 Z1 F3152.6
G1 X50.84 Y85.32 Z1 F3152.6
G1 X50.83 Y85.31 Z1 F3152.6
G1 X52.25 Y85.31 Z1 F3152.6
G1 X52.25 Y85.32 Z1 F3152.6
; extruder(s) off
M103
;
; 'Sparse Infill', 44.6 [RPM], 52.5 [mm/s]
G1 X52.61 Y82.84 Z1 F30000
; extruder on
M101
G1 X52.6 Y82.83 Z1 F3152.6
G1 X51.19 Y82.84 Z1 F3152.6
G1 X50.83 Y82.48 Z1 F3152.6
G1 X50.84 Y81.07 Z1 F3152.6
G1 X50.83 Y81.07 Z1 F3152.6
; extruder(s) off
M103
;
; 'Sparse Infill', 44.6 [RPM], 52.5 [mm/s]
G1 X51.55 Y77.54 Z1 F30000
; extruder on
M101
G1 X51.54 Y77.53 Z1 F3152.6
G1 X52.95 Y77.53 Z1 F3152.6
G1 X52.96 Y77.54 Z1 F3152.6
; extruder(s) off
M103
;
; 'Sparse Infill', 44.6 [RPM], 52.5 [mm/s]
G1 X50.84 Y76.83 Z1 F30000
; extruder on
M101
G1 X50.83 Y76.82 Z1 F3152.6
G1 X50.84 Y75.42 Z1 F3152.6
G1 X50.83 Y75.41 Z1 F3152.6
; extruder(s) off
M103
;
; 'Sparse Infill', 44.6 [RPM], 52.5 [mm/s]
G1 X50.13 Y69.05 Z1 F30000
; extruder on
M101
G1 X50.13 Y69.05 Z1 F3152.6
G1 X51.54 Y69.05 Z1 F3152.6
G1 X51.55 Y69.05 Z1 F3152.6
; extruder(s) off
M103
;
; 'Sparse Infill', 44.6 [RPM], 52.5 [mm/s]
G1 X49.07 Y56.68 Z1 F30000
; extruder on
M101
G1 X49.07 Y56.67 Z1 F3152.6
G1 X47.66 Y56.68 Z1 F3152.6
G1 X47.65 Y56.67 Z1 F3152.6
; extruder(s) off
M103
;
; 'Sparse Infill', 44.6 [RPM], 52.5 [mm/s]
G1 X44.82 Y60.91 Z1 F30000
; extruder on
M101
G1 X44.83 Y60.92 Z1 F3152.6
G1 X43.42 Y60.92 Z1 F3152.6
G1 X43.41 Y60.91 Z1 F3152.6
; extruder(s) off
M103
;
; 'Sparse Infill', 44.6 [RPM], 52.5 [mm/s]
G1 X37.76 Y60.92 Z1 F30000
; extruder on
M101
G1 X37.75 Y60.91 Z1 F3152.6
G1 X37.76 Y59.51 Z1 F3152.6
G1 X37.75 Y59.5 Z1 F3152.6
; extruder(s) off
M103
;
; 'Sparse Infill', 44.6 [RPM], 52.5 [mm/s]
G1 X37.75 Y65.16 Z1 F30000
; extruder on
M101
G1 X37.76 Y65.16 Z1 F3152.6
G1 X37.75 Y66.57 Z1 F3152.6
G1 X37.76 Y66.58 Z1 F3152.6
; extruder(s) off
M103
;
; 'Sparse Infill', 44.6 [RPM], 52.5 [mm/s]
G1 X41.99 Y72.23 Z1 F30000
; extruder on
M101
G1 X42 Y72.24 Z1 F3152.6
G1 X40.59 Y72.24 Z1 F3152.6
G1 X40.58 Y72.23 Z1 F3152.6
; extruder(s) off
M103
;
; 'Sparse Infill', 44.6 [RPM], 52.5 [mm/s]
G1 X45.53 Y77.18 Z1 F30000
; extruder on
M101
G1 X45.89 Y77.54 Z1 F3152.6
G1 X47.3 Y77.53 Z1 F3152.6
G1 X47.3 Y77.54 Z1 F3152.6
; extruder(s) off
M103
;
; 'Sparse Infill', 44.6 [RPM], 52.5 [mm/s]
G1 X46.95 Y70.11 Z1 F30000
; extruder on
M101
G1 X46.24 Y69.4 Z1 F3152.6
; extruder(s) off
M103
;
; 'Sparse Infill', 44.6 [RPM], 52.5 [mm/s]
G1 X44.83 Y65.16 Z1 F30000
; extruder on
M101
G1 X44.82 Y65.16 Z1 F3152.6
G1 X44.12 Y65.86 Z1 F3152.6
G1 X44.12 Y65.87 Z1 F3152.6
; extruder(s) off
M103
;
; 'Sparse Infill', 44.6 [RPM], 52.5 [mm/s]
G1 X43.41 Y67.99 Z1 F30000
; extruder on
M101
G1 X43.42 Y67.99 Z1 F3152.6
G1 X43.41 Y69.4 Z1 F3152.6
G1 X43.42 Y69.41 Z1 F3152.6
; extruder(s) off
M103
;
; 'Sparse Infill', 44.6 [RPM], 52.5 [mm/s]
G1 X58.61 Y63.39 Z1 F30000
; extruder on
M101
G1 X58.62 Y63.4 Z1 F3152.6
G1 X58.62 Y61.98 Z1 F3152.6
G1 X58.61 Y61.98 Z1 F3152.6
G1 X58.62 Y60.57 Z1 F3152.6
G1 X58.61 Y60.56 Z1 F3152.6
G1 X58.62 Y59.15 Z1 F3152.6
G1 X58.61 Y59.15 Z1 F3152.6
G1 X58.62 Y57.74 Z1 F3152.6
G1 X58.61 Y57.73 Z1 F3152.6
; extruder(s) off
M103
;
; 'Sparse Infill', 44.6 [RPM], 52.5 [mm/s]
G1 X63.92 Y60.21 Z1 F30000
; extruder on
M101
G1 X63.92 Y60.21 Z1 F3152.6
G1 X63.92 Y61.62 Z1 F3152.6
G1 X63.92 Y61.63 Z1 F3152.6
; extruder(s) off
M103
;
; 'Sparse Infill', 44.6 [RPM], 52.5 [mm/s]
G1 X63.92 Y64.45 Z1 F30000
; extruder on
M101
G1 X63.92 Y64.46 Z1 F3152.6
G1 X63.92 Y65.86 Z1 F3152.6
G1 X63.92 Y65.87 Z1 F3152.6
; extruder(s) off
M103
;
; 'Sparse Infill', 44.6 [RPM], 52.5 [mm/s]
G1 X58.62 Y64.81 Z1 F30000
; extruder on
M101
G1 X58.61 Y64.8 Z1 F3152.6
G1 X58.61 Y66.22 Z1 F3152.6
G1 X58.62 Y66.23 Z1 F3152.6
; extruder(s) off
M103
;
; 'Sparse Infill', 44.6 [RPM], 52.5 [mm/s]
G1 X58.62 Y71.88 Z1 F30000
; extruder on
M101
G1 X58.61 Y71.87 Z1 F3152.6
G1 X58.61 Y73.29 Z1 F3152.6
G1 X58.62 Y73.3 Z1 F3152.6
G1 X58.61 Y74.7 Z1 F3152.6
G1 X58.62 Y74.71 Z1 F3152.6
G1 X58.61 Y76.12 Z1 F3152.6
G1 X58.62 Y76.12 Z1 F3152.6
G1 X58.61 Y77.53 Z1 F3152.6
G1 X58.62 Y77.54 Z1 F3152.6
G1 X57.2 Y77.54 Z1 F3152.6
G1 X57.2 Y77.53 Z1 F3152.6
; extruder(s) off
M103
;
; 'Sparse Infill', 44.6 [RPM], 52.5 [mm/s]
G1 X58.61 Y80.36 Z1 F30000
; extruder on
M101
G1 X58.62 Y80.37 Z1 F3152.6
G1 X58.61 Y81.77 Z1 F3152.6
G1 X58.62 Y81.78 Z1 F3152.6
; extruder(s) off
M103
;
; 'Sparse Infill', 44.6 [RPM], 52.5 [mm/s]
G1 X58.26 Y82.84 Z1 F30000
; extruder on
M101
G1 X58.27 Y82.84 Z1 F3152.6
G1 X56.85 Y82.84 Z1 F3152.6
G1 X56.84 Y82.83 Z1 F3152.6
; extruder(s) off
M103
;
; 'Sparse Infill', 44.6 [RPM], 52.5 [mm/s]
G1 X56.49 Y85.31 Z1 F30000
; extruder on
M101
G1 X56.5 Y85.32 Z1 F3152.6
G1 X57.9 Y85.31 Z1 F3152.6
G1 X57.91 Y85.32 Z1 F3152.6
; extruder(s) off
M103
;
; 'Sparse Infill', 44.6 [RPM], 52.5 [mm/s]
G1 X58.61 Y86.02 Z1 F30000
; extruder on
M101
G1 X58.62 Y86.02 Z1 F3152.6
G1 X58.61 Y87.43 Z1 F3152.6
G1 X58.62 Y87.44 Z1 F3152.6
; extruder(s) off
M103
;
; 'Sparse Infill', 44.6 [RPM], 52.5 [mm/s]
G1 X62.51 Y82.84 Z1 F30000
; extruder on
M101
G1 X62.5 Y82.84 Z1 F3152.6
G1 X63.91 Y82.84 Z1 F3152.6
G1 X63.92 Y82.84 Z1 F3152.6
G1 X63.92 Y81.43 Z1 F3152.6
G1 X63.91 Y81.42 Z1 F3152.6
; extruder(s) off
M103
;
; 'Sparse Infill', 44.6 [RPM], 52.5 [mm/s]
G1 X63.91 Y77.18 Z1 F30000
; extruder on
M101
G1 X63.92 Y77.19 Z1 F3152.6
G1 X63.92 Y75.77 Z1 F3152.6
G1 X63.91 Y75.76 Z1 F3152.6
; extruder(s) off
M103
;
; 'Sparse Infill', 44.6 [RPM], 52.5 [mm/s]
G1 X66.39 Y75.41 Z1 F30000
; extruder on
M101
G1 X66.4 Y75.42 Z1 F3152.6
G1 X66.39 Y76.82 Z1 F3152.6
G1 X66.4 Y76.83 Z1 F3152.6
; extruder(s) off
M103
;
; 'Sparse Infill', 44.6 [RPM], 52.5 [mm/s]
G1 X67.1 Y77.53 Z1 F30000
; extruder on
M101
G1 X67.1 Y77.54 Z1 F3152.6
G1 X68.51 Y77.53 Z1 F3152.6
G1 X68.52 Y77.54 Z1 F3152.6
; extruder(s) off
M103
;
; 'Sparse Infill', 44.6 [RPM], 52.5 [mm/s]
G1 X66.75 Y71.53 Z1 F30000
; extruder on
M101
G1 X66.74 Y71.52 Z1 F3152.6
G1 X67.45 Y70.81 Z1 F3152.6
G1 X67.46 Y70.82 Z1 F3152.6
G1 X68.16 Y70.11 Z1 F3152.6
G1 X68.16 Y70.11 Z1 F3152.6
; extruder(s) off
M103
;
; 'Sparse Infill', 44.6 [RPM], 52.5 [mm/s]
G1 X74.53 Y65.16 Z1 F30000
; extruder on
M101
G1 X74.52 Y65.16 Z1 F3152.6
G1 X74.53 Y63.75 Z1 F3152.6
G1 X74.52 Y63.74 Z1 F3152.6
; extruder(s) off
M103
;
; 'Sparse Infill', 44.6 [RPM], 52.5 [mm/s]
G1 X78.77 Y56.68 Z1 F30000
; extruder on
M101
G1 X78.76 Y56.67 Z1 F3152.6
G1 X80.18 Y56.67 Z1 F3152.6
G1 X80.19 Y56.68 Z1 F3152.6
; extruder(s) off
M103
;
; 'Sparse Infill', 44.6 [RPM], 52.5 [mm/s]
G1 X92.55 Y60.56 Z1 F30000
; extruder on
M101
G1 X92.56 Y60.57 Z1 F3152.6
G1 X93.27 Y59.86 Z1 F3152.6
G1 X93.26 Y59.85 Z1 F3152.6
; extruder(s) off
M103
;
; 'Sparse Infill', 44.6 [RPM], 52.5 [mm/s]
G1 X97.15 Y56.67 Z1 F30000
; extruder on
M101
G1 X97.16 Y56.68 Z1 F3152.6
G1 X98.56 Y56.67 Z1 F3152.6
G1 X98.57 Y56.68 Z1 F3152.6
G1 X99.98 Y56.67 Z1 F3152.6
G1 X99.98 Y56.68 Z1 F3152.6
; extruder(s) off
M103
;
; 'Sparse Infill', 44.6 [RPM], 52.5 [mm/s]
G1 X93.27 Y65.52 Z1 F30000
; extruder on
M101
G1 X93.26 Y65.51 Z1 F3152.6
G1 X93.27 Y64.1 Z1 F3152.6
G1 X93.26 Y64.1 Z1 F3152.6
; extruder(s) off
M103
;
; 'Sparse Infill', 44.6 [RPM], 52.5 [mm/s]
G1 X85.13 Y70.11 Z1 F30000
; extruder on
M101
G1 X85.49 Y70.47 Z1 F3152.6
G1 X85.48 Y71.88 Z1 F3152.6
G1 X85.49 Y71.88 Z1 F3152.6
; extruder(s) off
M103
;
; 'Sparse Infill', 44.6 [RPM], 52.5 [mm/s]
G1 X80.54 Y72.59 Z1 F30000
; extruder on
M101
G1 X80.53 Y72.58 Z1 F3152.6
G1 X79.12 Y72.59 Z1 F3152.6
G1 X79.12 Y72.58 Z1 F3152.6
; extruder(s) off
M103
;
; 'Sparse Infill', 44.6 [RPM], 52.5 [mm/s]
G1 X75.24 Y71.53 Z1 F30000
; extruder on
M101
G1 X73.46 Y69.75 Z1 F3152.6
; extruder(s) off
M103
;
; 'Sparse Infill', 44.6 [RPM], 52.5 [mm/s]
G1 X66.4 Y65.52 Z1 F30000
; extruder on
M101
G1 X66.39 Y65.51 Z1 F3152.6
G1 X66.4 Y64.1 Z1 F3152.6
G1 X66.39 Y64.1 Z1 F3152.6
G1 X66.4 Y62.69 Z1 F3152.6
G1 X66.39 Y62.68 Z1 F3152.6
G1 X66.4 Y61.28 Z1 F3152.6
G1 X66.39 Y61.27 Z1 F3152.6
G1 X66.4 Y59.86 Z1 F3152.6
G1 X66.39 Y59.85 Z1 F3152.6
G1 X66.4 Y58.45 Z1 F3152.6
G1 X66.39 Y58.44 Z1 F3152.6
; extruder(s) off
M103
;
; 'Sparse Infill', 44.6 [RPM], 52.5 [mm/s]
G1 X42.36 Y85.32 Z1 F30000
; extruder on
M101
G1 X42.35 Y85.31 Z1 F3152.6
G1 X40.94 Y85.32 Z1 F3152.6
G1 X40.93 Y85.31 Z1 F3152.6
; extruder(s) off
M103
;
; 'Sparse Infill', 44.6 [RPM], 52.5 [mm/s]
G1 X117.66 Y61.62 Z1 F30000
; extruder on
M101
G1 X117.66 Y61.63 Z1 F3152.6
G1 X118.37 Y60.92 Z1 F3152.6
G1 X118.36 Y60.92 Z1 F3152.6
; extruder(s) off
M103
;
; 'Stacked Sparse Infill', 44.6 [RPM], 52.5 [mm/s]
G1 X118.01 Y57.73 Z1 F30000
; extruder on
M101
G1 X118.58 Y58.3 Z1 F3152.6
G1 X118.68 Y58.48 Z1 F3152.6
G1 X118.72 Y58.73 Z1 F3152.6
G1 X118.72 Y59.87 Z1 F3152.6
G1 X117.49 Y61.1 Z1 F3152.6
G1 X117.14 Y61.63 Z1 F3152.6
G1 X117.13 Y61.98 Z1 F3152.6
G1 X116.61 Y62.69 Z1 F3152.6
G1 X114.76 Y62.69 Z1 F3152.6
G1 X114.47 Y62.68 Z1 F3152.6
G1 X113.77 Y63.74 Z1 F3152.6
G1 X113.61 Y64.1 Z1 F3152.6
G1 X113.36 Y64.51 Z1 F3152.6
G1 X113.06 Y64.8 Z1 F3152.6
G1 X113.06 Y64.82 Z1 F3152.6
; extruder(s) off
M103
;
; 'Stacked Sparse Infill', 44.6 [RPM], 52.5 [mm/s]
G1 X110.95 Y68.34 Z1 F30000
; extruder on
M101
G1 X109.52 Y68.34 Z1 F3152.6
; extruder(s) off
M103
;
; 'Stacked Sparse Infill', 44.6 [RPM], 52.5 [mm/s]
G1 X104.58 Y68.34 Z1 F30000
; extruder on
M101
G1 X103.23 Y68.34 Z1 F3152.6
G1 X103.16 Y68.34 Z1 F3152.6
G1 X101.75 Y69.75 Z1 F3152.6
G1 X101.75 Y69.83 Z1 F3152.6
G1 X101.75 Y71.18 Z1 F3152.6
G1 X101.28 Y71.01 Z1 F3152.6
G1 X100.33 Y71 Z1 F3152.6
G1 X99.39 Y70.88 Z1 F3152.6
G1 X98.92 Y70.99 Z1 F3152.6
G1 X98.45 Y70.76 Z1 F3152.6
G1 X97.51 Y70.64 Z1 F3152.6
G1 X97.03 Y70.65 Z1 F3152.6
G1 X96.56 Y70.52 Z1 F3152.6
G1 X96.09 Y70.46 Z1 F3152.6
G1 X96.09 Y71.89 Z1 F3152.6
G1 X91.49 Y67.99 Z1 F3152.6
G1 X91.71 Y68.2 Z1 F3152.6
G1 X91.88 Y68.31 Z1 F3152.6
G1 X92.13 Y68.34 Z1 F3152.6
G1 X93.98 Y68.34 Z1 F3152.6
; extruder(s) off
M103
;
; 'Stacked Sparse Infill', 44.6 [RPM], 52.5 [mm/s]
G1 X87.61 Y68.34 Z1 F30000
; extruder on
M101
G1 X86.48 Y68.34 Z1 F3152.6
G1 X86.23 Y68.31 Z1 F3152.6
G1 X86.05 Y68.2 Z1 F3152.6
G1 X85.13 Y67.28 Z1 F3152.6
G1 X84.92 Y67.63 Z1 F3152.6
G1 X84.94 Y67.99 Z1 F3152.6
G1 X84.63 Y68.48 Z1 F3152.6
G1 X84.07 Y69.05 Z1 F3152.6
G1 X84.74 Y69.72 Z1 F3152.6
G1 X84.78 Y69.76 Z1 F3152.6
; extruder(s) off
M103
;
; 'Stacked Sparse Infill', 44.6 [RPM], 52.5 [mm/s]
G1 X79.12 Y70.46 Z1 F30000
; extruder on
M101
G1 X79.12 Y71.89 Z1 F3152.6
; extruder(s) off
M103
;
; 'Stacked Sparse Infill', 44.6 [RPM], 52.5 [mm/s]
G1 X75.59 Y68.34 Z1 F30000
; extruder on
M101
G1 X75.16 Y68.34 Z1 F3152.6
G1 X74.91 Y68.31 Z1 F3152.6
G1 X74.74 Y68.2 Z1 F3152.6
G1 X73.61 Y67.07 Z1 F3152.6
G1 X73.5 Y66.89 Z1 F3152.6
G1 X73.46 Y66.65 Z1 F3152.6
G1 X73.46 Y64.38 Z1 F3152.6
G1 X73.43 Y64.14 Z1 F3152.6
G1 X73.32 Y63.96 Z1 F3152.6
G1 X72.4 Y63.04 Z1 F3152.6
G1 X74.53 Y62.34 Z1 F3152.6
G1 X73.61 Y61.41 Z1 F3152.6
G1 X73.5 Y61.24 Z1 F3152.6
G1 X73.46 Y60.99 Z1 F3152.6
G1 X73.46 Y59.85 Z1 F3152.6
G1 X75.58 Y58.16 Z1 F3152.6
G1 X76.36 Y57.66 Z1 F3152.6
G1 X76.99 Y57.03 Z1 F3152.6
G1 X77.42 Y57.03 Z1 F3152.6
G1 X77.67 Y57.06 Z1 F3152.6
G1 X77.85 Y57.17 Z1 F3152.6
G1 X78.98 Y58.3 Z1 F3152.6
G1 X79.12 Y58.45 Z1 F3152.6
G1 X80.25 Y57.3 Z1 F3152.6
G1 X80.53 Y57.03 Z1 F3152.6
G1 X80.86 Y57.35 Z1 F3152.6
G1 X81.7 Y57.8 Z1 F3152.6
G1 X84.78 Y59.85 Z1 F3152.6
G1 X84.78 Y60.99 Z1 F3152.6
G1 X84.81 Y61.24 Z1 F3152.6
G1 X84.92 Y61.41 Z1 F3152.6
G1 X86.05 Y62.55 Z1 F3152.6
G1 X86.23 Y62.65 Z1 F3152.6
G1 X86.48 Y62.69 Z1 F3152.6
G1 X87.61 Y62.69 Z1 F3152.6
; extruder(s) off
M103
;
; 'Stacked Sparse Infill', 44.6 [RPM], 52.5 [mm/s]
G1 X91.49 Y62.33 Z1 F30000
; extruder on
M101
G1 X91.71 Y62.55 Z1 F3152.6
G1 X91.88 Y62.65 Z1 F3152.6
G1 X92.13 Y62.69 Z1 F3152.6
G1 X93.27 Y62.69 Z1 F3152.6
; extruder(s) off
M103
;
; 'Stacked Sparse Infill', 44.6 [RPM], 52.5 [mm/s]
G1 X96.09 Y59.16 Z1 F30000
; extruder on
M101
G1 X96.09 Y58.73 Z1 F3152.6
G1 X96.06 Y58.48 Z1 F3152.6
G1 X95.95 Y58.3 Z1 F3152.6
G1 X95.38 Y57.73 Z1 F3152.6
G1 X95.81 Y57.59 Z1 F3152.6
G1 X96.23 Y57.54 Z1 F3152.6
