; generated by Slic3r 0.8.4-dev on 2012-06-20 at 21:32:30

; layer_height = 0.4
; perimeters = 3
; solid_layers = 3
; fill_density = 0.2
; nozzle_diameter = 0.5
; filament_diameter = 3
; extrusion_multiplier = 1
; perimeter_speed = 25
; infill_speed = 30
; travel_speed = 50
; scale = 1
; single wall width = 0.53mm

G28 ; home all axes
G90 ; use absolute coordinates
G21 ; set units to millimeters
G92 E0 ; reset extrusion distance
M82 ; use absolute distances for extrusion
G1 Z0.400 F3000.000
G1 X106.174 Y137.654
G1 F1800.000 E1.00000
G1 X106.794 Y136.844 F750.000 E1.02999
G1 X107.494 Y136.104 E1.05995
G1 X107.994 Y135.644 E1.07993
G1 X108.804 Y135.024 E1.10992
G1 X109.364 Y134.644 E1.12982
G1 X109.954 Y134.304 E1.14985
G1 X110.874 Y133.864 E1.17983
G1 X112.154 Y133.414 E1.21973
G1 X112.484 Y133.324 E1.22979
G1 X113.814 Y133.074 E1.26958
G1 X114.834 Y132.994 E1.29967
G1 X215.154 Y132.994 E4.24961
G1 X216.174 Y133.074 E4.27970
G1 X217.504 Y133.324 E4.31949
G1 X218.794 Y133.734 E4.35929
G1 X220.034 Y134.304 E4.39942
G1 X220.624 Y134.644 E4.41945
G1 X221.464 Y135.224 E4.44946
G1 X221.994 Y135.644 E4.46935
G1 X222.734 Y136.344 E4.49930
G1 X223.194 Y136.844 E4.51928
G1 X223.814 Y137.654 E4.54927
G1 X224.194 Y138.214 E4.56917
G1 X224.534 Y138.804 E4.58920
G1 X224.974 Y139.724 E4.61919
G1 X225.424 Y141.004 E4.65908
G1 X225.514 Y141.334 E4.66914
G1 X225.764 Y142.664 E4.70893
G1 X225.844 Y143.684 E4.73902
G1 X225.844 Y186.304 E5.99227
G1 X225.764 Y187.324 E6.02236
G1 X225.514 Y188.654 E6.06215
G1 X225.104 Y189.944 E6.10196
G1 X224.534 Y191.184 E6.14209
G1 X224.194 Y191.774 E6.16211
G1 X223.614 Y192.614 E6.19213
G1 X223.194 Y193.144 E6.21201
G1 X222.494 Y193.884 E6.24197
G1 X221.994 Y194.344 E6.26194
G1 X221.184 Y194.964 E6.29194
G1 X220.624 Y195.344 E6.31184
G1 X220.034 Y195.684 E6.33186
G1 X219.114 Y196.124 E6.36185
G1 X217.834 Y196.574 E6.40175
G1 X217.504 Y196.664 E6.41181
G1 X216.174 Y196.914 E6.45160
G1 X215.154 Y196.994 E6.48169
G1 X114.834 Y196.994 E9.43163
G1 X113.814 Y196.914 E9.46171
G1 X112.484 Y196.664 E9.50151
G1 X111.194 Y196.254 E9.54131
G1 X109.954 Y195.684 E9.58144
G1 X109.364 Y195.344 E9.60146
G1 X108.524 Y194.764 E9.63148
G1 X107.994 Y194.344 E9.65137
G1 X107.254 Y193.644 E9.68132
G1 X106.794 Y193.144 E9.70130
G1 X106.174 Y192.334 E9.73129
G1 X105.794 Y191.774 E9.75119
G1 X105.454 Y191.184 E9.77122
G1 X105.014 Y190.264 E9.80120
G1 X104.564 Y188.984 E9.84110
G1 X104.474 Y188.654 E9.85116
G1 X104.224 Y187.324 E9.89095
G1 X104.144 Y186.304 E9.92104
G1 X104.144 Y143.684 E11.17429
G1 X104.224 Y142.664 E11.20438
G1 X104.474 Y141.334 E11.24417
G1 X104.884 Y140.044 E11.28398
G1 X105.454 Y138.804 E11.32411
G1 X105.794 Y138.214 E11.34413
G1 X106.130 Y137.720 E11.36171
G1 X106.554 Y138.004 F3000.000
G1 X107.164 Y137.204 F750.000 E11.39130
G1 X107.854 Y136.474 E11.42083
G1 X108.354 Y136.014 E11.44081
G1 X108.884 Y135.594 E11.46070
G1 X109.724 Y135.034 E11.49038
G1 X110.914 Y134.404 E11.52998
G1 X111.864 Y134.044 E11.55985
G1 X112.834 Y133.774 E11.58946
G1 X113.834 Y133.594 E11.61934
G1 X114.164 Y133.554 E11.62911
G1 X115.174 Y133.504 E11.65885
G1 X215.154 Y133.514 E14.59879
G1 X215.824 Y133.554 E14.61853
G1 X216.824 Y133.704 E14.64826
G1 X217.804 Y133.944 E14.67793
G1 X218.764 Y134.274 E14.70778
G1 X219.074 Y134.404 E14.71767
G1 X219.974 Y134.864 E14.74739
G1 X220.554 Y135.214 E14.76731
G1 X221.104 Y135.594 E14.78696
G1 X221.634 Y136.014 E14.80685
G1 X222.364 Y136.704 E14.83639
G1 X222.824 Y137.204 E14.85637
G1 X223.244 Y137.734 E14.87625
G1 X223.804 Y138.574 E14.90594
G1 X224.434 Y139.764 E14.94553
G1 X224.794 Y140.714 E14.97540
G1 X225.064 Y141.684 E15.00501
G1 X225.244 Y142.684 E15.03489
G1 X225.284 Y143.014 E15.04466
G1 X225.324 Y186.304 E16.31762
G1 X225.284 Y186.974 E16.33736
G1 X225.134 Y187.974 E16.36709
G1 X224.894 Y188.954 E16.39676
G1 X224.564 Y189.914 E16.42661
G1 X224.434 Y190.224 E16.43650
G1 X223.974 Y191.124 E16.46622
G1 X223.624 Y191.704 E16.48614
G1 X223.244 Y192.254 E16.50579
G1 X222.824 Y192.784 E16.52568
G1 X222.134 Y193.514 E16.55522
G1 X221.634 Y193.974 E16.57519
G1 X221.104 Y194.394 E16.59508
G1 X220.264 Y194.954 E16.62477
G1 X219.074 Y195.584 E16.66436
G1 X218.124 Y195.944 E16.69423
G1 X217.154 Y196.214 E16.72384
G1 X216.154 Y196.394 E16.75372
G1 X215.824 Y196.434 E16.76349
G1 X214.814 Y196.484 E16.79323
G1 X114.834 Y196.474 E19.73317
G1 X114.164 Y196.434 E19.75291
G1 X113.164 Y196.284 E19.78264
G1 X112.184 Y196.044 E19.81231
G1 X111.224 Y195.714 E19.84216
G1 X110.914 Y195.584 E19.85205
G1 X110.014 Y195.124 E19.88177
G1 X109.434 Y194.774 E19.90169
G1 X108.884 Y194.394 E19.92135
G1 X108.354 Y193.974 E19.94123
G1 X107.624 Y193.284 E19.97077
G1 X107.164 Y192.784 E19.99075
G1 X106.744 Y192.254 E20.01063
G1 X106.184 Y191.414 E20.04032
G1 X105.554 Y190.224 E20.07991
G1 X105.194 Y189.274 E20.10979
G1 X104.924 Y188.304 E20.13939
G1 X104.744 Y187.304 E20.16927
G1 X104.704 Y186.974 E20.17905
G1 X104.664 Y143.684 E21.45200
G1 X104.704 Y143.014 E21.47174
G1 X104.854 Y142.014 E21.50147
G1 X105.094 Y141.034 E21.53114
G1 X105.424 Y140.074 E21.56099
G1 X105.554 Y139.764 E21.57088
G1 X106.014 Y138.864 E21.60060
G1 X106.364 Y138.284 E21.62052
G1 X106.510 Y138.070 E21.62815
G1 X106.864 Y138.464 F3000.000
G1 X107.244 Y137.934 F750.000 E21.64733
G1 X107.874 Y137.184 E21.67613
G1 X108.334 Y136.724 E21.69526
G1 X109.084 Y136.094 E21.72406
G1 X109.894 Y135.534 E21.75302
G1 X110.754 Y135.054 E21.78198
G1 X111.344 Y134.784 E21.80106
G1 X112.274 Y134.454 E21.83008
G1 X113.224 Y134.214 E21.85889
G1 X113.544 Y134.154 E21.86846
G1 X114.524 Y134.044 E21.89746
G1 X115.174 Y134.024 E21.91659
G1 X215.464 Y134.044 E24.86565
G1 X216.444 Y134.154 E24.89464
G1 X217.404 Y134.364 E24.92354
G1 X218.334 Y134.664 E24.95227
G1 X218.944 Y134.914 E24.97166
G1 X219.814 Y135.364 E25.00046
G1 X220.634 Y135.894 E25.02917
G1 X221.654 Y136.724 E25.06784
G1 X222.114 Y137.184 E25.08697
G1 X222.744 Y137.934 E25.11577
G1 X223.304 Y138.744 E25.14473
G1 X223.784 Y139.604 E25.17369
G1 X224.054 Y140.194 E25.19277
G1 X224.384 Y141.124 E25.22179
G1 X224.624 Y142.074 E25.25060
G1 X224.684 Y142.394 E25.26017
G1 X224.794 Y143.374 E25.28917
G1 X224.794 Y186.614 E26.56066
G1 X224.684 Y187.594 E26.58966
G1 X224.474 Y188.554 E26.61855
G1 X224.174 Y189.484 E26.64729
G1 X223.924 Y190.094 E26.66667
G1 X223.474 Y190.964 E26.69548
G1 X222.944 Y191.784 E26.72419
G1 X222.114 Y192.804 E26.76285
G1 X221.654 Y193.264 E26.78198
G1 X220.904 Y193.894 E26.81079
G1 X220.094 Y194.454 E26.83974
G1 X219.234 Y194.934 E26.86870
G1 X218.644 Y195.204 E26.88778
G1 X217.714 Y195.534 E26.91680
G1 X216.764 Y195.774 E26.94561
G1 X216.444 Y195.834 E26.95519
G1 X215.464 Y195.944 E26.98418
G1 X214.814 Y195.964 E27.00331
G1 X114.524 Y195.944 E29.95237
G1 X113.544 Y195.834 E29.98137
G1 X112.584 Y195.624 E30.01026
G1 X111.654 Y195.324 E30.03900
G1 X111.044 Y195.074 E30.05838
G1 X110.174 Y194.624 E30.08718
G1 X109.354 Y194.094 E30.11589
G1 X108.334 Y193.264 E30.15456
G1 X107.874 Y192.804 E30.17369
G1 X107.244 Y192.054 E30.20249
G1 X106.684 Y191.244 E30.23145
G1 X106.204 Y190.384 E30.26041
G1 X105.934 Y189.794 E30.27949
G1 X105.604 Y188.864 E30.30851
G1 X105.364 Y187.914 E30.33732
G1 X105.304 Y187.594 E30.34690
G1 X105.194 Y186.614 E30.37589
G1 X105.194 Y143.374 E31.64738
G1 X105.304 Y142.394 E31.67638
G1 X105.514 Y141.434 E31.70527
G1 X105.814 Y140.504 E31.73401
G1 X106.064 Y139.894 E31.75339
G1 X106.514 Y139.024 E31.78220
G1 X106.822 Y138.531 E31.79930
G1 F1800.000 E30.79930
G92 E0
G1 X116.207 Y184.943 F3000.000
G1 F1800.000 E1.00000
G1 X116.207 Y145.057 F750.000 E2.17285
G1 X213.793 Y145.057 E5.04238
G1 X213.793 Y184.943 E6.21523
G1 X142.529 Y184.943 E8.31077
G1 X116.286 Y184.943 E9.08245
G1 X115.692 Y185.458 F3000.000
G1 X115.692 Y144.542 F750.000 E10.28559
G1 X214.308 Y144.542 E13.18543
G1 X214.308 Y185.458 E14.38857
G1 X142.529 Y185.458 E16.49926
G1 X115.771 Y185.458 E17.28609
G1 X115.177 Y185.973 F3000.000
G1 X115.177 Y144.027 F750.000 E18.51953
G1 X214.823 Y144.027 E21.44967
G1 X214.823 Y185.973 E22.68311
G1 X142.529 Y185.973 E24.80895
G1 X115.256 Y185.973 E25.61093
G1 F1800.000 E24.61093
G92 E0
G1 X116.871 Y184.576 F3000.000
G1 F1800.000 E1.00000
G1 X116.574 Y184.279 F750.000 E1.01236
G1 X116.574 Y183.547 F3000.000
G1 X117.603 Y184.576 F750.000 E1.05516
G1 X118.335 Y184.576 F3000.000
G1 X116.574 Y182.815 F750.000 E1.12839
G1 X116.574 Y182.083 F3000.000
G1 X119.067 Y184.576 F750.000 E1.23206
G1 X119.799 Y184.576 F3000.000
G1 X116.574 Y181.351 F750.000 E1.36618
G1 X116.574 Y180.619 F3000.000
G1 X120.531 Y184.576 F750.000 E1.53072
G1 X121.262 Y184.576 F3000.000
G1 X116.573 Y179.888 F750.000 E1.72571
G1 X116.574 Y179.155 F3000.000
G1 X121.995 Y184.576 F750.000 E1.95114
G1 X122.727 Y184.576 F3000.000
G1 X116.574 Y178.423 F750.000 E2.20701
G1 X116.574 Y177.692 F3000.000
G1 X123.458 Y184.576 F750.000 E2.49331
G1 X124.191 Y184.576 F3000.000
G1 X116.574 Y176.959 F750.000 E2.81005
G1 X116.574 Y176.228 F3000.000
G1 X124.922 Y184.576 F750.000 E3.15723
G1 X125.654 Y184.576 F3000.000
G1 X116.574 Y175.495 F750.000 E3.53485
G1 X116.574 Y174.764 F3000.000
G1 X126.386 Y184.576 F750.000 E3.94291
G1 X127.118 Y184.576 F3000.000
G1 X116.574 Y174.032 F750.000 E4.38141
G1 X116.574 Y173.299 F3000.000
G1 X127.851 Y184.576 F750.000 E4.85034
G1 X128.582 Y184.576 F3000.000
G1 X116.574 Y172.568 F750.000 E5.34971
G1 X116.574 Y171.836 F3000.000
G1 X129.314 Y184.576 F750.000 E5.87953
G1 X130.046 Y184.576 F3000.000
G1 X116.574 Y171.104 F750.000 E6.43978
G1 X116.574 Y170.372 F3000.000
G1 X130.778 Y184.576 F750.000 E7.03046
G1 X131.510 Y184.576 F3000.000
G1 X116.574 Y169.640 F750.000 E7.65159
G1 X116.574 Y168.908 F3000.000
G1 X132.242 Y184.576 F750.000 E8.30316
G1 X132.973 Y184.576 F3000.000
G1 X116.573 Y168.176 F750.000 E8.98515
G1 X116.574 Y167.444 F3000.000
G1 X133.706 Y184.576 F750.000 E9.69759
G1 X134.438 Y184.576 F3000.000
G1 X116.574 Y166.712 F750.000 E10.44049
G1 X116.574 Y165.980 F3000.000
G1 X135.170 Y184.576 F750.000 E11.21380
G1 X135.902 Y184.576 F3000.000
G1 X116.574 Y165.248 F750.000 E12.01757
G1 X116.574 Y164.517 F3000.000
G1 X136.633 Y184.576 F750.000 E12.85176
G1 X137.366 Y184.576 F3000.000
G1 X116.574 Y163.784 F750.000 E13.71640
G1 X116.573 Y163.053 F3000.000
G1 X138.097 Y184.576 F750.000 E14.61147
G1 X138.829 Y184.576 F3000.000
G1 X116.574 Y162.321 F750.000 E15.53698
G1 X116.574 Y161.588 F3000.000
G1 X139.561 Y184.576 F750.000 E16.49291
G1 X140.293 Y184.576 F3000.000
G1 X116.574 Y160.857 F750.000 E17.47930
G1 X116.574 Y160.124 F3000.000
G1 X141.026 Y184.576 F750.000 E18.49614
G1 X141.757 Y184.576 F3000.000
G1 X116.574 Y159.393 F750.000 E19.54340
G1 X116.574 Y158.661 F3000.000
G1 X142.489 Y184.576 F750.000 E20.62111
G1 X143.221 Y184.576 F3000.000
G1 X116.573 Y157.929 F750.000 E21.72924
G1 X116.574 Y157.197 F3000.000
G1 X143.953 Y184.576 F750.000 E22.86783
G1 X144.685 Y184.576 F3000.000
G1 X116.574 Y156.465 F750.000 E24.03683
G1 X116.574 Y155.733 F3000.000
G1 X145.417 Y184.576 F750.000 E25.23629
G1 X146.149 Y184.576 F3000.000
G1 X116.574 Y155.001 F750.000 E26.46620
G1 X116.574 Y154.269 F3000.000
G1 X146.881 Y184.576 F750.000 E27.72653
G1 X147.613 Y184.576 F3000.000
G1 X116.574 Y153.537 F750.000 E29.01731
G1 X116.574 Y152.805 F3000.000
G1 X148.344 Y184.576 F750.000 E30.33851
G1 X149.077 Y184.576 F3000.000
G1 X116.574 Y152.073 F750.000 E31.69017
G1 X116.573 Y151.342 F3000.000
G1 X149.808 Y184.576 F750.000 E33.07224
G1 X150.541 Y184.576 F3000.000
G1 X116.574 Y150.609 F750.000 E34.48477
G1 X116.574 Y149.877 F3000.000
G1 X151.273 Y184.576 F750.000 E35.92775
G1 X152.004 Y184.576 F3000.000
G1 X116.574 Y149.146 F750.000 E37.40115
G1 X116.574 Y148.413 F3000.000
G1 X152.737 Y184.576 F750.000 E38.90500
G1 X153.468 Y184.576 F3000.000
G1 X116.574 Y147.682 F750.000 E40.43927
G1 X116.574 Y146.949 F3000.000
G1 X154.201 Y184.576 F750.000 E42.00399
G1 X154.932 Y184.576 F3000.000
G1 X116.573 Y146.218 F750.000 E43.59914
G1 X116.574 Y145.486 F3000.000
G1 X155.664 Y184.576 F750.000 E45.22474
G1 X156.396 Y184.576 F3000.000
G1 X117.244 Y145.424 F750.000 E46.85289
G1 X117.976 Y145.424 F3000.000
G1 X157.128 Y184.576 F750.000 E48.48105
G1 X157.861 Y184.576 F3000.000
G1 X118.708 Y145.424 F750.000 E50.10923
G1 X119.439 Y145.424 F3000.000
G1 X158.592 Y184.576 F750.000 E51.73739
G1 X159.324 Y184.576 F3000.000
G1 X120.172 Y145.424 F750.000 E53.36557
G1 X120.903 Y145.424 F3000.000
G1 X160.055 Y184.576 F750.000 E54.99373
G1 X160.788 Y184.576 F3000.000
G1 X121.636 Y145.424 F750.000 E56.62190
G1 X122.368 Y145.423 F3000.000
G1 X161.520 Y184.576 F750.000 E58.25005
G1 X162.252 Y184.576 F3000.000
G1 X123.099 Y145.424 F750.000 E59.87822
G1 X123.832 Y145.424 F3000.000
G1 X162.984 Y184.576 F750.000 E61.50640
G1 X163.715 Y184.576 F3000.000
G1 X124.563 Y145.424 F750.000 E63.13456
G1 X125.295 Y145.424 F3000.000
G1 X164.448 Y184.576 F750.000 E64.76274
G1 X165.179 Y184.576 F3000.000
G1 X126.027 Y145.424 F750.000 E66.39090
G1 X126.759 Y145.424 F3000.000
G1 X165.912 Y184.576 F750.000 E68.01907
G1 X166.644 Y184.576 F3000.000
G1 X127.491 Y145.423 F750.000 E69.64722
G1 X128.223 Y145.424 F3000.000
G1 X167.375 Y184.576 F750.000 E71.27539
G1 X168.108 Y184.576 F3000.000
G1 X128.955 Y145.424 F750.000 E72.90357
G1 X129.687 Y145.424 F3000.000
G1 X168.839 Y184.576 F750.000 E74.53174
G1 X169.572 Y184.576 F3000.000
G1 X130.419 Y145.424 F750.000 E76.15991
G1 X131.151 Y145.424 F3000.000
G1 X170.303 Y184.576 F750.000 E77.78807
G1 X171.035 Y184.576 F3000.000
G1 X131.883 Y145.424 F750.000 E79.41625
G1 X132.614 Y145.424 F3000.000
G1 X171.767 Y184.576 F750.000 E81.04440
G1 X172.499 Y184.576 F3000.000
G1 X133.347 Y145.424 F750.000 E82.67257
G1 X134.079 Y145.424 F3000.000
G1 X173.232 Y184.576 F750.000 E84.30075
G1 X173.963 Y184.576 F3000.000
G1 X134.811 Y145.424 F750.000 E85.92892
G1 X135.543 Y145.424 F3000.000
G1 X174.695 Y184.576 F750.000 E87.55709
G1 X175.427 Y184.576 F3000.000
G1 X136.274 Y145.424 F750.000 E89.18526
G1 X137.007 Y145.424 F3000.000
G1 X176.159 Y184.576 F750.000 E90.81343
G1 X176.890 Y184.576 F3000.000
G1 X137.738 Y145.424 F750.000 E92.44159
G1 X138.470 Y145.424 F3000.000
G1 X177.623 Y184.576 F750.000 E94.06976
G1 X178.355 Y184.576 F3000.000
G1 X139.203 Y145.424 F750.000 E95.69791
G1 X139.934 Y145.424 F3000.000
G1 X179.086 Y184.576 F750.000 E97.32608
G1 X179.819 Y184.576 F3000.000
G1 X140.666 Y145.424 F750.000 E98.95425
G1 X141.398 Y145.424 F3000.000
G1 X180.550 Y184.576 F750.000 E100.58241
G1 X181.283 Y184.576 F3000.000
G1 X142.130 Y145.424 F750.000 E102.21059
G1 X142.862 Y145.424 F3000.000
G1 X182.014 Y184.576 F750.000 E103.83875
G1 X182.746 Y184.576 F3000.000
G1 X143.594 Y145.424 F750.000 E105.46692
G1 X144.326 Y145.423 F3000.000
G1 X183.478 Y184.576 F750.000 E107.09507
G1 X184.210 Y184.576 F3000.000
G1 X145.058 Y145.424 F750.000 E108.72324
G1 X145.790 Y145.424 F3000.000
G1 X184.943 Y184.576 F750.000 E110.35142
G1 X185.674 Y184.576 F3000.000
G1 X146.522 Y145.424 F750.000 E111.97958
G1 X147.254 Y145.424 F3000.000
G1 X186.406 Y184.576 F750.000 E113.60776
G1 X187.138 Y184.576 F3000.000
G1 X147.985 Y145.424 F750.000 E115.23592
G1 X148.718 Y145.424 F3000.000
G1 X187.870 Y184.576 F750.000 E116.86409
G1 X188.602 Y184.576 F3000.000
G1 X149.450 Y145.423 F750.000 E118.49224
G1 X150.182 Y145.424 F3000.000
G1 X189.334 Y184.576 F750.000 E120.12041
G1 X190.066 Y184.576 F3000.000
G1 X150.914 Y145.424 F750.000 E121.74859
G1 X151.645 Y145.424 F3000.000
G1 X190.798 Y184.576 F750.000 E123.37676
G1 X191.530 Y184.576 F3000.000
G1 X152.378 Y145.424 F750.000 E125.00493
G1 X153.109 Y145.424 F3000.000
G1 X192.261 Y184.576 F750.000 E126.63309
G1 X192.994 Y184.576 F3000.000
G1 X153.841 Y145.424 F750.000 E128.26127
G1 X154.573 Y145.424 F3000.000
G1 X193.725 Y184.576 F750.000 E129.88942
G1 X194.458 Y184.576 F3000.000
G1 X155.305 Y145.424 F750.000 E131.51759
G1 X156.037 Y145.424 F3000.000
G1 X195.189 Y184.576 F750.000 E133.14574
G1 X195.921 Y184.576 F3000.000
G1 X156.769 Y145.424 F750.000 E134.77391
G1 X157.501 Y145.424 F3000.000
G1 X196.654 Y184.576 F750.000 E136.40209
G1 X197.385 Y184.576 F3000.000
G1 X158.233 Y145.424 F750.000 E138.03025
